(G-CODE GENERATED BY FLATCAM v8.994 - www.flatcam.org - Version Date: 2020/11/7)

(Name: PatientMonitor.drl_edit_cnc)
(Type: G-code from Geometry)
(Units: MM)

(Created on Monday, 03 June 2024 at 21:44)

(This preprocessor is used with a motion controller loaded with GRBL firmware.)
(It is configured to be compatible with almost any version of GRBL firmware.)


(TOOLS DIAMETER: )
(Tool: 1 -> Dia: 0.5)
(Tool: 2 -> Dia: 1.0)
(Tool: 3 -> Dia: 1.2)
(Tool: 4 -> Dia: 3.2)

(FEEDRATE Z: )
(Tool: 1 -> Feedrate: 60.0)
(Tool: 2 -> Feedrate: 60.0)
(Tool: 3 -> Feedrate: 300)
(Tool: 4 -> Feedrate: 60.0)

(FEEDRATE RAPIDS: )
(Tool: 1 -> Feedrate Rapids: 1500)
(Tool: 2 -> Feedrate Rapids: 1500)
(Tool: 3 -> Feedrate Rapids: 1500)
(Tool: 4 -> Feedrate Rapids: 1500)

(Z_CUT: )
(Tool: 1 -> Z_Cut: -2.0)
(Tool: 2 -> Z_Cut: -2.0)
(Tool: 3 -> Z_Cut: -1.7)
(Tool: 4 -> Z_Cut: -2.0)

(Tools Offset: )
(Tool: 1 -> Offset Z: 0.0)
(Tool: 2 -> Offset Z: 0.0)
(Tool: 4 -> Offset Z: 0.0)

(Z_MOVE: )
(Tool: 1 -> Z_Move: 2)
(Tool: 2 -> Z_Move: 2)
(Tool: 3 -> Z_Move: 2)
(Tool: 4 -> Z_Move: 2)

(Z Toolchange: 15.0 mm)
(X,Y Toolchange: 0.0000, 0.0000 mm)
(Z Start: None mm)
(Z End: 15.0 mm)
(X,Y End: None mm)
(Steps per circle: 64)
(Steps per circle: 64)
(Preprocessor Excellon: GRBL_11_no_M6)

(X range:    0.9011 ...   97.0997  mm)
(Y range:    2.1490 ...   55.7298  mm)

(Spindle Speed: 1000 RPM)
G21
G90
G17
G94


G01 F60.00

M5             
G00 Z15.0000
G00 X0.0000 Y0.0000                
T1
(MSG, Change to Tool Dia = 0.5000 ||| Total drills for tool T1 = 50)
M0
G00 Z15.0000
        
G01 F60.00
M03 S1000
G00 X94.0003 Y47.0002
G01 Z-2.0000
G01 Z0
G00 Z2.0000
G00 X94.0003 Y44.5008
G01 Z-2.0000
G01 Z0
G00 Z2.0000
G00 X92.0013 Y36.4998
G01 Z-2.0000
G01 Z0
G00 Z2.0000
G00 X92.0013 Y23.5001
G01 Z-2.0000
G01 Z0
G00 Z2.0000
G00 X89.9998 Y9.4996
G01 Z-2.0000
G01 Z0
G00 Z2.0000
G00 X82.9996 Y7.0002
G01 Z-2.0000
G01 Z0
G00 Z2.0000
G00 X79.9998 Y7.0002
G01 Z-2.0000
G01 Z0
G00 Z2.0000
G00 X82.9996 Y12.4993
G01 Z-2.0000
G01 Z0
G00 Z2.0000
G00 X79.9998 Y17.0002
G01 Z-2.0000
G01 Z0
G00 Z2.0000
G00 X82.9996 Y23.5001
G01 Z-2.0000
G01 Z0
G00 Z2.0000
G00 X69.5020 Y25.4991
G01 Z-2.0000
G01 Z0
G00 Z2.0000
G00 X64.5008 Y25.5245
G01 Z-2.0000
G01 Z0
G00 Z2.0000
G00 X60.5003 Y27.5006
G01 Z-2.0000
G01 Z0
G00 Z2.0000
G00 X56.4998 Y27.5006
G01 Z-2.0000
G01 Z0
G00 Z2.0000
G00 X58.5013 Y25.4991
G01 Z-2.0000
G01 Z0
G00 Z2.0000
G00 X62.5018 Y20.5003
G01 Z-2.0000
G01 Z0
G00 Z2.0000
G00 X64.5008 Y20.5003
G01 Z-2.0000
G01 Z0
G00 Z2.0000
G00 X64.5008 Y15.4991
G01 Z-2.0000
G01 Z0
G00 Z2.0000
G00 X64.5008 Y5.4991
G01 Z-2.0000
G01 Z0
G00 Z2.0000
G00 X62.5018 Y7.5006
G01 Z-2.0000
G01 Z0
G00 Z2.0000
G00 X57.0001 Y11.5011
G01 Z-2.0000
G01 Z0
G00 Z2.0000
G00 X8.5014 Y17.0002
G01 Z-2.0000
G01 Z0
G00 Z2.0000
G00 X8.5014 Y21.5011
G01 Z-2.0000
G01 Z0
G00 Z2.0000
G00 X28.0010 Y32.4993
G01 Z-2.0000
G01 Z0
G00 Z2.0000
G00 X36.4998 Y31.0007
G01 Z-2.0000
G01 Z0
G00 Z2.0000
G00 X36.4998 Y39.9999
G01 Z-2.0000
G01 Z0
G00 Z2.0000
G00 X36.4998 Y44.5008
G01 Z-2.0000
G01 Z0
G00 Z2.0000
G00 X32.9997 Y50.5003
G01 Z-2.0000
G01 Z0
G00 Z2.0000
G00 X28.0010 Y50.5003
G01 Z-2.0000
G01 Z0
G00 Z2.0000
G00 X22.9997 Y47.5005
G01 Z-2.0000
G01 Z0
G00 Z2.0000
G00 X22.9997 Y50.5003
G01 Z-2.0000
G01 Z0
G00 Z2.0000
G00 X22.9997 Y53.5000
G01 Z-2.0000
G01 Z0
G00 Z2.0000
G00 X28.0010 Y53.5000
G01 Z-2.0000
G01 Z0
G00 Z2.0000
G00 X32.9997 Y53.5000
G01 Z-2.0000
G01 Z0
G00 Z2.0000
G00 X36.4998 Y52.4993
G01 Z-2.0000
G01 Z0
G00 Z2.0000
G00 X48.5013 Y52.9996
G01 Z-2.0000
G01 Z0
G00 Z2.0000
G00 X58.5013 Y52.9996
G01 Z-2.0000
G01 Z0
G00 Z2.0000
G00 X60.5003 Y47.5005
G01 Z-2.0000
G01 Z0
G00 Z2.0000
G00 X58.5013 Y47.5005
G01 Z-2.0000
G01 Z0
G00 Z2.0000
G00 X56.4998 Y47.5005
G01 Z-2.0000
G01 Z0
G00 Z2.0000
G00 X54.5008 Y47.5005
G01 Z-2.0000
G01 Z0
G00 Z2.0000
G00 X56.4998 Y42.9997
G01 Z-2.0000
G01 Z0
G00 Z2.0000
G00 X54.5008 Y39.9999
G01 Z-2.0000
G01 Z0
G00 Z2.0000
G00 X56.4998 Y39.9999
G01 Z-2.0000
G01 Z0
G00 Z2.0000
G00 X58.5013 Y39.9999
G01 Z-2.0000
G01 Z0
G00 Z2.0000
G00 X67.5005 Y35.9994
G01 Z-2.0000
G01 Z0
G00 Z2.0000
G00 X69.5020 Y35.9994
G01 Z-2.0000
G01 Z0
G00 Z2.0000
G00 X77.0001 Y41.0007
G01 Z-2.0000
G01 Z0
G00 Z2.0000
G00 X77.0001 Y48.9991
G01 Z-2.0000
G01 Z0
G00 Z2.0000
G00 X82.9996 Y41.0007
G01 Z-2.0000
G01 Z0
G00 Z2.0000
G01 F60.00

M5             
G00 Z15.0000
G00 X0.0000 Y0.0000                
T2
(MSG, Change to Tool Dia = 1.0000 ||| Total drills for tool T2 = 86)
M0
G00 Z15.0000
        
G01 F60.00
M03 S1000
G00 X20.1016 Y55.0012
G01 Z-2.0000
G01 Z0
G00 Z2.0000
G00 X17.1018 Y55.0012
G01 Z-2.0000
G01 Z0
G00 Z2.0000
G00 X14.1021 Y55.0012
G01 Z-2.0000
G01 Z0
G00 Z2.0000
G00 X2.0015 Y39.9288
G01 Z-2.0000
G01 Z0
G00 Z2.0000
G00 X2.0015 Y37.3888
G01 Z-2.0000
G01 Z0
G00 Z2.0000
G00 X2.0015 Y34.8488
G01 Z-2.0000
G01 Z0
G00 Z2.0000
G00 X2.0015 Y32.3088
G01 Z-2.0000
G01 Z0
G00 Z2.0000
G00 X2.0015 Y29.7688
G01 Z-2.0000
G01 Z0
G00 Z2.0000
G00 X2.0015 Y27.2288
G01 Z-2.0000
G01 Z0
G00 Z2.0000
G00 X2.0015 Y24.6888
G01 Z-2.0000
G01 Z0
G00 Z2.0000
G00 X2.0015 Y22.1488
G01 Z-2.0000
G01 Z0
G00 Z2.0000
G00 X2.0015 Y19.6088
G01 Z-2.0000
G01 Z0
G00 Z2.0000
G00 X2.0015 Y17.0688
G01 Z-2.0000
G01 Z0
G00 Z2.0000
G00 X57.0001 Y13.7008
G01 Z-2.0000
G01 Z0
G00 Z2.0000
G00 X67.0001 Y5.3391
G01 Z-2.0000
G01 Z0
G00 Z2.0000
G00 X67.0001 Y7.8791
G01 Z-2.0000
G01 Z0
G00 Z2.0000
G00 X67.0001 Y10.4191
G01 Z-2.0000
G01 Z0
G00 Z2.0000
G00 X67.0001 Y12.9591
G01 Z-2.0000
G01 Z0
G00 Z2.0000
G00 X67.0001 Y15.4991
G01 Z-2.0000
G01 Z0
G00 Z2.0000
G00 X72.3798 Y17.1298
G01 Z-2.0000
G01 Z0
G00 Z2.0000
G00 X72.3798 Y14.5898
G01 Z-2.0000
G01 Z0
G00 Z2.0000
G00 X72.3798 Y12.0498
G01 Z-2.0000
G01 Z0
G00 Z2.0000
G00 X72.3798 Y9.5098
G01 Z-2.0000
G01 Z0
G00 Z2.0000
G00 X72.3798 Y6.9698
G01 Z-2.0000
G01 Z0
G00 Z2.0000
G00 X87.6198 Y6.9698
G01 Z-2.0000
G01 Z0
G00 Z2.0000
G00 X87.6198 Y9.5098
G01 Z-2.0000
G01 Z0
G00 Z2.0000
G00 X87.6198 Y12.0498
G01 Z-2.0000
G01 Z0
G00 Z2.0000
G00 X87.6198 Y14.5898
G01 Z-2.0000
G01 Z0
G00 Z2.0000
G00 X96.0018 Y11.9888
G01 Z-2.0000
G01 Z0
G00 Z2.0000
G00 X96.0018 Y14.5288
G01 Z-2.0000
G01 Z0
G00 Z2.0000
G00 X96.0018 Y17.0688
G01 Z-2.0000
G01 Z0
G00 Z2.0000
G00 X96.0018 Y19.6088
G01 Z-2.0000
G01 Z0
G00 Z2.0000
G00 X96.0018 Y22.1488
G01 Z-2.0000
G01 Z0
G00 Z2.0000
G00 X96.0018 Y24.6888
G01 Z-2.0000
G01 Z0
G00 Z2.0000
G00 X96.0018 Y27.2288
G01 Z-2.0000
G01 Z0
G00 Z2.0000
G00 X96.0018 Y29.7688
G01 Z-2.0000
G01 Z0
G00 Z2.0000
G00 X96.0018 Y32.3088
G01 Z-2.0000
G01 Z0
G00 Z2.0000
G00 X96.0018 Y34.8488
G01 Z-2.0000
G01 Z0
G00 Z2.0000
G00 X96.0018 Y37.3888
G01 Z-2.0000
G01 Z0
G00 Z2.0000
G00 X96.0018 Y39.9288
G01 Z-2.0000
G01 Z0
G00 Z2.0000
G00 X96.0018 Y42.4688
G01 Z-2.0000
G01 Z0
G00 Z2.0000
G00 X96.0018 Y45.0088
G01 Z-2.0000
G01 Z0
G00 Z2.0000
G00 X87.6198 Y55.2298
G01 Z-2.0000
G01 Z0
G00 Z2.0000
G00 X87.6198 Y52.6898
G01 Z-2.0000
G01 Z0
G00 Z2.0000
G00 X87.6198 Y50.1498
G01 Z-2.0000
G01 Z0
G00 Z2.0000
G00 X87.6198 Y47.6098
G01 Z-2.0000
G01 Z0
G00 Z2.0000
G00 X87.6198 Y45.0698
G01 Z-2.0000
G01 Z0
G00 Z2.0000
G00 X87.6198 Y42.5298
G01 Z-2.0000
G01 Z0
G00 Z2.0000
G00 X87.6198 Y39.9898
G01 Z-2.0000
G01 Z0
G00 Z2.0000
G00 X87.6198 Y37.4498
G01 Z-2.0000
G01 Z0
G00 Z2.0000
G00 X87.6198 Y34.9098
G01 Z-2.0000
G01 Z0
G00 Z2.0000
G00 X87.6198 Y32.3698
G01 Z-2.0000
G01 Z0
G00 Z2.0000
G00 X87.6198 Y29.8298
G01 Z-2.0000
G01 Z0
G00 Z2.0000
G00 X87.6198 Y27.2898
G01 Z-2.0000
G01 Z0
G00 Z2.0000
G00 X87.6198 Y24.7498
G01 Z-2.0000
G01 Z0
G00 Z2.0000
G00 X87.6198 Y22.2098
G01 Z-2.0000
G01 Z0
G00 Z2.0000
G00 X87.6198 Y19.6698
G01 Z-2.0000
G01 Z0
G00 Z2.0000
G00 X87.6198 Y17.1298
G01 Z-2.0000
G01 Z0
G00 Z2.0000
G00 X72.3798 Y19.6698
G01 Z-2.0000
G01 Z0
G00 Z2.0000
G00 X72.3798 Y22.2098
G01 Z-2.0000
G01 Z0
G00 Z2.0000
G00 X72.3798 Y24.7498
G01 Z-2.0000
G01 Z0
G00 Z2.0000
G00 X72.3798 Y27.2898
G01 Z-2.0000
G01 Z0
G00 Z2.0000
G00 X72.3798 Y29.8298
G01 Z-2.0000
G01 Z0
G00 Z2.0000
G00 X72.3798 Y32.3698
G01 Z-2.0000
G01 Z0
G00 Z2.0000
G00 X72.3798 Y34.9098
G01 Z-2.0000
G01 Z0
G00 Z2.0000
G00 X72.3798 Y37.4498
G01 Z-2.0000
G01 Z0
G00 Z2.0000
G00 X72.3798 Y39.9898
G01 Z-2.0000
G01 Z0
G00 Z2.0000
G00 X72.3798 Y42.5298
G01 Z-2.0000
G01 Z0
G00 Z2.0000
G00 X72.3798 Y45.0698
G01 Z-2.0000
G01 Z0
G00 Z2.0000
G00 X72.3798 Y47.6098
G01 Z-2.0000
G01 Z0
G00 Z2.0000
G00 X72.3798 Y50.1498
G01 Z-2.0000
G01 Z0
G00 Z2.0000
G00 X72.3798 Y52.6898
G01 Z-2.0000
G01 Z0
G00 Z2.0000
G00 X72.3798 Y55.2298
G01 Z-2.0000
G01 Z0
G00 Z2.0000
G00 X67.0001 Y49.3497
G01 Z-2.0000
G01 Z0
G00 Z2.0000
G00 X67.0001 Y46.8097
G01 Z-2.0000
G01 Z0
G00 Z2.0000
G00 X67.0001 Y44.2697
G01 Z-2.0000
G01 Z0
G00 Z2.0000
G00 X67.0001 Y25.4991
G01 Z-2.0000
G01 Z0
G00 Z2.0000
G00 X67.0001 Y22.9591
G01 Z-2.0000
G01 Z0
G00 Z2.0000
G00 X67.0001 Y20.4191
G01 Z-2.0000
G01 Z0
G00 Z2.0000
G00 X57.0001 Y21.3004
G01 Z-2.0000
G01 Z0
G00 Z2.0000
G00 X56.7512 Y30.2692
G01 Z-2.0000
G01 Z0
G00 Z2.0000
G00 X54.2112 Y30.2692
G01 Z-2.0000
G01 Z0
G00 Z2.0000
G00 X51.6712 Y30.2692
G01 Z-2.0000
G01 Z0
G00 Z2.0000
G00 X49.1312 Y30.2692
G01 Z-2.0000
G01 Z0
G00 Z2.0000
G00 X46.5912 Y30.2692
G01 Z-2.0000
G01 Z0
G00 Z2.0000
G00 X44.0512 Y30.2692
G01 Z-2.0000
G01 Z0
G00 Z2.0000
G01 F60.00

M5             
G00 Z15.0000
G00 X0.0000 Y0.0000                
T4
(MSG, Change to Tool Dia = 3.2000 ||| Total drills for tool T4 = 6)
M0
G00 Z15.0000
        
G01 F60.00
M03 S1000
G00 X26.7005 Y28.4988
G01 Z-2.0000
G01 Z0
G00 Z2.0000
G00 X95.0011 Y53.2511
G01 Z-2.0000
G01 Z0
G00 Z2.0000
G00 X95.0011 Y3.7490
G01 Z-2.0000
G01 Z0
G00 Z2.0000
G00 X26.7005 Y8.4988
G01 Z-2.0000
G01 Z0
G00 Z2.0000
G00 X2.9997 Y3.7490
G01 Z-2.0000
G01 Z0
G00 Z2.0000
G00 X2.9997 Y53.2511
G01 Z-2.0000
G01 Z0
G00 Z2.0000
M05
G00 Z15.00


