(G-CODE GENERATED BY FLATCAM v8.994 - www.flatcam.org - Version Date: 2020/11/7)

(Name: PatientMonitor-B_Cu.gbr_iso_combined_cnc)
(Type: G-code from Geometry)
(Units: MM)

(Created on Sunday, 02 June 2024 at 22:52)

(This preprocessor is used with a motion controller loaded with GRBL firmware.)
(It is configured to be compatible with almost any version of GRBL firmware.)

(TOOL DIAMETER: 0.2 mm)
(Feedrate_XY: 120.0 mm/min)
(Feedrate_Z: 60.0 mm/min)
(Feedrate rapids 1500.0 mm/min)

(Z_Cut: -0.05 mm)
(Z_Move: 2.0 mm)
(Z Start: None mm)
(Z End: 15.0 mm)
(X,Y End: None mm)
(Steps per circle: 64)
(Steps per circle: 64)
(Preprocessor Geometry: GRBL_11_no_M6)

(X range:   -0.2995 ...   98.2995  mm)
(Y range:   -0.2995 ...   57.2995  mm)

(Spindle Speed: 1000.0 RPM)
G21
G90
G17
G94


G01 F120.00

M5             
G00 Z15.0000
G00 X0.0000 Y0.0000                
T1
(MSG, Change to Tool Dia = 0.2000)
M0
G00 Z15.0000
        
M03 S1000.0
G01 F120.00
G00 X1.3846 Y3.0635
G01 F60.00
G01 Z-0.0500
G01 F120.00
G01 X1.5018 Y2.8357 F120.00
G01 X1.6509 Y2.6273 F120.00
G01 X1.8287 Y2.4428 F120.00
G01 X2.0315 Y2.2862 F120.00
G01 X2.2550 Y2.1608 F120.00
G01 X2.4943 Y2.0692 F120.00
G01 X2.7444 Y2.0135 F120.00
G01 X2.9360 Y1.9995 F120.00
G01 X3.1281 Y1.9995 F120.00
G01 X3.3816 Y2.0368 F120.00
G01 X3.6270 Y2.1106 F120.00
G01 X3.8590 Y2.2194 F120.00
G01 X4.0727 Y2.3608 F120.00
G01 X4.2636 Y2.5318 F120.00
G01 X4.4275 Y2.7287 F120.00
G01 X4.5610 Y2.9475 F120.00
G01 X4.6612 Y3.1833 F120.00
G01 X4.7260 Y3.4312 F120.00
G01 X4.7540 Y3.6859 F120.00
G01 X4.7447 Y3.9420 F120.00
G01 X4.6981 Y4.1940 F120.00
G01 X4.6154 Y4.4365 F120.00
G01 X4.4982 Y4.6643 F120.00
G01 X4.3491 Y4.8728 F120.00
G01 X4.1713 Y5.0572 F120.00
G01 X3.9684 Y5.2138 F120.00
G01 X3.7450 Y5.3392 F120.00
G01 X3.5057 Y5.4308 F120.00
G01 X3.2556 Y5.4865 F120.00
G01 X3.0640 Y5.5005 F120.00
G01 X2.8719 Y5.5005 F120.00
G01 X2.6184 Y5.4632 F120.00
G01 X2.3730 Y5.3894 F120.00
G01 X2.1410 Y5.2806 F120.00
G01 X1.9273 Y5.1392 F120.00
G01 X1.7364 Y4.9682 F120.00
G01 X1.5725 Y4.7713 F120.00
G01 X1.4390 Y4.5525 F120.00
G01 X1.3388 Y4.3167 F120.00
G01 X1.2740 Y4.0688 F120.00
G01 X1.2460 Y3.8141 F120.00
G01 X1.2553 Y3.5580 F120.00
G01 X1.3019 Y3.3061 F120.00
G01 X1.3846 Y3.0635 F120.00
G00 Z2.0000
G00 X1.4769 Y3.1027
G01 F60.00
G01 Z-0.0500
G01 F120.00
G01 X1.5874 Y2.8879 F120.00
G01 X1.7280 Y2.6914 F120.00
G01 X1.8956 Y2.5175 F120.00
G01 X2.0869 Y2.3698 F120.00
G01 X2.2976 Y2.2516 F120.00
G01 X2.5232 Y2.1653 F120.00
G01 X2.7590 Y2.1127 F120.00
G01 X2.9397 Y2.0995 F120.00
G01 X3.1208 Y2.0995 F120.00
G01 X3.3598 Y2.1347 F120.00
G01 X3.5912 Y2.2043 F120.00
G01 X3.8099 Y2.3068 F120.00
G01 X4.0114 Y2.4401 F120.00
G01 X4.1914 Y2.6014 F120.00
G01 X4.3459 Y2.7871 F120.00
G01 X4.4718 Y2.9933 F120.00
G01 X4.5663 Y3.2157 F120.00
G01 X4.6274 Y3.4494 F120.00
G01 X4.6538 Y3.6896 F120.00
G01 X4.6450 Y3.9310 F120.00
G01 X4.6011 Y4.1686 F120.00
G01 X4.5231 Y4.3973 F120.00
G01 X4.4126 Y4.6121 F120.00
G01 X4.2720 Y4.8086 F120.00
G01 X4.1044 Y4.9825 F120.00
G01 X3.9131 Y5.1302 F120.00
G01 X3.7024 Y5.2484 F120.00
G01 X3.4768 Y5.3348 F120.00
G01 X3.2410 Y5.3873 F120.00
G01 X3.0603 Y5.4005 F120.00
G01 X2.8792 Y5.4005 F120.00
G01 X2.6402 Y5.3653 F120.00
G01 X2.4088 Y5.2957 F120.00
G01 X2.1901 Y5.1932 F120.00
G01 X1.9886 Y5.0599 F120.00
G01 X1.8086 Y4.8986 F120.00
G01 X1.6541 Y4.7129 F120.00
G01 X1.5282 Y4.5067 F120.00
G01 X1.4337 Y4.2843 F120.00
G01 X1.3726 Y4.0506 F120.00
G01 X1.3462 Y3.8104 F120.00
G01 X1.3550 Y3.5690 F120.00
G01 X1.3989 Y3.3314 F120.00
G01 X1.4769 Y3.1027 F120.00
G00 Z2.0000
G00 X1.5692 Y3.1420
G01 F60.00
G01 Z-0.0500
G01 F120.00
G01 X1.6730 Y2.9401 F120.00
G01 X1.8050 Y2.7555 F120.00
G01 X1.9626 Y2.5921 F120.00
G01 X2.1422 Y2.4534 F120.00
G01 X2.3401 Y2.3423 F120.00
G01 X2.5521 Y2.2613 F120.00
G01 X2.7736 Y2.2119 F120.00
G01 X2.9433 Y2.1995 F120.00
G01 X3.1135 Y2.1995 F120.00
G01 X3.3380 Y2.2325 F120.00
G01 X3.5554 Y2.2979 F120.00
G01 X3.7609 Y2.3943 F120.00
G01 X3.9502 Y2.5195 F120.00
G01 X4.1192 Y2.6710 F120.00
G01 X4.2644 Y2.8454 F120.00
G01 X4.3826 Y3.0392 F120.00
G01 X4.4714 Y3.2480 F120.00
G01 X4.5288 Y3.4676 F120.00
G01 X4.5536 Y3.6932 F120.00
G01 X4.5453 Y3.9200 F120.00
G01 X4.5041 Y4.1432 F120.00
G01 X4.4308 Y4.3580 F120.00
G01 X4.3270 Y4.5599 F120.00
G01 X4.1950 Y4.7445 F120.00
G01 X4.0374 Y4.9079 F120.00
G01 X3.8578 Y5.0466 F120.00
G01 X3.6599 Y5.1577 F120.00
G01 X3.4479 Y5.2387 F120.00
G01 X3.2264 Y5.2881 F120.00
G01 X3.0567 Y5.3005 F120.00
G01 X2.8865 Y5.3005 F120.00
G01 X2.6620 Y5.2675 F120.00
G01 X2.4446 Y5.2021 F120.00
G01 X2.2391 Y5.1057 F120.00
G01 X2.0498 Y4.9805 F120.00
G01 X1.8808 Y4.8290 F120.00
G01 X1.7356 Y4.6546 F120.00
G01 X1.6174 Y4.4609 F120.00
G01 X1.5286 Y4.2520 F120.00
G01 X1.4712 Y4.0324 F120.00
G01 X1.4464 Y3.8068 F120.00
G01 X1.4547 Y3.5800 F120.00
G01 X1.4959 Y3.3568 F120.00
G01 X1.5692 Y3.1420 F120.00
G00 Z2.0000
G00 X7.5808 Y14.9251
G01 F60.00
G01 Z-0.0500
G01 F120.00
G01 X7.7586 Y14.9251 F120.00
G01 X7.7298 Y14.9500 F120.00
G01 X7.5996 Y14.9500 F120.00
G01 X7.5808 Y14.9251 F120.00
G00 Z2.0000
G00 X7.2606 Y16.0604
G01 F60.00
G01 Z-0.0500
G01 F120.00
G01 X7.2917 Y16.0493 F120.00
G01 X7.3172 Y16.0374 F120.00
G01 X7.3259 Y16.0327 F120.00
G01 X7.3500 Y16.0181 F120.00
G01 X7.3727 Y16.0014 F120.00
G01 X7.3785 Y15.9968 F120.00
G01 X7.3994 Y15.9779 F120.00
G01 X7.4234 Y15.9516 F120.00
G01 X7.4445 Y15.9229 F120.00
G01 X7.4613 Y15.8944 F120.00
G01 X7.4733 Y15.8689 F120.00
G01 X7.4804 Y15.8500 F120.00
G01 X7.7930 Y15.8500 F120.00
G01 X7.7913 Y15.8666 F120.00
G01 X7.7442 Y16.0088 F120.00
G01 X7.6679 Y16.1324 F120.00
G01 X7.6633 Y16.1409 F120.00
G01 X7.6603 Y16.1475 F120.00
G01 X7.6578 Y16.1543 F120.00
G01 X7.6387 Y16.2195 F120.00
G01 X7.6364 Y16.2289 F120.00
G01 X7.6350 Y16.2384 F120.00
G01 X7.6346 Y16.2456 F120.00
G01 X7.6347 Y16.2528 F120.00
G01 X7.6354 Y16.2600 F120.00
G01 X7.6370 Y16.2694 F120.00
G01 X7.6566 Y16.3415 F120.00
G01 X7.6604 Y16.3528 F120.00
G01 X7.6644 Y16.3614 F120.00
G01 X7.6679 Y16.3676 F120.00
G01 X7.7442 Y16.4912 F120.00
G01 X7.7694 Y16.5673 F120.00
G01 X7.7504 Y16.5993 F120.00
G01 X7.7263 Y16.6500 F120.00
G01 X7.4804 Y16.6500 F120.00
G01 X7.4733 Y16.6311 F120.00
G01 X7.4613 Y16.6056 F120.00
G01 X7.4445 Y16.5771 F120.00
G01 X7.4234 Y16.5484 F120.00
G01 X7.3994 Y16.5221 F120.00
G01 X7.3785 Y16.5032 F120.00
G01 X7.3727 Y16.4986 F120.00
G01 X7.3500 Y16.4819 F120.00
G01 X7.3259 Y16.4673 F120.00
G01 X7.3172 Y16.4626 F120.00
G01 X7.2917 Y16.4507 F120.00
G01 X7.2625 Y16.4402 F120.00
G01 X7.2625 Y16.0834 F120.00
G01 X7.2622 Y16.0753 F120.00
G01 X7.2606 Y16.0604 F120.00
G00 Z2.0000
G00 X7.3625 Y16.1265
G01 F60.00
G01 Z-0.0500
G01 F120.00
G01 X7.3773 Y16.1185 F120.00
G01 X7.4014 Y16.1039 F120.00
G01 X7.4096 Y16.0985 F120.00
G01 X7.4400 Y16.0757 F120.00
G01 X7.4683 Y16.0503 F120.00
G01 X7.4786 Y16.0397 F120.00
G01 X7.4975 Y16.0188 F120.00
G01 X7.5038 Y16.0112 F120.00
G01 X7.5263 Y15.9806 F120.00
G01 X7.5448 Y15.9500 F120.00
G01 X7.6583 Y15.9500 F120.00
G01 X7.6530 Y15.9662 F120.00
G01 X7.5803 Y16.0841 F120.00
G01 X7.5735 Y16.0969 F120.00
G01 X7.5676 Y16.1101 F120.00
G01 X7.5612 Y16.1284 F120.00
G01 X7.5402 Y16.2006 F120.00
G01 X7.5382 Y16.2100 F120.00
G01 X7.5360 Y16.2243 F120.00
G01 X7.5351 Y16.2339 F120.00
G01 X7.5346 Y16.2483 F120.00
G01 X7.5349 Y16.2579 F120.00
G01 X7.5361 Y16.2722 F120.00
G01 X7.5394 Y16.2912 F120.00
G01 X7.5601 Y16.3679 F120.00
G01 X7.5629 Y16.3770 F120.00
G01 X7.5678 Y16.3904 F120.00
G01 X7.5736 Y16.4034 F120.00
G01 X7.5804 Y16.4160 F120.00
G01 X7.6530 Y16.5338 F120.00
G01 X7.6583 Y16.5500 F120.00
G01 X7.5448 Y16.5500 F120.00
G01 X7.5263 Y16.5194 F120.00
G01 X7.5038 Y16.4888 F120.00
G01 X7.4975 Y16.4812 F120.00
G01 X7.4786 Y16.4603 F120.00
G01 X7.4683 Y16.4497 F120.00
G01 X7.4400 Y16.4243 F120.00
G01 X7.4096 Y16.4015 F120.00
G01 X7.4014 Y16.3961 F120.00
G01 X7.3773 Y16.3815 F120.00
G01 X7.3625 Y16.3735 F120.00
G01 X7.3625 Y16.1265 F120.00
G00 Z2.0000
G00 X7.3625 Y17.8735
G01 F60.00
G01 Z-0.0500
G01 F120.00
G01 X7.3625 Y17.6265 F120.00
G01 X7.3773 Y17.6185 F120.00
G01 X7.4014 Y17.6039 F120.00
G01 X7.4096 Y17.5985 F120.00
G01 X7.4400 Y17.5757 F120.00
G01 X7.4683 Y17.5503 F120.00
G01 X7.4786 Y17.5397 F120.00
G01 X7.4975 Y17.5188 F120.00
G01 X7.5038 Y17.5112 F120.00
G01 X7.5263 Y17.4806 F120.00
G01 X7.5448 Y17.4500 F120.00
G01 X7.6583 Y17.4500 F120.00
G01 X7.6530 Y17.4662 F120.00
G01 X7.5803 Y17.5841 F120.00
G01 X7.5735 Y17.5969 F120.00
G01 X7.5676 Y17.6101 F120.00
G01 X7.5612 Y17.6284 F120.00
G01 X7.5402 Y17.7006 F120.00
G01 X7.5382 Y17.7100 F120.00
G01 X7.5360 Y17.7243 F120.00
G01 X7.5351 Y17.7339 F120.00
G01 X7.5346 Y17.7483 F120.00
G01 X7.5349 Y17.7579 F120.00
G01 X7.5361 Y17.7722 F120.00
G01 X7.5394 Y17.7912 F120.00
G01 X7.5601 Y17.8679 F120.00
G01 X7.5629 Y17.8770 F120.00
G01 X7.5678 Y17.8904 F120.00
G01 X7.5736 Y17.9034 F120.00
G01 X7.5804 Y17.9160 F120.00
G01 X7.6530 Y18.0338 F120.00
G01 X7.6583 Y18.0500 F120.00
G01 X7.5448 Y18.0500 F120.00
G01 X7.5263 Y18.0194 F120.00
G01 X7.5038 Y17.9888 F120.00
G01 X7.4975 Y17.9812 F120.00
G01 X7.4786 Y17.9603 F120.00
G01 X7.4683 Y17.9497 F120.00
G01 X7.4400 Y17.9243 F120.00
G01 X7.4096 Y17.9015 F120.00
G01 X7.4014 Y17.8961 F120.00
G01 X7.3773 Y17.8815 F120.00
G01 X7.3625 Y17.8735 F120.00
G00 Z2.0000
G00 X7.2599 Y17.9394
G01 F60.00
G01 Z-0.0500
G01 F120.00
G01 X7.2618 Y17.9285 F120.00
G01 X7.2625 Y17.9166 F120.00
G01 X7.2625 Y17.5598 F120.00
G01 X7.2917 Y17.5493 F120.00
G01 X7.3172 Y17.5374 F120.00
G01 X7.3259 Y17.5327 F120.00
G01 X7.3500 Y17.5181 F120.00
G01 X7.3727 Y17.5014 F120.00
G01 X7.3785 Y17.4968 F120.00
G01 X7.3994 Y17.4779 F120.00
G01 X7.4234 Y17.4516 F120.00
G01 X7.4445 Y17.4229 F120.00
G01 X7.4613 Y17.3944 F120.00
G01 X7.4733 Y17.3689 F120.00
G01 X7.4804 Y17.3500 F120.00
G01 X7.7263 Y17.3500 F120.00
G01 X7.7504 Y17.4007 F120.00
G01 X7.7694 Y17.4327 F120.00
G01 X7.7442 Y17.5088 F120.00
G01 X7.6679 Y17.6324 F120.00
G01 X7.6633 Y17.6409 F120.00
G01 X7.6603 Y17.6475 F120.00
G01 X7.6571 Y17.6567 F120.00
G01 X7.6374 Y17.7242 F120.00
G01 X7.6356 Y17.7336 F120.00
G01 X7.6348 Y17.7408 F120.00
G01 X7.6346 Y17.7480 F120.00
G01 X7.6349 Y17.7552 F120.00
G01 X7.6361 Y17.7647 F120.00
G01 X7.6382 Y17.7741 F120.00
G01 X7.6572 Y17.8438 F120.00
G01 X7.6595 Y17.8505 F120.00
G01 X7.6623 Y17.8571 F120.00
G01 X7.6679 Y17.8676 F120.00
G01 X7.7442 Y17.9912 F120.00
G01 X7.7913 Y18.1334 F120.00
G01 X7.7930 Y18.1500 F120.00
G01 X7.4804 Y18.1500 F120.00
G01 X7.4733 Y18.1311 F120.00
G01 X7.4613 Y18.1056 F120.00
G01 X7.4445 Y18.0771 F120.00
G01 X7.4234 Y18.0484 F120.00
G01 X7.3994 Y18.0221 F120.00
G01 X7.3785 Y18.0032 F120.00
G01 X7.3727 Y17.9986 F120.00
G01 X7.3500 Y17.9819 F120.00
G01 X7.3259 Y17.9673 F120.00
G01 X7.3172 Y17.9626 F120.00
G01 X7.2917 Y17.9507 F120.00
G01 X7.2599 Y17.9394 F120.00
G00 Z2.0000
G00 X6.5125 Y17.9290
G01 F60.00
G01 Z-0.0500
G01 F120.00
G01 X6.5125 Y17.5810 F120.00
G01 X6.5130 Y17.5739 F120.00
G01 X6.5143 Y17.5644 F120.00
G01 X6.5159 Y17.5575 F120.00
G01 X6.5201 Y17.5432 F120.00
G01 X6.5013 Y17.5340 F120.00
G01 X6.4771 Y17.5195 F120.00
G01 X6.4503 Y17.4999 F120.00
G01 X6.4239 Y17.4761 F120.00
G01 X6.4001 Y17.4497 F120.00
G01 X6.3833 Y17.4270 F120.00
G01 X6.3793 Y17.4209 F120.00
G01 X6.3649 Y17.3966 F120.00
G01 X6.3527 Y17.3711 F120.00
G01 X6.3489 Y17.3621 F120.00
G01 X6.3395 Y17.3355 F120.00
G01 X6.3326 Y17.3081 F120.00
G01 X6.3306 Y17.2985 F120.00
G01 X6.3266 Y17.2706 F120.00
G01 X6.3250 Y17.2375 F120.00
G01 X6.3250 Y16.7625 F120.00
G01 X6.3263 Y16.7343 F120.00
G01 X6.3272 Y16.7245 F120.00
G01 X6.3315 Y16.6967 F120.00
G01 X6.3395 Y16.6645 F120.00
G01 X6.3489 Y16.6379 F120.00
G01 X6.3527 Y16.6289 F120.00
G01 X6.3649 Y16.6034 F120.00
G01 X6.3805 Y16.5771 F120.00
G01 X6.3986 Y16.5523 F120.00
G01 X6.4048 Y16.5447 F120.00
G01 X6.4239 Y16.5239 F120.00
G01 X6.4465 Y16.5032 F120.00
G01 X6.4710 Y16.4847 F120.00
G01 X6.4771 Y16.4805 F120.00
G01 X6.5013 Y16.4660 F120.00
G01 X6.5165 Y16.4585 F120.00
G01 X6.5131 Y16.4273 F120.00
G01 X6.5125 Y16.4166 F120.00
G01 X6.5125 Y16.0710 F120.00
G01 X6.4943 Y16.0680 F120.00
G01 X6.4622 Y16.0597 F120.00
G01 X6.4333 Y16.0493 F120.00
G01 X6.4013 Y16.0340 F120.00
G01 X6.3750 Y16.0181 F120.00
G01 X6.3484 Y15.9984 F120.00
G01 X6.3239 Y15.9761 F120.00
G01 X6.3032 Y15.9535 F120.00
G01 X6.2819 Y15.9250 F120.00
G01 X6.2673 Y15.9009 F120.00
G01 X6.2626 Y15.8922 F120.00
G01 X6.2517 Y15.8689 F120.00
G01 X6.2489 Y15.8621 F120.00
G01 X6.2395 Y15.8355 F120.00
G01 X6.2315 Y15.8033 F120.00
G01 X6.2266 Y15.7706 F120.00
G01 X6.2251 Y15.7424 F120.00
G01 X6.2250 Y15.2625 F120.00
G01 X6.2266 Y15.2294 F120.00
G01 X6.2315 Y15.1967 F120.00
G01 X6.2395 Y15.1645 F120.00
G01 X6.2507 Y15.1333 F120.00
G01 X6.2649 Y15.1034 F120.00
G01 X6.2819 Y15.0750 F120.00
G01 X6.3016 Y15.0484 F120.00
G01 X6.3239 Y15.0239 F120.00
G01 X6.3484 Y15.0016 F120.00
G01 X6.3710 Y14.9847 F120.00
G01 X6.3791 Y14.9793 F120.00
G01 X6.4034 Y14.9649 F120.00
G01 X6.4289 Y14.9527 F120.00
G01 X6.4356 Y14.9498 F120.00
G01 X6.4622 Y14.9403 F120.00
G01 X6.4967 Y14.9315 F120.00
G01 X6.5245 Y14.9272 F120.00
G01 X6.5343 Y14.9263 F120.00
G01 X6.5625 Y14.9250 F120.00
G01 X7.1625 Y14.9250 F120.00
G01 X7.1956 Y14.9266 F120.00
G01 X7.2235 Y14.9306 F120.00
G01 X7.2331 Y14.9326 F120.00
G01 X7.2605 Y14.9395 F120.00
G01 X7.2871 Y14.9489 F120.00
G01 X7.2961 Y14.9527 F120.00
G01 X7.3216 Y14.9649 F120.00
G01 X7.3459 Y14.9793 F120.00
G01 X7.3540 Y14.9847 F120.00
G01 X7.3785 Y15.0032 F120.00
G01 X7.3994 Y15.0221 F120.00
G01 X7.4045 Y15.0274 F120.00
G01 X7.4234 Y15.0484 F120.00
G01 X7.4417 Y15.0730 F120.00
G01 X7.4577 Y15.0991 F120.00
G01 X7.4613 Y15.1056 F120.00
G01 X7.4733 Y15.1311 F120.00
G01 X7.4804 Y15.1500 F120.00
G01 X7.8251 Y15.1500 F120.00
G01 X7.8290 Y15.1404 F120.00
G01 X7.8336 Y15.1316 F120.00
G01 X7.8391 Y15.1233 F120.00
G01 X7.8470 Y15.1138 F120.00
G01 X7.8542 Y15.1069 F120.00
G01 X7.9070 Y15.0611 F120.00
G01 X7.9169 Y15.0536 F120.00
G01 X7.9233 Y15.0496 F120.00
G01 X7.9300 Y15.0462 F120.00
G01 X7.9369 Y15.0433 F120.00
G01 X7.9440 Y15.0409 F120.00
G01 X8.0027 Y15.0278 F120.00
G01 X8.0121 Y15.0262 F120.00
G01 X8.0240 Y15.0255 F120.00
G01 X8.1895 Y15.0255 F120.00
G01 X8.1991 Y15.0260 F120.00
G01 X8.2085 Y15.0273 F120.00
G01 X8.2154 Y15.0289 F120.00
G01 X8.2848 Y15.0492 F120.00
G01 X8.2940 Y15.0525 F120.00
G01 X8.3051 Y15.0577 F120.00
G01 X8.3154 Y15.0643 F120.00
G01 X8.3400 Y15.0840 F120.00
G01 X8.3479 Y15.0911 F120.00
G01 X9.4089 Y16.1521 F120.00
G01 X9.4153 Y16.1591 F120.00
G01 X9.4210 Y16.1667 F120.00
G01 X9.4259 Y16.1748 F120.00
G01 X9.4594 Y16.2362 F120.00
G01 X9.4627 Y16.2428 F120.00
G01 X9.4655 Y16.2496 F120.00
G01 X9.4684 Y16.2589 F120.00
G01 X9.4704 Y16.2685 F120.00
G01 X9.4739 Y16.2998 F120.00
G01 X9.4745 Y16.3105 F120.00
G01 X9.4745 Y25.9173 F120.00
G01 X9.4742 Y25.9255 F120.00
G01 X9.4725 Y25.9438 F120.00
G01 X9.4744 Y26.0063 F120.00
G01 X9.4745 Y26.0333 F120.00
G01 X9.4758 Y26.0495 F120.00
G01 X9.4768 Y26.0829 F120.00
G01 X9.4802 Y26.0950 F120.00
G01 X9.4847 Y26.1166 F120.00
G01 X9.4870 Y26.1317 F120.00
G01 X9.5000 Y26.1650 F120.00
G01 X9.5045 Y26.1783 F120.00
G01 X9.5139 Y26.2104 F120.00
G01 X9.5214 Y26.2236 F120.00
G01 X9.5311 Y26.2435 F120.00
G01 X9.5358 Y26.2552 F120.00
G01 X9.5555 Y26.2822 F120.00
G01 X9.5632 Y26.2939 F120.00
G01 X9.5815 Y26.3246 F120.00
G01 X9.5903 Y26.3337 F120.00
G01 X9.6047 Y26.3504 F120.00
G01 X9.6139 Y26.3626 F120.00
G01 X9.6396 Y26.3839 F120.00
G01 X9.6534 Y26.3966 F120.00
G01 X17.5699 Y34.3131 F120.00
G01 X17.5755 Y34.3191 F120.00
G01 X17.5873 Y34.3333 F120.00
G01 X17.6328 Y34.3761 F120.00
G01 X17.6520 Y34.3951 F120.00
G01 X17.6643 Y34.4057 F120.00
G01 X17.6887 Y34.4285 F120.00
G01 X17.6999 Y34.4349 F120.00
G01 X17.7181 Y34.4468 F120.00
G01 X17.7304 Y34.4559 F120.00
G01 X17.7631 Y34.4702 F120.00
G01 X17.7757 Y34.4764 F120.00
G01 X17.8050 Y34.4925 F120.00
G01 X17.8172 Y34.4958 F120.00
G01 X17.8381 Y34.5029 F120.00
G01 X17.8522 Y34.5086 F120.00
G01 X17.8852 Y34.5139 F120.00
G01 X17.8990 Y34.5167 F120.00
G01 X17.9336 Y34.5255 F120.00
G01 X17.9463 Y34.5256 F120.00
G01 X17.9683 Y34.5273 F120.00
G01 X17.9873 Y34.5302 F120.00
G01 X18.0037 Y34.5275 F120.00
G01 X18.0166 Y34.5263 F120.00
G01 X18.0353 Y34.5255 F120.00
G01 X59.2655 Y34.5255 F120.00
G01 X59.2774 Y34.5262 F120.00
G01 X59.2891 Y34.5283 F120.00
G01 X59.3654 Y34.5508 F120.00
G01 X59.3769 Y34.5556 F120.00
G01 X59.3856 Y34.5604 F120.00
G01 X59.3956 Y34.5676 F120.00
G01 X59.4030 Y34.5743 F120.00
G01 X59.4081 Y34.5797 F120.00
G01 X59.4555 Y34.6344 F120.00
G01 X59.4614 Y34.6424 F120.00
G01 X59.4677 Y34.6532 F120.00
G01 X59.4726 Y34.6647 F120.00
G01 X59.4754 Y34.6743 F120.00
G01 X59.4877 Y34.7306 F120.00
G01 X59.4890 Y34.7400 F120.00
G01 X59.4895 Y34.7471 F120.00
G01 X59.4890 Y34.7600 F120.00
G01 X59.4881 Y34.7671 F120.00
G01 X59.4867 Y34.7741 F120.00
G01 X59.4642 Y34.8504 F120.00
G01 X59.4605 Y34.8596 F120.00
G01 X59.4546 Y34.8706 F120.00
G01 X59.4474 Y34.8806 F120.00
G01 X59.4407 Y34.8880 F120.00
G01 X59.4353 Y34.8931 F120.00
G01 X59.3806 Y34.9405 F120.00
G01 X59.3726 Y34.9464 F120.00
G01 X59.3618 Y34.9527 F120.00
G01 X59.3503 Y34.9576 F120.00
G01 X59.3383 Y34.9610 F120.00
G01 X59.2844 Y34.9727 F120.00
G01 X59.2750 Y34.9740 F120.00
G01 X59.2655 Y34.9745 F120.00
G01 X18.0248 Y34.9745 F120.00
G01 X18.0176 Y34.9742 F120.00
G01 X18.0082 Y34.9731 F120.00
G01 X18.0012 Y34.9717 F120.00
G01 X17.9922 Y34.9692 F120.00
G01 X17.9845 Y34.9712 F120.00
G01 X17.9746 Y34.9728 F120.00
G01 X17.9495 Y34.9745 F120.00
G01 X17.6855 Y34.9745 F120.00
G01 X17.6736 Y34.9738 F120.00
G01 X17.6619 Y34.9717 F120.00
G01 X17.5902 Y34.9508 F120.00
G01 X17.5833 Y34.9484 F120.00
G01 X17.5765 Y34.9456 F120.00
G01 X17.5678 Y34.9410 F120.00
G01 X17.5596 Y34.9357 F120.00
G01 X17.5350 Y34.9160 F120.00
G01 X17.5271 Y34.9089 F120.00
G01 X9.3071 Y26.6890 F120.00
G01 X9.3023 Y26.6837 F120.00
G01 X9.2977 Y26.6781 F120.00
G01 X9.2835 Y26.6653 F120.00
G01 X6.8756 Y24.2574 F120.00
G01 X6.8707 Y24.2522 F120.00
G01 X6.8648 Y24.2447 F120.00
G01 X6.8597 Y24.2367 F120.00
G01 X6.8250 Y24.1733 F120.00
G01 X6.8217 Y24.1666 F120.00
G01 X6.8173 Y24.1550 F120.00
G01 X6.8143 Y24.1430 F120.00
G01 X6.8129 Y24.1306 F120.00
G01 X6.8129 Y24.1207 F120.00
G01 X6.8185 Y24.0436 F120.00
G01 X6.8208 Y24.0314 F120.00
G01 X6.8245 Y24.0196 F120.00
G01 X6.8297 Y24.0083 F120.00
G01 X6.8363 Y23.9977 F120.00
G01 X6.8796 Y23.9398 F120.00
G01 X6.8843 Y23.9340 F120.00
G01 X6.8894 Y23.9286 F120.00
G01 X6.8968 Y23.9220 F120.00
G01 X6.9048 Y23.9161 F120.00
G01 X6.9112 Y23.9123 F120.00
G01 X6.9201 Y23.9079 F120.00
G01 X6.9925 Y23.8808 F120.00
G01 X6.9996 Y23.8786 F120.00
G01 X7.0092 Y23.8766 F120.00
G01 X7.0191 Y23.8755 F120.00
G01 X7.0340 Y23.8750 F120.00
G01 X7.2065 Y23.8750 F120.00
G01 X7.2916 Y23.8663 F120.00
G01 X7.4338 Y23.8192 F120.00
G01 X7.5606 Y23.7410 F120.00
G01 X7.6660 Y23.6356 F120.00
G01 X7.7442 Y23.5088 F120.00
G01 X7.7913 Y23.3666 F120.00
G01 X7.7930 Y23.3500 F120.00
G01 X7.4804 Y23.3500 F120.00
G01 X7.4733 Y23.3689 F120.00
G01 X7.4613 Y23.3944 F120.00
G01 X7.4577 Y23.4009 F120.00
G01 X7.4417 Y23.4270 F120.00
G01 X7.4234 Y23.4516 F120.00
G01 X7.4045 Y23.4726 F120.00
G01 X7.3976 Y23.4795 F120.00
G01 X7.3747 Y23.4999 F120.00
G01 X7.3500 Y23.5181 F120.00
G01 X7.3259 Y23.5327 F120.00
G01 X7.3172 Y23.5374 F120.00
G01 X7.2917 Y23.5493 F120.00
G01 X7.2651 Y23.5589 F120.00
G01 X7.2557 Y23.5618 F120.00
G01 X7.2283 Y23.5685 F120.00
G01 X7.1956 Y23.5734 F120.00
G01 X7.1625 Y23.5750 F120.00
G01 X6.6625 Y23.5750 F120.00
G01 X6.6270 Y23.5731 F120.00
G01 X6.5967 Y23.5685 F120.00
G01 X6.5645 Y23.5605 F120.00
G01 X6.5333 Y23.5493 F120.00
G01 X6.5078 Y23.5374 F120.00
G01 X6.4991 Y23.5327 F120.00
G01 X6.4771 Y23.5195 F120.00
G01 X6.4710 Y23.5153 F120.00
G01 X6.4484 Y23.4984 F120.00
G01 X6.4221 Y23.4744 F120.00
G01 X6.4016 Y23.4516 F120.00
G01 X6.3819 Y23.4250 F120.00
G01 X6.3649 Y23.3966 F120.00
G01 X6.3527 Y23.3711 F120.00
G01 X6.3489 Y23.3621 F120.00
G01 X6.3403 Y23.3378 F120.00
G01 X6.3382 Y23.3307 F120.00
G01 X6.3315 Y23.3033 F120.00
G01 X6.3269 Y23.2730 F120.00
G01 X6.3250 Y23.2375 F120.00
G01 X6.3250 Y22.7625 F120.00
G01 X6.3264 Y22.7319 F120.00
G01 X6.3306 Y22.7015 F120.00
G01 X6.3326 Y22.6919 F120.00
G01 X6.3395 Y22.6645 F120.00
G01 X6.3489 Y22.6379 F120.00
G01 X6.3527 Y22.6289 F120.00
G01 X6.3649 Y22.6034 F120.00
G01 X6.3833 Y22.5730 F120.00
G01 X6.4016 Y22.5484 F120.00
G01 X6.4205 Y22.5274 F120.00
G01 X6.4274 Y22.5205 F120.00
G01 X6.4484 Y22.5016 F120.00
G01 X6.4710 Y22.4847 F120.00
G01 X6.4791 Y22.4793 F120.00
G01 X6.5034 Y22.4649 F120.00
G01 X6.5275 Y22.4533 F120.00
G01 X6.5258 Y22.4377 F120.00
G01 X6.5255 Y22.4296 F120.00
G01 X6.5255 Y22.0729 F120.00
G01 X6.4967 Y22.0685 F120.00
G01 X6.4645 Y22.0605 F120.00
G01 X6.4333 Y22.0493 F120.00
G01 X6.4034 Y22.0351 F120.00
G01 X6.3750 Y22.0181 F120.00
G01 X6.3484 Y21.9984 F120.00
G01 X6.3239 Y21.9761 F120.00
G01 X6.3048 Y21.9553 F120.00
G01 X6.3001 Y21.9497 F120.00
G01 X6.2847 Y21.9290 F120.00
G01 X6.2793 Y21.9209 F120.00
G01 X6.2649 Y21.8966 F120.00
G01 X6.2498 Y21.8644 F120.00
G01 X6.2395 Y21.8355 F120.00
G01 X6.2315 Y21.8033 F120.00
G01 X6.2266 Y21.7706 F120.00
G01 X6.2251 Y21.7408 F120.00
G01 X6.2251 Y24.0318 F120.00
G01 X17.4682 Y35.2749 F120.00
G01 X62.4068 Y35.2749 F120.00
G01 X62.5049 Y35.1768 F120.00
G01 X62.5049 Y35.0884 F120.00
G01 X62.4843 Y35.0810 F120.00
G01 X62.4662 Y35.0725 F120.00
G01 X62.4579 Y35.0681 F120.00
G01 X62.4411 Y35.0579 F120.00
G01 X62.4253 Y35.0463 F120.00
G01 X62.4177 Y35.0400 F120.00
G01 X62.4032 Y35.0268 F120.00
G01 X62.3867 Y35.0086 F120.00
G01 X62.3721 Y34.9889 F120.00
G01 X62.3619 Y34.9721 F120.00
G01 X62.3573 Y34.9635 F120.00
G01 X62.3490 Y34.9457 F120.00
G01 X62.3408 Y34.9226 F120.00
G01 X62.3359 Y34.9036 F120.00
G01 X62.3340 Y34.8939 F120.00
G01 X62.3310 Y34.8721 F120.00
G01 X62.3300 Y34.8500 F120.00
G01 X62.3300 Y33.2000 F120.00
G01 X62.3312 Y33.1755 F120.00
G01 X62.3340 Y33.1561 F120.00
G01 X62.3353 Y33.1488 F120.00
G01 X62.3395 Y33.1322 F120.00
G01 X62.3423 Y33.1228 F120.00
G01 X62.3481 Y33.1066 F120.00
G01 X62.3510 Y33.0998 F120.00
G01 X62.3596 Y33.0820 F120.00
G01 X62.3695 Y33.0653 F120.00
G01 X62.3750 Y33.0571 F120.00
G01 X62.3867 Y33.0414 F120.00
G01 X62.4032 Y33.0232 F120.00
G01 X62.4177 Y33.0100 F120.00
G01 X62.4253 Y33.0037 F120.00
G01 X62.4411 Y32.9921 F120.00
G01 X62.4579 Y32.9819 F120.00
G01 X62.4665 Y32.9773 F120.00
G01 X62.4843 Y32.9690 F120.00
G01 X62.5074 Y32.9608 F120.00
G01 X62.5264 Y32.9559 F120.00
G01 X62.5361 Y32.9540 F120.00
G01 X62.5555 Y32.9512 F120.00
G01 X62.5775 Y32.9500 F120.00
G01 X62.8800 Y32.9500 F120.00
G01 X62.9021 Y32.9510 F120.00
G01 X62.9264 Y32.9544 F120.00
G01 X62.9483 Y32.9596 F120.00
G01 X62.9550 Y32.9615 F120.00
G01 X62.9711 Y32.9673 F120.00
G01 X62.9802 Y32.9710 F120.00
G01 X62.9980 Y32.9796 F120.00
G01 X63.0189 Y32.9921 F120.00
G01 X63.0386 Y33.0067 F120.00
G01 X63.0568 Y33.0232 F120.00
G01 X63.0733 Y33.0414 F120.00
G01 X63.0879 Y33.0611 F120.00
G01 X63.1005 Y33.0822 F120.00
G01 X63.1090 Y33.0998 F120.00
G01 X63.1127 Y33.1089 F120.00
G01 X63.1185 Y33.1251 F120.00
G01 X63.1205 Y33.1322 F120.00
G01 X63.1256 Y33.1536 F120.00
G01 X63.1290 Y33.1779 F120.00
G01 X63.1300 Y33.2000 F120.00
G01 X63.1300 Y34.8500 F120.00
G01 X63.1288 Y34.8745 F120.00
G01 X63.1260 Y34.8939 F120.00
G01 X63.1241 Y34.9036 F120.00
G01 X63.1192 Y34.9228 F120.00
G01 X63.1127 Y34.9411 F120.00
G01 X63.1090 Y34.9502 F120.00
G01 X63.1004 Y34.9680 F120.00
G01 X63.0892 Y34.9868 F120.00
G01 X63.0850 Y34.9929 F120.00
G01 X63.0733 Y35.0086 F120.00
G01 X63.0602 Y35.0232 F120.00
G01 X63.0532 Y35.0302 F120.00
G01 X63.0386 Y35.0433 F120.00
G01 X63.0168 Y35.0592 F120.00
G01 X63.0000 Y35.0693 F120.00
G01 X62.9935 Y35.0727 F120.00
G01 X62.9757 Y35.0810 F120.00
G01 X62.9551 Y35.0884 F120.00
G01 X62.9551 Y35.2700 F120.00
G01 X62.9537 Y35.2945 F120.00
G01 X62.9507 Y35.3139 F120.00
G01 X62.9467 Y35.3306 F120.00
G01 X62.9446 Y35.3377 F120.00
G01 X62.9388 Y35.3538 F120.00
G01 X62.9285 Y35.3761 F120.00
G01 X62.9185 Y35.3929 F120.00
G01 X62.9143 Y35.3991 F120.00
G01 X62.9040 Y35.4128 F120.00
G01 X62.8891 Y35.4291 F120.00
G01 X62.6591 Y35.6591 F120.00
G01 X62.6428 Y35.6740 F120.00
G01 X62.6271 Y35.6857 F120.00
G01 X62.6209 Y35.6898 F120.00
G01 X62.6061 Y35.6985 F120.00
G01 X62.5861 Y35.7079 F120.00
G01 X62.5653 Y35.7154 F120.00
G01 X62.5487 Y35.7197 F120.00
G01 X62.5391 Y35.7216 F120.00
G01 X62.5245 Y35.7237 F120.00
G01 X62.5172 Y35.7243 F120.00
G01 X62.5000 Y35.7251 F120.00
G01 X17.3750 Y35.7251 F120.00
G01 X17.3529 Y35.7240 F120.00
G01 X17.3311 Y35.7207 F120.00
G01 X17.3120 Y35.7161 F120.00
G01 X17.3050 Y35.7138 F120.00
G01 X17.2889 Y35.7079 F120.00
G01 X17.2689 Y35.6985 F120.00
G01 X17.2521 Y35.6885 F120.00
G01 X17.2459 Y35.6843 F120.00
G01 X17.2322 Y35.6740 F120.00
G01 X17.2159 Y35.6591 F120.00
G01 X5.8409 Y24.2841 F120.00
G01 X5.8260 Y24.2678 F120.00
G01 X5.8129 Y24.2500 F120.00
G01 X5.8039 Y24.2354 F120.00
G01 X5.8004 Y24.2289 F120.00
G01 X5.7941 Y24.2156 F120.00
G01 X5.7903 Y24.2065 F120.00
G01 X5.7846 Y24.1903 F120.00
G01 X5.7793 Y24.1689 F120.00
G01 X5.7760 Y24.1471 F120.00
G01 X5.7750 Y24.1275 F120.00
G01 X5.7749 Y21.7408 F120.00
G01 X5.7731 Y21.7730 F120.00
G01 X5.7690 Y21.8009 F120.00
G01 X5.7674 Y21.8081 F120.00
G01 X5.7605 Y21.8355 F120.00
G01 X5.7511 Y21.8621 F120.00
G01 X5.7483 Y21.8689 F120.00
G01 X5.7374 Y21.8922 F120.00
G01 X5.7327 Y21.9009 F120.00
G01 X5.7181 Y21.9250 F120.00
G01 X5.6984 Y21.9516 F120.00
G01 X5.6761 Y21.9761 F120.00
G01 X5.6516 Y21.9984 F120.00
G01 X5.6250 Y22.0181 F120.00
G01 X5.5966 Y22.0351 F120.00
G01 X5.5667 Y22.0493 F120.00
G01 X5.5331 Y22.0612 F120.00
G01 X5.5033 Y22.0685 F120.00
G01 X5.4681 Y22.0736 F120.00
G01 X5.4400 Y22.0750 F120.00
G01 X5.3626 Y22.0750 F120.00
G01 X5.3626 Y22.4261 F120.00
G01 X5.3755 Y22.4272 F120.00
G01 X5.4057 Y22.4320 F120.00
G01 X5.4355 Y22.4395 F120.00
G01 X5.4644 Y22.4498 F120.00
G01 X5.4922 Y22.4626 F120.00
G01 X5.5009 Y22.4673 F120.00
G01 X5.5250 Y22.4819 F120.00
G01 X5.5516 Y22.5016 F120.00
G01 X5.5726 Y22.5205 F120.00
G01 X5.5795 Y22.5274 F120.00
G01 X5.5984 Y22.5484 F120.00
G01 X5.6181 Y22.5750 F120.00
G01 X5.6351 Y22.6034 F120.00
G01 X5.6473 Y22.6289 F120.00
G01 X5.6511 Y22.6379 F120.00
G01 X5.6612 Y22.6669 F120.00
G01 X5.6685 Y22.6967 F120.00
G01 X5.6728 Y22.7245 F120.00
G01 X5.6736 Y22.7319 F120.00
G01 X5.6750 Y22.7600 F120.00
G01 X5.6750 Y23.2400 F120.00
G01 X5.6734 Y23.2706 F120.00
G01 X5.6685 Y23.3033 F120.00
G01 X5.6605 Y23.3355 F120.00
G01 X5.6493 Y23.3667 F120.00
G01 X5.6351 Y23.3966 F120.00
G01 X5.6181 Y23.4250 F120.00
G01 X5.5984 Y23.4516 F120.00
G01 X5.5795 Y23.4726 F120.00
G01 X5.5726 Y23.4795 F120.00
G01 X5.5516 Y23.4984 F120.00
G01 X5.5229 Y23.5195 F120.00
G01 X5.4966 Y23.5351 F120.00
G01 X5.4711 Y23.5473 F120.00
G01 X5.4621 Y23.5511 F120.00
G01 X5.4331 Y23.5612 F120.00
G01 X5.4057 Y23.5680 F120.00
G01 X5.3985 Y23.5694 F120.00
G01 X5.3681 Y23.5736 F120.00
G01 X5.3400 Y23.5750 F120.00
G01 X5.3126 Y23.5750 F120.00
G01 X5.3126 Y25.1443 F120.00
G01 X16.9432 Y36.7749 F120.00
G01 X61.9068 Y36.7749 F120.00
G01 X62.3409 Y36.3409 F120.00
G01 X62.3535 Y36.3292 F120.00
G01 X62.3591 Y36.3245 F120.00
G01 X62.3750 Y36.3129 F120.00
G01 X62.3918 Y36.3027 F120.00
G01 X62.3983 Y36.2993 F120.00
G01 X62.4139 Y36.2921 F120.00
G01 X62.4300 Y36.2862 F120.00
G01 X62.4370 Y36.2839 F120.00
G01 X62.4561 Y36.2793 F120.00
G01 X62.4779 Y36.2760 F120.00
G01 X62.5000 Y36.2749 F120.00
G01 X64.4068 Y36.2749 F120.00
G01 X65.0449 Y35.6368 F120.00
G01 X65.0449 Y35.0884 F120.00
G01 X65.0243 Y35.0810 F120.00
G01 X65.0062 Y35.0725 F120.00
G01 X64.9979 Y35.0681 F120.00
G01 X64.9811 Y35.0579 F120.00
G01 X64.9653 Y35.0463 F120.00
G01 X64.9577 Y35.0400 F120.00
G01 X64.9432 Y35.0268 F120.00
G01 X64.9267 Y35.0086 F120.00
G01 X64.9121 Y34.9889 F120.00
G01 X64.9019 Y34.9721 F120.00
G01 X64.8973 Y34.9635 F120.00
G01 X64.8890 Y34.9457 F120.00
G01 X64.8808 Y34.9226 F120.00
G01 X64.8759 Y34.9036 F120.00
G01 X64.8740 Y34.8939 F120.00
G01 X64.8710 Y34.8721 F120.00
G01 X64.8700 Y34.8500 F120.00
G01 X64.8700 Y33.1975 F120.00
G01 X64.8712 Y33.1755 F120.00
G01 X64.8748 Y33.1512 F120.00
G01 X64.8808 Y33.1274 F120.00
G01 X64.8890 Y33.1043 F120.00
G01 X64.8996 Y33.0820 F120.00
G01 X64.9121 Y33.0611 F120.00
G01 X64.9267 Y33.0414 F120.00
G01 X64.9432 Y33.0232 F120.00
G01 X64.9614 Y33.0067 F120.00
G01 X64.9811 Y32.9921 F120.00
G01 X65.0022 Y32.9795 F120.00
G01 X65.0243 Y32.9690 F120.00
G01 X65.0474 Y32.9608 F120.00
G01 X65.0712 Y32.9548 F120.00
G01 X65.0955 Y32.9512 F120.00
G01 X65.1175 Y32.9500 F120.00
G01 X65.4249 Y32.9501 F120.00
G01 X65.4445 Y32.9512 F120.00
G01 X65.4688 Y32.9548 F120.00
G01 X65.4926 Y32.9608 F120.00
G01 X65.5157 Y32.9690 F120.00
G01 X65.5338 Y32.9775 F120.00
G01 X65.5421 Y32.9819 F120.00
G01 X65.5589 Y32.9921 F120.00
G01 X65.5747 Y33.0037 F120.00
G01 X65.5823 Y33.0100 F120.00
G01 X65.5968 Y33.0232 F120.00
G01 X65.6100 Y33.0377 F120.00
G01 X65.6163 Y33.0453 F120.00
G01 X65.6279 Y33.0611 F120.00
G01 X65.6381 Y33.0779 F120.00
G01 X65.6427 Y33.0865 F120.00
G01 X65.6510 Y33.1043 F120.00
G01 X65.6577 Y33.1228 F120.00
G01 X65.6605 Y33.1322 F120.00
G01 X65.6652 Y33.1512 F120.00
G01 X65.6685 Y33.1731 F120.00
G01 X65.6700 Y33.2000 F120.00
G01 X65.6700 Y34.8500 F120.00
G01 X65.6690 Y34.8721 F120.00
G01 X65.6660 Y34.8939 F120.00
G01 X65.6641 Y34.9036 F120.00
G01 X65.6592 Y34.9228 F120.00
G01 X65.6510 Y34.9457 F120.00
G01 X65.6425 Y34.9638 F120.00
G01 X65.6381 Y34.9721 F120.00
G01 X65.6279 Y34.9889 F120.00
G01 X65.6133 Y35.0086 F120.00
G01 X65.5968 Y35.0268 F120.00
G01 X65.5823 Y35.0400 F120.00
G01 X65.5747 Y35.0463 F120.00
G01 X65.5589 Y35.0579 F120.00
G01 X65.5421 Y35.0681 F120.00
G01 X65.5335 Y35.0727 F120.00
G01 X65.5157 Y35.0810 F120.00
G01 X65.4951 Y35.0884 F120.00
G01 X65.4950 Y35.7325 F120.00
G01 X65.4940 Y35.7521 F120.00
G01 X65.4916 Y35.7691 F120.00
G01 X65.4902 Y35.7763 F120.00
G01 X65.4854 Y35.7953 F120.00
G01 X65.4779 Y35.8161 F120.00
G01 X65.4696 Y35.8339 F120.00
G01 X65.4661 Y35.8404 F120.00
G01 X65.4572 Y35.8550 F120.00
G01 X65.4470 Y35.8689 F120.00
G01 X65.4424 Y35.8747 F120.00
G01 X65.4291 Y35.8891 F120.00
G01 X64.6574 Y36.6609 F120.00
G01 X64.6428 Y36.6740 F120.00
G01 X64.6250 Y36.6871 F120.00
G01 X64.6061 Y36.6985 F120.00
G01 X64.5861 Y36.7079 F120.00
G01 X64.5653 Y36.7154 F120.00
G01 X64.5439 Y36.7207 F120.00
G01 X64.5221 Y36.7240 F120.00
G01 X64.5000 Y36.7251 F120.00
G01 X62.5932 Y36.7251 F120.00
G01 X62.1591 Y37.1591 F120.00
G01 X62.1447 Y37.1724 F120.00
G01 X62.1271 Y37.1857 F120.00
G01 X62.1104 Y37.1961 F120.00
G01 X62.1039 Y37.1996 F120.00
G01 X62.0906 Y37.2059 F120.00
G01 X62.0815 Y37.2097 F120.00
G01 X62.0653 Y37.2154 F120.00
G01 X62.0439 Y37.2207 F120.00
G01 X62.0221 Y37.2240 F120.00
G01 X62.0025 Y37.2250 F120.00
G01 X16.8500 Y37.2251 F120.00
G01 X16.8279 Y37.2240 F120.00
G01 X16.8109 Y37.2216 F120.00
G01 X16.8037 Y37.2202 F120.00
G01 X16.7847 Y37.2154 F120.00
G01 X16.7639 Y37.2079 F120.00
G01 X16.7461 Y37.1996 F120.00
G01 X16.7396 Y37.1961 F120.00
G01 X16.7250 Y37.1872 F120.00
G01 X16.7111 Y37.1770 F120.00
G01 X16.7053 Y37.1724 F120.00
G01 X16.6909 Y37.1591 F120.00
G01 X4.9284 Y25.3966 F120.00
G01 X4.9120 Y25.3784 F120.00
G01 X4.9004 Y25.3625 F120.00
G01 X4.8890 Y25.3436 F120.00
G01 X4.8796 Y25.3236 F120.00
G01 X4.8737 Y25.3075 F120.00
G01 X4.8708 Y25.2981 F120.00
G01 X4.8663 Y25.2790 F120.00
G01 X4.8635 Y25.2596 F120.00
G01 X4.8625 Y25.2400 F120.00
G01 X4.8624 Y23.5750 F120.00
G01 X4.8350 Y23.5750 F120.00
G01 X4.8020 Y23.5731 F120.00
G01 X4.7717 Y23.5685 F120.00
G01 X4.7443 Y23.5618 F120.00
G01 X4.7349 Y23.5589 F120.00
G01 X4.7061 Y23.5483 F120.00
G01 X4.6784 Y23.5351 F120.00
G01 X4.6541 Y23.5207 F120.00
G01 X4.6460 Y23.5153 F120.00
G01 X4.6253 Y23.4999 F120.00
G01 X4.6197 Y23.4952 F120.00
G01 X4.5989 Y23.4761 F120.00
G01 X4.5766 Y23.4516 F120.00
G01 X4.5597 Y23.4290 F120.00
G01 X4.5543 Y23.4209 F120.00
G01 X4.5399 Y23.3966 F120.00
G01 X4.5267 Y23.3689 F120.00
G01 X4.5145 Y23.3355 F120.00
G01 X4.5065 Y23.3033 F120.00
G01 X4.5016 Y23.2706 F120.00
G01 X4.5001 Y23.2424 F120.00
G01 X4.5000 Y22.7625 F120.00
G01 X4.5016 Y22.7294 F120.00
G01 X4.5065 Y22.6967 F120.00
G01 X4.5145 Y22.6645 F120.00
G01 X4.5239 Y22.6379 F120.00
G01 X4.5277 Y22.6289 F120.00
G01 X4.5387 Y22.6056 F120.00
G01 X4.5423 Y22.5991 F120.00
G01 X4.5569 Y22.5750 F120.00
G01 X4.5736 Y22.5523 F120.00
G01 X4.5798 Y22.5447 F120.00
G01 X4.5989 Y22.5239 F120.00
G01 X4.6234 Y22.5016 F120.00
G01 X4.6500 Y22.4819 F120.00
G01 X4.6784 Y22.4649 F120.00
G01 X4.7083 Y22.4507 F120.00
G01 X4.7419 Y22.4388 F120.00
G01 X4.7717 Y22.4315 F120.00
G01 X4.8069 Y22.4264 F120.00
G01 X4.8350 Y22.4250 F120.00
G01 X4.9124 Y22.4250 F120.00
G01 X4.9124 Y22.0750 F120.00
G01 X4.8350 Y22.0750 F120.00
G01 X4.8069 Y22.0736 F120.00
G01 X4.7717 Y22.0685 F120.00
G01 X4.7419 Y22.0612 F120.00
G01 X4.7083 Y22.0493 F120.00
G01 X4.6784 Y22.0351 F120.00
G01 X4.6500 Y22.0181 F120.00
G01 X4.6215 Y21.9968 F120.00
G01 X4.6006 Y21.9779 F120.00
G01 X4.5955 Y21.9726 F120.00
G01 X4.5766 Y21.9516 F120.00
G01 X4.5597 Y21.9290 F120.00
G01 X4.5543 Y21.9209 F120.00
G01 X4.5399 Y21.8966 F120.00
G01 X4.5267 Y21.8689 F120.00
G01 X4.5145 Y21.8355 F120.00
G01 X4.5060 Y21.8009 F120.00
G01 X4.5014 Y21.7681 F120.00
G01 X4.5000 Y21.7400 F120.00
G01 X4.5000 Y21.7251 F120.00
G01 X4.0932 Y21.7251 F120.00
G01 X3.5091 Y22.3091 F120.00
G01 X3.4928 Y22.3240 F120.00
G01 X3.4771 Y22.3357 F120.00
G01 X3.4709 Y22.3398 F120.00
G01 X3.4539 Y22.3496 F120.00
G01 X3.4361 Y22.3579 F120.00
G01 X3.4200 Y22.3638 F120.00
G01 X3.4130 Y22.3661 F120.00
G01 X3.3939 Y22.3707 F120.00
G01 X3.3696 Y22.3742 F120.00
G01 X3.3500 Y22.3751 F120.00
G01 X2.9219 Y22.3751 F120.00
G01 X2.9084 Y22.4281 F120.00
G01 X2.8795 Y22.5090 F120.00
G01 X2.8767 Y22.5158 F120.00
G01 X2.8378 Y22.5978 F120.00
G01 X2.7912 Y22.6757 F120.00
G01 X2.7374 Y22.7488 F120.00
G01 X2.7312 Y22.7564 F120.00
G01 X2.6718 Y22.8218 F120.00
G01 X2.6046 Y22.8828 F120.00
G01 X2.5318 Y22.9371 F120.00
G01 X2.5236 Y22.9425 F120.00
G01 X2.4478 Y22.9878 F120.00
G01 X2.3635 Y23.0277 F120.00
G01 X2.2800 Y23.0577 F120.00
G01 X2.2710 Y23.0604 F120.00
G01 X2.1853 Y23.0817 F120.00
G01 X2.0980 Y23.0948 F120.00
G01 X2.0882 Y23.0958 F120.00
G01 X2.0049 Y23.0999 F120.00
G01 X1.9951 Y23.0999 F120.00
G01 X1.9069 Y23.0954 F120.00
G01 X1.8147 Y23.0817 F120.00
G01 X1.7242 Y23.0591 F120.00
G01 X1.6410 Y23.0295 F120.00
G01 X1.6320 Y23.0257 F120.00
G01 X1.5522 Y22.9878 F120.00
G01 X1.4722 Y22.9399 F120.00
G01 X1.4012 Y22.8874 F120.00
G01 X1.3936 Y22.8812 F120.00
G01 X1.3282 Y22.8218 F120.00
G01 X1.2688 Y22.7564 F120.00
G01 X1.2626 Y22.7488 F120.00
G01 X1.2101 Y22.6778 F120.00
G01 X1.1622 Y22.5978 F120.00
G01 X1.1223 Y22.5135 F120.00
G01 X1.0908 Y22.4256 F120.00
G01 X1.0683 Y22.3353 F120.00
G01 X1.0552 Y22.2480 F120.00
G01 X1.0542 Y22.2382 F120.00
G01 X1.0500 Y22.1500 F120.00
G01 X1.0542 Y22.0618 F120.00
G01 X1.0552 Y22.0520 F120.00
G01 X1.0674 Y21.9695 F120.00
G01 X1.0693 Y21.9599 F120.00
G01 X1.0909 Y21.8742 F120.00
G01 X1.1223 Y21.7865 F120.00
G01 X1.1622 Y21.7022 F120.00
G01 X1.2075 Y21.6264 F120.00
G01 X1.2129 Y21.6182 F120.00
G01 X1.2626 Y21.5512 F120.00
G01 X1.2688 Y21.5436 F120.00
G01 X1.3282 Y21.4782 F120.00
G01 X1.3936 Y21.4188 F120.00
G01 X1.4012 Y21.4126 F120.00
G01 X1.4722 Y21.3601 F120.00
G01 X1.5522 Y21.3122 F120.00
G01 X1.6365 Y21.2723 F120.00
G01 X1.7244 Y21.2408 F120.00
G01 X1.8147 Y21.2183 F120.00
G01 X1.9069 Y21.2046 F120.00
G01 X2.0000 Y21.2000 F120.00
G01 X2.0931 Y21.2046 F120.00
G01 X2.1853 Y21.2183 F120.00
G01 X2.2758 Y21.2409 F120.00
G01 X2.3635 Y21.2723 F120.00
G01 X2.4434 Y21.3100 F120.00
G01 X2.4500 Y21.3134 F120.00
G01 X2.5278 Y21.3601 F120.00
G01 X2.6027 Y21.4156 F120.00
G01 X2.6718 Y21.4782 F120.00
G01 X2.7312 Y21.5436 F120.00
G01 X2.7359 Y21.5492 F120.00
G01 X2.7899 Y21.6222 F120.00
G01 X2.8354 Y21.6979 F120.00
G01 X2.8390 Y21.7044 F120.00
G01 X2.8757 Y21.7820 F120.00
G01 X2.8786 Y21.7887 F120.00
G01 X2.9084 Y21.8722 F120.00
G01 X2.9219 Y21.9249 F120.00
G01 X3.2568 Y21.9249 F120.00
G01 X3.8426 Y21.3391 F120.00
G01 X3.8572 Y21.3260 F120.00
G01 X3.8750 Y21.3129 F120.00
G01 X3.8939 Y21.3015 F120.00
G01 X3.9139 Y21.2921 F120.00
G01 X3.9347 Y21.2846 F120.00
G01 X3.9561 Y21.2793 F120.00
G01 X3.9779 Y21.2760 F120.00
G01 X3.9975 Y21.2750 F120.00
G01 X4.5000 Y21.2749 F120.00
G01 X4.5001 Y21.2576 F120.00
G01 X4.5019 Y21.2270 F120.00
G01 X4.5065 Y21.1967 F120.00
G01 X4.5153 Y21.1622 F120.00
G01 X4.5257 Y21.1333 F120.00
G01 X4.5399 Y21.1034 F120.00
G01 X4.5569 Y21.0750 F120.00
G01 X4.5751 Y21.0503 F120.00
G01 X4.5989 Y21.0239 F120.00
G01 X4.6197 Y21.0048 F120.00
G01 X4.6253 Y21.0001 F120.00
G01 X4.6460 Y20.9847 F120.00
G01 X4.6541 Y20.9793 F120.00
G01 X4.6784 Y20.9649 F120.00
G01 X4.7083 Y20.9507 F120.00
G01 X4.7395 Y20.9395 F120.00
G01 X4.7693 Y20.9320 F120.00
G01 X4.8044 Y20.9266 F120.00
G01 X4.8375 Y20.9250 F120.00
G01 X5.4375 Y20.9250 F120.00
G01 X5.4706 Y20.9266 F120.00
G01 X5.4985 Y20.9306 F120.00
G01 X5.5081 Y20.9326 F120.00
G01 X5.5378 Y20.9403 F120.00
G01 X5.5667 Y20.9507 F120.00
G01 X5.5922 Y20.9626 F120.00
G01 X5.6009 Y20.9673 F120.00
G01 X5.6250 Y20.9819 F120.00
G01 X5.6516 Y21.0016 F120.00
G01 X5.6726 Y21.0205 F120.00
G01 X5.6795 Y21.0274 F120.00
G01 X5.6968 Y21.0465 F120.00
G01 X5.7014 Y21.0523 F120.00
G01 X5.7181 Y21.0750 F120.00
G01 X5.7351 Y21.1034 F120.00
G01 X5.7493 Y21.1333 F120.00
G01 X5.7589 Y21.1599 F120.00
G01 X5.7618 Y21.1693 F120.00
G01 X5.7690 Y21.1991 F120.00
G01 X5.7734 Y21.2294 F120.00
G01 X5.7749 Y21.2592 F120.00
G01 X5.7749 Y21.0057 F120.00
G01 X5.3440 Y20.5748 F120.00
G01 X4.8326 Y20.5749 F120.00
G01 X4.8044 Y20.5734 F120.00
G01 X4.7717 Y20.5685 F120.00
G01 X4.7395 Y20.5605 F120.00
G01 X4.7083 Y20.5493 F120.00
G01 X4.6828 Y20.5374 F120.00
G01 X4.6741 Y20.5327 F120.00
G01 X4.6500 Y20.5181 F120.00
G01 X4.6234 Y20.4984 F120.00
G01 X4.5989 Y20.4761 F120.00
G01 X4.5798 Y20.4553 F120.00
G01 X4.5736 Y20.4477 F120.00
G01 X4.5555 Y20.4229 F120.00
G01 X4.5399 Y20.3966 F120.00
G01 X4.5277 Y20.3711 F120.00
G01 X4.5239 Y20.3621 F120.00
G01 X4.5138 Y20.3331 F120.00
G01 X4.5065 Y20.3033 F120.00
G01 X4.5019 Y20.2730 F120.00
G01 X4.5001 Y20.2424 F120.00
G01 X4.5000 Y20.2251 F120.00
G01 X3.7475 Y20.2250 F120.00
G01 X3.7279 Y20.2240 F120.00
G01 X3.7085 Y20.2212 F120.00
G01 X3.6894 Y20.2167 F120.00
G01 X3.6800 Y20.2138 F120.00
G01 X3.6616 Y20.2070 F120.00
G01 X3.6461 Y20.1996 F120.00
G01 X3.6396 Y20.1961 F120.00
G01 X3.6271 Y20.1885 F120.00
G01 X3.6209 Y20.1843 F120.00
G01 X3.6072 Y20.1740 F120.00
G01 X3.5944 Y20.1625 F120.00
G01 X3.2668 Y19.8351 F120.00
G01 X2.9219 Y19.8351 F120.00
G01 X2.9084 Y19.8881 F120.00
G01 X2.8786 Y19.9713 F120.00
G01 X2.8400 Y20.0534 F120.00
G01 X2.8366 Y20.0600 F120.00
G01 X2.7899 Y20.1378 F120.00
G01 X2.7374 Y20.2088 F120.00
G01 X2.7312 Y20.2164 F120.00
G01 X2.6735 Y20.2800 F120.00
G01 X2.6682 Y20.2851 F120.00
G01 X2.6027 Y20.3444 F120.00
G01 X2.5318 Y20.3971 F120.00
G01 X2.5236 Y20.4025 F120.00
G01 X2.4478 Y20.4478 F120.00
G01 X2.3680 Y20.4857 F120.00
G01 X2.3590 Y20.4895 F120.00
G01 X2.2804 Y20.5176 F120.00
G01 X2.2710 Y20.5204 F120.00
G01 X2.1853 Y20.5417 F120.00
G01 X2.0931 Y20.5554 F120.00
G01 X2.0000 Y20.5600 F120.00
G01 X1.9069 Y20.5554 F120.00
G01 X1.8147 Y20.5417 F120.00
G01 X1.7242 Y20.5191 F120.00
G01 X1.6365 Y20.4877 F120.00
G01 X1.5522 Y20.4478 F120.00
G01 X1.4764 Y20.4025 F120.00
G01 X1.4682 Y20.3971 F120.00
G01 X1.3973 Y20.3444 F120.00
G01 X1.3318 Y20.2851 F120.00
G01 X1.3249 Y20.2782 F120.00
G01 X1.2656 Y20.2127 F120.00
G01 X1.2101 Y20.1378 F120.00
G01 X1.1622 Y20.0578 F120.00
G01 X1.1243 Y19.9780 F120.00
G01 X1.1205 Y19.9690 F120.00
G01 X1.0908 Y19.8856 F120.00
G01 X1.0693 Y19.8001 F120.00
G01 X1.0674 Y19.7905 F120.00
G01 X1.0546 Y19.7031 F120.00
G01 X1.0501 Y19.6149 F120.00
G01 X1.0501 Y19.6051 F120.00
G01 X1.0546 Y19.5169 F120.00
G01 X1.0674 Y19.4295 F120.00
G01 X1.0693 Y19.4199 F120.00
G01 X1.0909 Y19.3342 F120.00
G01 X1.1223 Y19.2465 F120.00
G01 X1.1622 Y19.1622 F120.00
G01 X1.2075 Y19.0864 F120.00
G01 X1.2129 Y19.0782 F120.00
G01 X1.2656 Y19.0073 F120.00
G01 X1.3249 Y18.9418 F120.00
G01 X1.3318 Y18.9349 F120.00
G01 X1.3954 Y18.8772 F120.00
G01 X1.4012 Y18.8726 F120.00
G01 X1.4722 Y18.8201 F120.00
G01 X1.5479 Y18.7746 F120.00
G01 X1.5566 Y18.7700 F120.00
G01 X1.6365 Y18.7323 F120.00
G01 X1.7200 Y18.7023 F120.00
G01 X1.7290 Y18.6996 F120.00
G01 X1.8147 Y18.6783 F120.00
G01 X1.9069 Y18.6646 F120.00
G01 X1.9951 Y18.6601 F120.00
G01 X2.0049 Y18.6601 F120.00
G01 X2.0931 Y18.6646 F120.00
G01 X2.1805 Y18.6774 F120.00
G01 X2.1901 Y18.6793 F120.00
G01 X2.2734 Y18.7002 F120.00
G01 X2.2804 Y18.7024 F120.00
G01 X2.3635 Y18.7323 F120.00
G01 X2.4434 Y18.7700 F120.00
G01 X2.4521 Y18.7746 F120.00
G01 X2.5278 Y18.8201 F120.00
G01 X2.5988 Y18.8726 F120.00
G01 X2.6064 Y18.8788 F120.00
G01 X2.6735 Y18.9400 F120.00
G01 X2.7312 Y19.0036 F120.00
G01 X2.7374 Y19.0112 F120.00
G01 X2.7899 Y19.0822 F120.00
G01 X2.8366 Y19.1600 F120.00
G01 X2.8757 Y19.2420 F120.00
G01 X2.8786 Y19.2487 F120.00
G01 X2.9084 Y19.3322 F120.00
G01 X2.9219 Y19.3849 F120.00
G01 X3.3625 Y19.3850 F120.00
G01 X3.3821 Y19.3860 F120.00
G01 X3.4039 Y19.3893 F120.00
G01 X3.4253 Y19.3946 F120.00
G01 X3.4461 Y19.4021 F120.00
G01 X3.4661 Y19.4115 F120.00
G01 X3.4850 Y19.4228 F120.00
G01 X3.5028 Y19.4360 F120.00
G01 X3.5174 Y19.4491 F120.00
G01 X3.8432 Y19.7749 F120.00
G01 X4.5000 Y19.7749 F120.00
G01 X4.5000 Y19.7600 F120.00
G01 X4.5014 Y19.7319 F120.00
G01 X4.5060 Y19.6991 F120.00
G01 X4.5145 Y19.6645 F120.00
G01 X4.5248 Y19.6356 F120.00
G01 X4.5399 Y19.6034 F120.00
G01 X4.5569 Y19.5750 F120.00
G01 X4.5766 Y19.5484 F120.00
G01 X4.6006 Y19.5221 F120.00
G01 X4.6234 Y19.5016 F120.00
G01 X4.6500 Y19.4819 F120.00
G01 X4.6784 Y19.4649 F120.00
G01 X4.7039 Y19.4527 F120.00
G01 X4.7129 Y19.4489 F120.00
G01 X4.7419 Y19.4388 F120.00
G01 X4.7693 Y19.4320 F120.00
G01 X4.7765 Y19.4306 F120.00
G01 X4.8069 Y19.4264 F120.00
G01 X4.8350 Y19.4250 F120.00
G01 X4.8624 Y19.4250 F120.00
G01 X4.8624 Y19.0750 F120.00
G01 X4.8350 Y19.0750 F120.00
G01 X4.8020 Y19.0731 F120.00
G01 X4.7717 Y19.0685 F120.00
G01 X4.7395 Y19.0605 F120.00
G01 X4.7083 Y19.0493 F120.00
G01 X4.6784 Y19.0351 F120.00
G01 X4.6500 Y19.0181 F120.00
G01 X4.6273 Y19.0014 F120.00
G01 X4.6215 Y18.9968 F120.00
G01 X4.6024 Y18.9795 F120.00
G01 X4.5955 Y18.9726 F120.00
G01 X4.5751 Y18.9497 F120.00
G01 X4.5583 Y18.9270 F120.00
G01 X4.5543 Y18.9209 F120.00
G01 X4.5399 Y18.8966 F120.00
G01 X4.5257 Y18.8667 F120.00
G01 X4.5145 Y18.8355 F120.00
G01 X4.5070 Y18.8057 F120.00
G01 X4.5016 Y18.7706 F120.00
G01 X4.5000 Y18.7375 F120.00
G01 X4.5000 Y18.2625 F120.00
G01 X4.5014 Y18.2319 F120.00
G01 X4.5065 Y18.1967 F120.00
G01 X4.5132 Y18.1693 F120.00
G01 X4.5161 Y18.1599 F120.00
G01 X4.5248 Y18.1356 F120.00
G01 X4.5277 Y18.1289 F120.00
G01 X4.5399 Y18.1034 F120.00
G01 X4.5543 Y18.0791 F120.00
G01 X4.5597 Y18.0710 F120.00
G01 X4.5766 Y18.0484 F120.00
G01 X4.5989 Y18.0239 F120.00
G01 X4.6234 Y18.0016 F120.00
G01 X4.6460 Y17.9847 F120.00
G01 X4.6541 Y17.9793 F120.00
G01 X4.6784 Y17.9649 F120.00
G01 X4.7039 Y17.9527 F120.00
G01 X4.7106 Y17.9498 F120.00
G01 X4.7349 Y17.9411 F120.00
G01 X4.7443 Y17.9382 F120.00
G01 X4.7717 Y17.9315 F120.00
G01 X4.8020 Y17.9269 F120.00
G01 X4.8375 Y17.9250 F120.00
G01 X5.4424 Y17.9251 F120.00
G01 X5.4681 Y17.9264 F120.00
G01 X5.4755 Y17.9272 F120.00
G01 X5.5033 Y17.9315 F120.00
G01 X5.5307 Y17.9382 F120.00
G01 X5.5401 Y17.9411 F120.00
G01 X5.5667 Y17.9507 F120.00
G01 X5.5944 Y17.9637 F120.00
G01 X5.6250 Y17.9819 F120.00
G01 X5.6516 Y18.0016 F120.00
G01 X5.6761 Y18.0239 F120.00
G01 X5.6952 Y18.0447 F120.00
G01 X5.7014 Y18.0523 F120.00
G01 X5.7181 Y18.0750 F120.00
G01 X5.7327 Y18.0991 F120.00
G01 X5.7363 Y18.1056 F120.00
G01 X5.7473 Y18.1289 F120.00
G01 X5.7511 Y18.1379 F120.00
G01 X5.7605 Y18.1645 F120.00
G01 X5.7685 Y18.1967 F120.00
G01 X5.7734 Y18.2294 F120.00
G01 X5.7750 Y18.2625 F120.00
G01 X5.7750 Y18.7375 F120.00
G01 X5.7734 Y18.7706 F120.00
G01 X5.7694 Y18.7985 F120.00
G01 X5.7674 Y18.8081 F120.00
G01 X5.7605 Y18.8355 F120.00
G01 X5.7493 Y18.8667 F120.00
G01 X5.7351 Y18.8966 F120.00
G01 X5.7181 Y18.9250 F120.00
G01 X5.6984 Y18.9516 F120.00
G01 X5.6761 Y18.9761 F120.00
G01 X5.6516 Y18.9984 F120.00
G01 X5.6250 Y19.0181 F120.00
G01 X5.5966 Y19.0351 F120.00
G01 X5.5667 Y19.0493 F120.00
G01 X5.5355 Y19.0605 F120.00
G01 X5.5057 Y19.0680 F120.00
G01 X5.4706 Y19.0734 F120.00
G01 X5.4424 Y19.0749 F120.00
G01 X5.3626 Y19.0750 F120.00
G01 X5.3626 Y19.4261 F120.00
G01 X5.3730 Y19.4269 F120.00
G01 X5.4033 Y19.4315 F120.00
G01 X5.4307 Y19.4382 F120.00
G01 X5.4401 Y19.4411 F120.00
G01 X5.4667 Y19.4507 F120.00
G01 X5.4922 Y19.4626 F120.00
G01 X5.5009 Y19.4673 F120.00
G01 X5.5270 Y19.4833 F120.00
G01 X5.5516 Y19.5016 F120.00
G01 X5.5726 Y19.5205 F120.00
G01 X5.5795 Y19.5274 F120.00
G01 X5.5984 Y19.5484 F120.00
G01 X5.6153 Y19.5710 F120.00
G01 X5.6207 Y19.5791 F120.00
G01 X5.6351 Y19.6034 F120.00
G01 X5.6473 Y19.6289 F120.00
G01 X5.6511 Y19.6379 F120.00
G01 X5.6605 Y19.6645 F120.00
G01 X5.6680 Y19.6943 F120.00
G01 X5.6734 Y19.7294 F120.00
G01 X5.6749 Y19.7576 F120.00
G01 X5.6750 Y20.2375 F120.00
G01 X5.6736 Y20.2678 F120.00
G01 X6.1591 Y20.7534 F120.00
G01 X6.1724 Y20.7678 F120.00
G01 X6.1770 Y20.7736 F120.00
G01 X6.1871 Y20.7875 F120.00
G01 X6.1973 Y20.8043 F120.00
G01 X6.2079 Y20.8264 F120.00
G01 X6.2154 Y20.8472 F120.00
G01 X6.2207 Y20.8686 F120.00
G01 X6.2237 Y20.8880 F120.00
G01 X6.2243 Y20.8953 F120.00
G01 X6.2251 Y20.9125 F120.00
G01 X6.2251 Y21.2592 F120.00
G01 X6.2266 Y21.2294 F120.00
G01 X6.2315 Y21.1967 F120.00
G01 X6.2395 Y21.1645 F120.00
G01 X6.2507 Y21.1333 F120.00
G01 X6.2649 Y21.1034 F120.00
G01 X6.2819 Y21.0750 F120.00
G01 X6.3016 Y21.0484 F120.00
G01 X6.3205 Y21.0274 F120.00
G01 X6.3256 Y21.0221 F120.00
G01 X6.3465 Y21.0032 F120.00
G01 X6.3710 Y20.9847 F120.00
G01 X6.3771 Y20.9805 F120.00
G01 X6.3991 Y20.9673 F120.00
G01 X6.4078 Y20.9626 F120.00
G01 X6.4333 Y20.9507 F120.00
G01 X6.4645 Y20.9395 F120.00
G01 X6.4967 Y20.9315 F120.00
G01 X6.5262 Y20.9270 F120.00
G01 X6.5255 Y20.9023 F120.00
G01 X6.5255 Y20.8792 F120.00
G01 X6.5242 Y20.8630 F120.00
G01 X6.5232 Y20.8296 F120.00
G01 X6.5202 Y20.8190 F120.00
G01 X6.5188 Y20.8121 F120.00
G01 X6.5132 Y20.7728 F120.00
G01 X6.5125 Y20.7634 F120.00
G01 X6.5125 Y20.5810 F120.00
G01 X6.5132 Y20.5715 F120.00
G01 X6.5143 Y20.5644 F120.00
G01 X6.5159 Y20.5575 F120.00
G01 X6.5201 Y20.5432 F120.00
G01 X6.5013 Y20.5340 F120.00
G01 X6.4771 Y20.5195 F120.00
G01 X6.4710 Y20.5153 F120.00
G01 X6.4465 Y20.4968 F120.00
G01 X6.4239 Y20.4761 F120.00
G01 X6.4048 Y20.4553 F120.00
G01 X6.3986 Y20.4477 F120.00
G01 X6.3805 Y20.4229 F120.00
G01 X6.3649 Y20.3966 F120.00
G01 X6.3527 Y20.3711 F120.00
G01 X6.3489 Y20.3621 F120.00
G01 X6.3395 Y20.3355 F120.00
G01 X6.3315 Y20.3033 F120.00
G01 X6.3272 Y20.2755 F120.00
G01 X6.3263 Y20.2657 F120.00
G01 X6.3250 Y20.2375 F120.00
G01 X6.3250 Y19.7625 F120.00
G01 X6.3266 Y19.7294 F120.00
G01 X6.3306 Y19.7015 F120.00
G01 X6.3326 Y19.6919 F120.00
G01 X6.3395 Y19.6645 F120.00
G01 X6.3489 Y19.6379 F120.00
G01 X6.3527 Y19.6289 F120.00
G01 X6.3649 Y19.6034 F120.00
G01 X6.3793 Y19.5791 F120.00
G01 X6.3833 Y19.5730 F120.00
G01 X6.4001 Y19.5503 F120.00
G01 X6.4239 Y19.5239 F120.00
G01 X6.4503 Y19.5001 F120.00
G01 X6.4771 Y19.4805 F120.00
G01 X6.5013 Y19.4660 F120.00
G01 X6.5165 Y19.4585 F120.00
G01 X6.5131 Y19.4273 F120.00
G01 X6.5125 Y19.4166 F120.00
G01 X6.5125 Y19.0710 F120.00
G01 X6.4943 Y19.0680 F120.00
G01 X6.4622 Y19.0597 F120.00
G01 X6.4333 Y19.0493 F120.00
G01 X6.4013 Y19.0340 F120.00
G01 X6.3750 Y19.0181 F120.00
G01 X6.3484 Y18.9984 F120.00
G01 X6.3239 Y18.9761 F120.00
G01 X6.3032 Y18.9535 F120.00
G01 X6.2819 Y18.9250 F120.00
G01 X6.2673 Y18.9009 F120.00
G01 X6.2626 Y18.8922 F120.00
G01 X6.2517 Y18.8689 F120.00
G01 X6.2489 Y18.8621 F120.00
G01 X6.2395 Y18.8355 F120.00
G01 X6.2315 Y18.8033 F120.00
G01 X6.2266 Y18.7706 F120.00
G01 X6.2250 Y18.7375 F120.00
G01 X6.2250 Y18.2600 F120.00
G01 X6.2266 Y18.2294 F120.00
G01 X6.2306 Y18.2015 F120.00
G01 X6.2320 Y18.1943 F120.00
G01 X6.2382 Y18.1693 F120.00
G01 X6.2411 Y18.1599 F120.00
G01 X6.2507 Y18.1333 F120.00
G01 X6.2626 Y18.1078 F120.00
G01 X6.2673 Y18.0991 F120.00
G01 X6.2819 Y18.0750 F120.00
G01 X6.2986 Y18.0523 F120.00
G01 X6.3048 Y18.0447 F120.00
G01 X6.3239 Y18.0239 F120.00
G01 X6.3465 Y18.0032 F120.00
G01 X6.3710 Y17.9847 F120.00
G01 X6.3791 Y17.9793 F120.00
G01 X6.4034 Y17.9649 F120.00
G01 X6.4311 Y17.9517 F120.00
G01 X6.4379 Y17.9489 F120.00
G01 X6.4669 Y17.9388 F120.00
G01 X6.4943 Y17.9320 F120.00
G01 X6.5125 Y17.9290 F120.00
G00 Z2.0000
G00 X5.5408 Y17.7350
G01 F60.00
G01 Z-0.0500
G01 F120.00
G01 X5.5567 Y17.7281 F120.00
G01 X5.5909 Y17.7115 F120.00
G01 X5.6037 Y17.7043 F120.00
G01 X5.6361 Y17.6844 F120.00
G01 X5.6669 Y17.6621 F120.00
G01 X5.6841 Y17.6483 F120.00
G01 X5.7123 Y17.6227 F120.00
G01 X5.7277 Y17.6069 F120.00
G01 X5.7530 Y17.5785 F120.00
G01 X5.7759 Y17.5482 F120.00
G01 X5.7884 Y17.5299 F120.00
G01 X5.8043 Y17.5037 F120.00
G01 X5.8149 Y17.4843 F120.00
G01 X5.8312 Y17.4500 F120.00
G01 X5.8368 Y17.4364 F120.00
G01 X5.8496 Y17.4005 F120.00
G01 X5.8558 Y17.3793 F120.00
G01 X5.8631 Y17.3496 F120.00
G01 X5.8660 Y17.3351 F120.00
G01 X5.8706 Y17.3048 F120.00
G01 X5.8724 Y17.2902 F120.00
G01 X5.8746 Y17.2522 F120.00
G01 X5.8750 Y17.2375 F120.00
G01 X5.8750 Y16.7625 F120.00
G01 X5.8746 Y16.7478 F120.00
G01 X5.8730 Y16.7172 F120.00
G01 X5.8706 Y16.6952 F120.00
G01 X5.8647 Y16.6576 F120.00
G01 X5.8558 Y16.6207 F120.00
G01 X5.8519 Y16.6065 F120.00
G01 X5.8472 Y16.5925 F120.00
G01 X5.8368 Y16.5636 F120.00
G01 X5.8281 Y16.5433 F120.00
G01 X5.8115 Y16.5091 F120.00
G01 X5.8043 Y16.4963 F120.00
G01 X5.7844 Y16.4639 F120.00
G01 X5.7759 Y16.4518 F120.00
G01 X5.7530 Y16.4215 F120.00
G01 X5.7277 Y16.3931 F120.00
G01 X5.7123 Y16.3773 F120.00
G01 X5.6896 Y16.3566 F120.00
G01 X5.6785 Y16.3470 F120.00
G01 X5.6482 Y16.3241 F120.00
G01 X5.6361 Y16.3156 F120.00
G01 X5.6037 Y16.2957 F120.00
G01 X5.5843 Y16.2851 F120.00
G01 X5.5567 Y16.2719 F120.00
G01 X5.5408 Y16.2650 F120.00
G01 X5.5567 Y16.2614 F120.00
G01 X5.5865 Y16.2539 F120.00
G01 X5.6075 Y16.2472 F120.00
G01 X5.6432 Y16.2341 F120.00
G01 X5.6777 Y16.2182 F120.00
G01 X5.6909 Y16.2115 F120.00
G01 X5.7037 Y16.2043 F120.00
G01 X5.7299 Y16.1884 F120.00
G01 X5.7482 Y16.1759 F120.00
G01 X5.7785 Y16.1530 F120.00
G01 X5.8069 Y16.1277 F120.00
G01 X5.8176 Y16.1176 F120.00
G01 X5.8277 Y16.1069 F120.00
G01 X5.8530 Y16.0785 F120.00
G01 X5.8759 Y16.0482 F120.00
G01 X5.8884 Y16.0299 F120.00
G01 X5.9043 Y16.0037 F120.00
G01 X5.9115 Y15.9909 F120.00
G01 X5.9182 Y15.9777 F120.00
G01 X5.9312 Y15.9500 F120.00
G01 X5.9394 Y15.9295 F120.00
G01 X5.9519 Y15.8935 F120.00
G01 X5.9558 Y15.8793 F120.00
G01 X5.9631 Y15.8496 F120.00
G01 X5.9660 Y15.8351 F120.00
G01 X5.9716 Y15.7975 F120.00
G01 X5.9730 Y15.7828 F120.00
G01 X5.9749 Y15.7449 F120.00
G01 X5.9750 Y15.2625 F120.00
G01 X5.9735 Y15.2245 F120.00
G01 X5.9716 Y15.2025 F120.00
G01 X5.9672 Y15.1721 F120.00
G01 X5.9647 Y15.1576 F120.00
G01 X5.9558 Y15.1207 F120.00
G01 X5.9496 Y15.0995 F120.00
G01 X5.9394 Y15.0705 F120.00
G01 X5.9341 Y15.0568 F120.00
G01 X5.9281 Y15.0433 F120.00
G01 X5.9149 Y15.0157 F120.00
G01 X5.9043 Y14.9963 F120.00
G01 X5.8844 Y14.9639 F120.00
G01 X5.8759 Y14.9518 F120.00
G01 X5.8558 Y14.9251 F120.00
G01 X6.1442 Y14.9251 F120.00
G01 X6.1241 Y14.9518 F120.00
G01 X6.1156 Y14.9639 F120.00
G01 X6.0957 Y14.9963 F120.00
G01 X6.0851 Y15.0157 F120.00
G01 X6.0719 Y15.0433 F120.00
G01 X6.0659 Y15.0568 F120.00
G01 X6.0528 Y15.0925 F120.00
G01 X6.0461 Y15.1135 F120.00
G01 X6.0386 Y15.1433 F120.00
G01 X6.0353 Y15.1576 F120.00
G01 X6.0294 Y15.1952 F120.00
G01 X6.0270 Y15.2172 F120.00
G01 X6.0254 Y15.2478 F120.00
G01 X6.0250 Y15.2625 F120.00
G01 X6.0250 Y15.7375 F120.00
G01 X6.0265 Y15.7755 F120.00
G01 X6.0284 Y15.7975 F120.00
G01 X6.0328 Y15.8279 F120.00
G01 X6.0353 Y15.8424 F120.00
G01 X6.0442 Y15.8793 F120.00
G01 X6.0504 Y15.9005 F120.00
G01 X6.0606 Y15.9295 F120.00
G01 X6.0659 Y15.9432 F120.00
G01 X6.0818 Y15.9777 F120.00
G01 X6.0920 Y15.9973 F120.00
G01 X6.1077 Y16.0237 F120.00
G01 X6.1156 Y16.0361 F120.00
G01 X6.1379 Y16.0669 F120.00
G01 X6.1517 Y16.0841 F120.00
G01 X6.1723 Y16.1069 F120.00
G01 X6.1824 Y16.1176 F120.00
G01 X6.2104 Y16.1434 F120.00
G01 X6.2273 Y16.1576 F120.00
G01 X6.2518 Y16.1759 F120.00
G01 X6.2639 Y16.1844 F120.00
G01 X6.2963 Y16.2043 F120.00
G01 X6.3125 Y16.2133 F120.00
G01 X6.3125 Y16.3547 F120.00
G01 X6.2877 Y16.3773 F120.00
G01 X6.2773 Y16.3877 F120.00
G01 X6.2517 Y16.4159 F120.00
G01 X6.2379 Y16.4331 F120.00
G01 X6.2156 Y16.4639 F120.00
G01 X6.1957 Y16.4963 F120.00
G01 X6.1851 Y16.5157 F120.00
G01 X6.1719 Y16.5433 F120.00
G01 X6.1632 Y16.5636 F120.00
G01 X6.1504 Y16.5995 F120.00
G01 X6.1461 Y16.6135 F120.00
G01 X6.1369 Y16.6504 F120.00
G01 X6.1328 Y16.6721 F120.00
G01 X6.1276 Y16.7098 F120.00
G01 X6.1254 Y16.7478 F120.00
G01 X6.1250 Y16.7625 F120.00
G01 X6.1251 Y17.2449 F120.00
G01 X6.1265 Y17.2755 F120.00
G01 X6.1276 Y17.2902 F120.00
G01 X6.1294 Y17.3048 F120.00
G01 X6.1340 Y17.3351 F120.00
G01 X6.1369 Y17.3496 F120.00
G01 X6.1461 Y17.3865 F120.00
G01 X6.1504 Y17.4005 F120.00
G01 X6.1606 Y17.4295 F120.00
G01 X6.1659 Y17.4432 F120.00
G01 X6.1719 Y17.4567 F120.00
G01 X6.1851 Y17.4843 F120.00
G01 X6.1920 Y17.4973 F120.00
G01 X6.2077 Y17.5237 F120.00
G01 X6.2156 Y17.5361 F120.00
G01 X6.2241 Y17.5482 F120.00
G01 X6.2470 Y17.5785 F120.00
G01 X6.2723 Y17.6069 F120.00
G01 X6.2824 Y17.6176 F120.00
G01 X6.3125 Y17.6453 F120.00
G01 X6.3125 Y17.7867 F120.00
G01 X6.2963 Y17.7957 F120.00
G01 X6.2639 Y17.8156 F120.00
G01 X6.2518 Y17.8241 F120.00
G01 X6.2215 Y17.8470 F120.00
G01 X6.1931 Y17.8723 F120.00
G01 X6.1824 Y17.8824 F120.00
G01 X6.1723 Y17.8931 F120.00
G01 X6.1470 Y17.9215 F120.00
G01 X6.1241 Y17.9518 F120.00
G01 X6.1156 Y17.9639 F120.00
G01 X6.0957 Y17.9963 F120.00
G01 X6.0885 Y18.0091 F120.00
G01 X6.0818 Y18.0223 F120.00
G01 X6.0659 Y18.0568 F120.00
G01 X6.0606 Y18.0705 F120.00
G01 X6.0481 Y18.1065 F120.00
G01 X6.0442 Y18.1207 F120.00
G01 X6.0369 Y18.1504 F120.00
G01 X6.0328 Y18.1721 F120.00
G01 X6.0276 Y18.2098 F120.00
G01 X6.0265 Y18.2245 F120.00
G01 X6.0251 Y18.2551 F120.00
G01 X6.0250 Y18.7375 F120.00
G01 X6.0254 Y18.7522 F120.00
G01 X6.0270 Y18.7828 F120.00
G01 X6.0294 Y18.8048 F120.00
G01 X6.0353 Y18.8424 F120.00
G01 X6.0386 Y18.8567 F120.00
G01 X6.0461 Y18.8865 F120.00
G01 X6.0504 Y18.9005 F120.00
G01 X6.0606 Y18.9295 F120.00
G01 X6.0688 Y18.9500 F120.00
G01 X6.0818 Y18.9777 F120.00
G01 X6.0885 Y18.9909 F120.00
G01 X6.1077 Y19.0237 F120.00
G01 X6.1198 Y19.0422 F120.00
G01 X6.1379 Y19.0669 F120.00
G01 X6.1470 Y19.0785 F120.00
G01 X6.1566 Y19.0896 F120.00
G01 X6.1773 Y19.1123 F120.00
G01 X6.1931 Y19.1277 F120.00
G01 X6.2215 Y19.1530 F120.00
G01 X6.2331 Y19.1621 F120.00
G01 X6.2578 Y19.1802 F120.00
G01 X6.2763 Y19.1923 F120.00
G01 X6.3027 Y19.2080 F120.00
G01 X6.3125 Y19.2133 F120.00
G01 X6.3125 Y19.3547 F120.00
G01 X6.2877 Y19.3773 F120.00
G01 X6.2773 Y19.3877 F120.00
G01 X6.2517 Y19.4159 F120.00
G01 X6.2424 Y19.4273 F120.00
G01 X6.2198 Y19.4578 F120.00
G01 X6.2116 Y19.4701 F120.00
G01 X6.1920 Y19.5027 F120.00
G01 X6.1851 Y19.5157 F120.00
G01 X6.1688 Y19.5500 F120.00
G01 X6.1632 Y19.5636 F120.00
G01 X6.1504 Y19.5995 F120.00
G01 X6.1461 Y19.6135 F120.00
G01 X6.1369 Y19.6504 F120.00
G01 X6.1340 Y19.6649 F120.00
G01 X6.1284 Y19.7025 F120.00
G01 X6.1270 Y19.7172 F120.00
G01 X6.1254 Y19.7478 F120.00
G01 X6.1250 Y19.7625 F120.00
G01 X6.1250 Y20.2375 F120.00
G01 X6.1254 Y20.2522 F120.00
G01 X6.1276 Y20.2902 F120.00
G01 X6.1294 Y20.3048 F120.00
G01 X6.1353 Y20.3424 F120.00
G01 X6.1442 Y20.3793 F120.00
G01 X6.1504 Y20.4005 F120.00
G01 X6.1632 Y20.4364 F120.00
G01 X6.1688 Y20.4500 F120.00
G01 X6.1851 Y20.4843 F120.00
G01 X6.1920 Y20.4973 F120.00
G01 X6.2008 Y20.5122 F120.00
G01 X5.8750 Y20.1864 F120.00
G01 X5.8750 Y19.7625 F120.00
G01 X5.8746 Y19.7478 F120.00
G01 X5.8724 Y19.7098 F120.00
G01 X5.8706 Y19.6952 F120.00
G01 X5.8660 Y19.6649 F120.00
G01 X5.8631 Y19.6504 F120.00
G01 X5.8558 Y19.6207 F120.00
G01 X5.8496 Y19.5995 F120.00
G01 X5.8368 Y19.5636 F120.00
G01 X5.8312 Y19.5500 F120.00
G01 X5.8149 Y19.5157 F120.00
G01 X5.8080 Y19.5027 F120.00
G01 X5.7884 Y19.4701 F120.00
G01 X5.7802 Y19.4578 F120.00
G01 X5.7576 Y19.4273 F120.00
G01 X5.7483 Y19.4159 F120.00
G01 X5.7227 Y19.3877 F120.00
G01 X5.7123 Y19.3773 F120.00
G01 X5.6841 Y19.3517 F120.00
G01 X5.6669 Y19.3379 F120.00
G01 X5.6422 Y19.3198 F120.00
G01 X5.6237 Y19.3077 F120.00
G01 X5.5909 Y19.2885 F120.00
G01 X5.5626 Y19.2747 F120.00
G01 X5.5626 Y19.2600 F120.00
G01 X5.5935 Y19.2519 F120.00
G01 X5.6295 Y19.2394 F120.00
G01 X5.6500 Y19.2312 F120.00
G01 X5.6843 Y19.2149 F120.00
G01 X5.7037 Y19.2043 F120.00
G01 X5.7361 Y19.1844 F120.00
G01 X5.7482 Y19.1759 F120.00
G01 X5.7727 Y19.1576 F120.00
G01 X5.7896 Y19.1434 F120.00
G01 X5.8176 Y19.1176 F120.00
G01 X5.8434 Y19.0896 F120.00
G01 X5.8576 Y19.0727 F120.00
G01 X5.8802 Y19.0422 F120.00
G01 X5.8923 Y19.0237 F120.00
G01 X5.9115 Y18.9909 F120.00
G01 X5.9182 Y18.9777 F120.00
G01 X5.9341 Y18.9432 F120.00
G01 X5.9394 Y18.9295 F120.00
G01 X5.9519 Y18.8935 F120.00
G01 X5.9558 Y18.8793 F120.00
G01 X5.9631 Y18.8496 F120.00
G01 X5.9660 Y18.8351 F120.00
G01 X5.9706 Y18.8048 F120.00
G01 X5.9724 Y18.7902 F120.00
G01 X5.9735 Y18.7755 F120.00
G01 X5.9750 Y18.7375 F120.00
G01 X5.9749 Y18.2551 F120.00
G01 X5.9735 Y18.2245 F120.00
G01 X5.9724 Y18.2098 F120.00
G01 X5.9706 Y18.1952 F120.00
G01 X5.9647 Y18.1576 F120.00
G01 X5.9558 Y18.1207 F120.00
G01 X5.9519 Y18.1065 F120.00
G01 X5.9394 Y18.0705 F120.00
G01 X5.9341 Y18.0568 F120.00
G01 X5.9281 Y18.0433 F120.00
G01 X5.9149 Y18.0157 F120.00
G01 X5.9080 Y18.0027 F120.00
G01 X5.8923 Y17.9763 F120.00
G01 X5.8844 Y17.9639 F120.00
G01 X5.8759 Y17.9518 F120.00
G01 X5.8530 Y17.9215 F120.00
G01 X5.8277 Y17.8931 F120.00
G01 X5.8176 Y17.8824 F120.00
G01 X5.8069 Y17.8723 F120.00
G01 X5.7841 Y17.8517 F120.00
G01 X5.7727 Y17.8424 F120.00
G01 X5.7422 Y17.8198 F120.00
G01 X5.7299 Y17.8116 F120.00
G01 X5.7037 Y17.7957 F120.00
G01 X5.6909 Y17.7885 F120.00
G01 X5.6777 Y17.7818 F120.00
G01 X5.6500 Y17.7688 F120.00
G01 X5.6364 Y17.7632 F120.00
G01 X5.6075 Y17.7528 F120.00
G01 X5.5935 Y17.7481 F120.00
G01 X5.5567 Y17.7386 F120.00
G01 X5.5408 Y17.7350 F120.00
G00 Z2.0000
G00 X4.5597 Y16.1973
G01 F60.00
G01 Z-0.0500
G01 F120.00
G01 X4.5841 Y16.2115 F120.00
G01 X4.6183 Y16.2281 F120.00
G01 X4.6386 Y16.2368 F120.00
G01 X4.6624 Y16.2454 F120.00
G01 X4.6624 Y16.2546 F120.00
G01 X4.6386 Y16.2632 F120.00
G01 X4.6183 Y16.2719 F120.00
G01 X4.5841 Y16.2885 F120.00
G01 X4.5606 Y16.3021 F120.00
G01 X4.5635 Y16.2803 F120.00
G01 X4.5645 Y16.2660 F120.00
G01 X4.5648 Y16.2515 F120.00
G01 X4.5644 Y16.2371 F120.00
G01 X4.5633 Y16.2227 F120.00
G01 X4.5616 Y16.2084 F120.00
G01 X4.5597 Y16.1973 F120.00
G00 Z2.0000
G00 X1.6247 Y18.1560
G01 F60.00
G01 Z-0.0500
G01 F120.00
G01 X1.6592 Y18.1683 F120.00
G01 X1.6732 Y18.1725 F120.00
G01 X1.7684 Y18.1964 F120.00
G01 X1.7902 Y18.2004 F120.00
G01 X1.8800 Y18.2137 F120.00
G01 X1.9020 Y18.2155 F120.00
G01 X1.9853 Y18.2196 F120.00
G01 X2.0000 Y18.2200 F120.00
G01 X2.0147 Y18.2196 F120.00
G01 X2.1054 Y18.2151 F120.00
G01 X2.1273 Y18.2127 F120.00
G01 X2.2098 Y18.2004 F120.00
G01 X2.2244 Y18.1979 F120.00
G01 X2.2387 Y18.1947 F120.00
G01 X2.3196 Y18.1744 F120.00
G01 X2.3332 Y18.1707 F120.00
G01 X2.3478 Y18.1659 F120.00
G01 X2.4263 Y18.1378 F120.00
G01 X2.4401 Y18.1325 F120.00
G01 X2.4535 Y18.1265 F120.00
G01 X2.5356 Y18.0876 F120.00
G01 X2.5549 Y18.0770 F120.00
G01 X2.6265 Y18.0341 F120.00
G01 X2.6389 Y18.0262 F120.00
G01 X2.6509 Y18.0177 F120.00
G01 X2.7179 Y17.9680 F120.00
G01 X2.7296 Y17.9590 F120.00
G01 X2.7407 Y17.9493 F120.00
G01 X2.8025 Y17.8933 F120.00
G01 X2.8132 Y17.8832 F120.00
G01 X2.8233 Y17.8725 F120.00
G01 X2.8842 Y17.8052 F120.00
G01 X2.8980 Y17.7879 F120.00
G01 X2.9477 Y17.7209 F120.00
G01 X2.9562 Y17.7089 F120.00
G01 X2.9641 Y17.6965 F120.00
G01 X3.0070 Y17.6249 F120.00
G01 X3.0142 Y17.6121 F120.00
G01 X3.0208 Y17.5990 F120.00
G01 X3.0565 Y17.5235 F120.00
G01 X3.0625 Y17.5101 F120.00
G01 X3.0678 Y17.4963 F120.00
G01 X3.0933 Y17.4251 F120.00
G01 X4.3340 Y17.4251 F120.00
G01 X4.3382 Y17.4364 F120.00
G01 X4.3438 Y17.4500 F120.00
G01 X4.3601 Y17.4843 F120.00
G01 X4.3707 Y17.5037 F120.00
G01 X4.3906 Y17.5361 F120.00
G01 X4.3991 Y17.5482 F120.00
G01 X4.4220 Y17.5785 F120.00
G01 X4.4473 Y17.6069 F120.00
G01 X4.4627 Y17.6227 F120.00
G01 X4.4909 Y17.6483 F120.00
G01 X4.5081 Y17.6621 F120.00
G01 X4.5389 Y17.6844 F120.00
G01 X4.5713 Y17.7043 F120.00
G01 X4.5907 Y17.7149 F120.00
G01 X4.6250 Y17.7312 F120.00
G01 X4.6386 Y17.7368 F120.00
G01 X4.6756 Y17.7500 F120.00
G01 X4.6455 Y17.7606 F120.00
G01 X4.6318 Y17.7659 F120.00
G01 X4.6183 Y17.7719 F120.00
G01 X4.5907 Y17.7851 F120.00
G01 X4.5777 Y17.7920 F120.00
G01 X4.5513 Y17.8077 F120.00
G01 X4.5389 Y17.8156 F120.00
G01 X4.5268 Y17.8241 F120.00
G01 X4.4965 Y17.8470 F120.00
G01 X4.4681 Y17.8723 F120.00
G01 X4.4574 Y17.8824 F120.00
G01 X4.4473 Y17.8931 F120.00
G01 X4.4220 Y17.9215 F120.00
G01 X4.3991 Y17.9518 F120.00
G01 X4.3906 Y17.9639 F120.00
G01 X4.3827 Y17.9763 F120.00
G01 X4.3670 Y18.0027 F120.00
G01 X4.3601 Y18.0157 F120.00
G01 X4.3469 Y18.0433 F120.00
G01 X4.3409 Y18.0568 F120.00
G01 X4.3356 Y18.0705 F120.00
G01 X4.3254 Y18.0995 F120.00
G01 X4.3211 Y18.1135 F120.00
G01 X4.3136 Y18.1433 F120.00
G01 X4.3103 Y18.1576 F120.00
G01 X4.3078 Y18.1721 F120.00
G01 X4.3026 Y18.2098 F120.00
G01 X4.3004 Y18.2478 F120.00
G01 X4.3000 Y18.2625 F120.00
G01 X4.3000 Y18.7375 F120.00
G01 X4.3015 Y18.7755 F120.00
G01 X4.3026 Y18.7902 F120.00
G01 X4.3044 Y18.8048 F120.00
G01 X4.3090 Y18.8351 F120.00
G01 X4.3119 Y18.8496 F120.00
G01 X4.3192 Y18.8793 F120.00
G01 X4.3231 Y18.8935 F120.00
G01 X4.3356 Y18.9295 F120.00
G01 X4.3438 Y18.9500 F120.00
G01 X4.3601 Y18.9843 F120.00
G01 X4.3670 Y18.9973 F120.00
G01 X4.3866 Y19.0299 F120.00
G01 X4.3991 Y19.0482 F120.00
G01 X4.4220 Y19.0785 F120.00
G01 X4.4473 Y19.1069 F120.00
G01 X4.4574 Y19.1176 F120.00
G01 X4.4681 Y19.1277 F120.00
G01 X4.4965 Y19.1530 F120.00
G01 X4.5268 Y19.1759 F120.00
G01 X4.5389 Y19.1844 F120.00
G01 X4.5713 Y19.2043 F120.00
G01 X4.5907 Y19.2149 F120.00
G01 X4.6183 Y19.2281 F120.00
G01 X4.6318 Y19.2341 F120.00
G01 X4.6624 Y19.2454 F120.00
G01 X4.6624 Y19.2546 F120.00
G01 X4.6318 Y19.2659 F120.00
G01 X4.5973 Y19.2818 F120.00
G01 X4.5777 Y19.2920 F120.00
G01 X4.5513 Y19.3077 F120.00
G01 X4.5328 Y19.3198 F120.00
G01 X4.5023 Y19.3424 F120.00
G01 X4.4909 Y19.3517 F120.00
G01 X4.4627 Y19.3773 F120.00
G01 X4.4473 Y19.3931 F120.00
G01 X4.4220 Y19.4215 F120.00
G01 X4.3991 Y19.4518 F120.00
G01 X4.3906 Y19.4639 F120.00
G01 X4.3707 Y19.4963 F120.00
G01 X4.3601 Y19.5157 F120.00
G01 X4.3438 Y19.5500 F120.00
G01 X4.3382 Y19.5636 F120.00
G01 X4.3340 Y19.5749 F120.00
G01 X3.9261 Y19.5749 F120.00
G01 X3.6606 Y19.3094 F120.00
G01 X3.6408 Y19.2910 F120.00
G01 X3.6297 Y19.2814 F120.00
G01 X3.6180 Y19.2724 F120.00
G01 X3.6022 Y19.2607 F120.00
G01 X3.5898 Y19.2525 F120.00
G01 X3.5604 Y19.2351 F120.00
G01 X3.5294 Y19.2202 F120.00
G01 X3.5158 Y19.2146 F120.00
G01 X3.4974 Y19.2079 F120.00
G01 X3.4834 Y19.2032 F120.00
G01 X3.4692 Y19.1993 F120.00
G01 X3.4501 Y19.1946 F120.00
G01 X3.4357 Y19.1918 F120.00
G01 X3.4090 Y19.1878 F120.00
G01 X3.3943 Y19.1864 F120.00
G01 X3.3600 Y19.1849 F120.00
G01 X3.0682 Y19.1849 F120.00
G01 X3.0625 Y19.1699 F120.00
G01 X3.0565 Y19.1565 F120.00
G01 X3.0208 Y19.0810 F120.00
G01 X3.0142 Y19.0679 F120.00
G01 X3.0070 Y19.0551 F120.00
G01 X2.9641 Y18.9835 F120.00
G01 X2.9562 Y18.9711 F120.00
G01 X2.9477 Y18.9591 F120.00
G01 X2.8980 Y18.8921 F120.00
G01 X2.8890 Y18.8804 F120.00
G01 X2.8793 Y18.8693 F120.00
G01 X2.8233 Y18.8075 F120.00
G01 X2.8132 Y18.7968 F120.00
G01 X2.8025 Y18.7867 F120.00
G01 X2.7407 Y18.7307 F120.00
G01 X2.7296 Y18.7210 F120.00
G01 X2.7179 Y18.7120 F120.00
G01 X2.6509 Y18.6623 F120.00
G01 X2.6389 Y18.6538 F120.00
G01 X2.6265 Y18.6459 F120.00
G01 X2.5549 Y18.6030 F120.00
G01 X2.5421 Y18.5958 F120.00
G01 X2.5290 Y18.5892 F120.00
G01 X2.4469 Y18.5504 F120.00
G01 X2.4263 Y18.5422 F120.00
G01 X2.3478 Y18.5141 F120.00
G01 X2.3338 Y18.5095 F120.00
G01 X2.3196 Y18.5056 F120.00
G01 X2.2387 Y18.4853 F120.00
G01 X2.2244 Y18.4821 F120.00
G01 X2.2098 Y18.4796 F120.00
G01 X2.1273 Y18.4673 F120.00
G01 X2.1127 Y18.4655 F120.00
G01 X2.0980 Y18.4645 F120.00
G01 X2.0074 Y18.4601 F120.00
G01 X1.9853 Y18.4604 F120.00
G01 X1.9020 Y18.4645 F120.00
G01 X1.8873 Y18.4655 F120.00
G01 X1.8727 Y18.4673 F120.00
G01 X1.7829 Y18.4807 F120.00
G01 X1.7613 Y18.4853 F120.00
G01 X1.6735 Y18.5074 F120.00
G01 X1.6533 Y18.5137 F120.00
G01 X1.6184 Y18.5262 F120.00
G01 X1.6327 Y18.4978 F120.00
G01 X1.6391 Y18.4844 F120.00
G01 X1.6448 Y18.4706 F120.00
G01 X1.6521 Y18.4495 F120.00
G01 X1.6578 Y18.4279 F120.00
G01 X1.6618 Y18.4059 F120.00
G01 X1.6636 Y18.3911 F120.00
G01 X1.6649 Y18.3688 F120.00
G01 X1.6649 Y18.3539 F120.00
G01 X1.6634 Y18.3316 F120.00
G01 X1.6562 Y18.2621 F120.00
G01 X1.6531 Y18.2400 F120.00
G01 X1.6483 Y18.2182 F120.00
G01 X1.6419 Y18.1967 F120.00
G01 X1.6340 Y18.1759 F120.00
G01 X1.6247 Y18.1560 F120.00
G00 Z2.0000
G00 X1.0925 Y17.3504
G01 F60.00
G01 Z-0.0500
G01 F120.00
G01 X1.0896 Y17.3410 F120.00
G01 X1.0683 Y17.2553 F120.00
G01 X1.0546 Y17.1631 F120.00
G01 X1.0500 Y17.0700 F120.00
G01 X1.0546 Y16.9769 F120.00
G01 X1.0683 Y16.8847 F120.00
G01 X1.0909 Y16.7942 F120.00
G01 X1.1223 Y16.7065 F120.00
G01 X1.1600 Y16.6266 F120.00
G01 X1.1646 Y16.6179 F120.00
G01 X1.2101 Y16.5422 F120.00
G01 X1.2626 Y16.4712 F120.00
G01 X1.2688 Y16.4636 F120.00
G01 X1.3249 Y16.4018 F120.00
G01 X1.3318 Y16.3949 F120.00
G01 X1.3973 Y16.3356 F120.00
G01 X1.4682 Y16.2829 F120.00
G01 X1.4764 Y16.2775 F120.00
G01 X1.5522 Y16.2322 F120.00
G01 X1.6365 Y16.1923 F120.00
G01 X1.7244 Y16.1608 F120.00
G01 X1.8099 Y16.1393 F120.00
G01 X1.8171 Y16.1378 F120.00
G01 X1.9069 Y16.1246 F120.00
G01 X2.0000 Y16.1200 F120.00
G01 X2.0931 Y16.1246 F120.00
G01 X2.1805 Y16.1374 F120.00
G01 X2.1901 Y16.1393 F120.00
G01 X2.2758 Y16.1609 F120.00
G01 X2.3590 Y16.1905 F120.00
G01 X2.3680 Y16.1943 F120.00
G01 X2.4434 Y16.2300 F120.00
G01 X2.4521 Y16.2346 F120.00
G01 X2.5278 Y16.2801 F120.00
G01 X2.6027 Y16.3356 F120.00
G01 X2.6718 Y16.3982 F120.00
G01 X2.7344 Y16.4673 F120.00
G01 X2.7899 Y16.5422 F120.00
G01 X2.8378 Y16.6222 F120.00
G01 X2.8777 Y16.7065 F120.00
G01 X2.9023 Y16.7749 F120.00
G01 X4.5000 Y16.7749 F120.00
G01 X4.5000 Y16.7600 F120.00
G01 X4.5014 Y16.7319 F120.00
G01 X4.5060 Y16.6991 F120.00
G01 X4.5145 Y16.6645 F120.00
G01 X4.5248 Y16.6356 F120.00
G01 X4.5399 Y16.6034 F120.00
G01 X4.5569 Y16.5750 F120.00
G01 X4.5766 Y16.5484 F120.00
G01 X4.6006 Y16.5221 F120.00
G01 X4.6234 Y16.5016 F120.00
G01 X4.6500 Y16.4819 F120.00
G01 X4.6784 Y16.4649 F120.00
G01 X4.7039 Y16.4527 F120.00
G01 X4.7129 Y16.4489 F120.00
G01 X4.7419 Y16.4388 F120.00
G01 X4.7693 Y16.4320 F120.00
G01 X4.7765 Y16.4306 F120.00
G01 X4.8069 Y16.4264 F120.00
G01 X4.8350 Y16.4250 F120.00
G01 X4.8624 Y16.4250 F120.00
G01 X4.8624 Y16.0750 F120.00
G01 X4.8350 Y16.0750 F120.00
G01 X4.8020 Y16.0731 F120.00
G01 X4.7717 Y16.0685 F120.00
G01 X4.7419 Y16.0612 F120.00
G01 X4.7129 Y16.0511 F120.00
G01 X4.7039 Y16.0473 F120.00
G01 X4.6784 Y16.0351 F120.00
G01 X4.6480 Y16.0167 F120.00
G01 X4.6234 Y15.9984 F120.00
G01 X4.5989 Y15.9761 F120.00
G01 X4.5766 Y15.9516 F120.00
G01 X4.5597 Y15.9290 F120.00
G01 X4.5555 Y15.9229 F120.00
G01 X4.5410 Y15.8987 F120.00
G01 X4.5277 Y15.8711 F120.00
G01 X4.5239 Y15.8621 F120.00
G01 X4.5153 Y15.8378 F120.00
G01 X4.5132 Y15.8307 F120.00
G01 X4.5065 Y15.8033 F120.00
G01 X4.5022 Y15.7755 F120.00
G01 X4.5014 Y15.7681 F120.00
G01 X4.5000 Y15.7400 F120.00
G01 X4.5000 Y15.2600 F120.00
G01 X4.5016 Y15.2294 F120.00
G01 X4.5065 Y15.1967 F120.00
G01 X4.5145 Y15.1645 F120.00
G01 X4.5239 Y15.1379 F120.00
G01 X4.5267 Y15.1311 F120.00
G01 X4.5376 Y15.1078 F120.00
G01 X4.5423 Y15.0991 F120.00
G01 X4.5583 Y15.0730 F120.00
G01 X4.5751 Y15.0503 F120.00
G01 X4.5798 Y15.0447 F120.00
G01 X4.5989 Y15.0239 F120.00
G01 X4.6234 Y15.0016 F120.00
G01 X4.6500 Y14.9819 F120.00
G01 X4.6784 Y14.9649 F120.00
G01 X4.7083 Y14.9507 F120.00
G01 X4.7349 Y14.9411 F120.00
G01 X4.7443 Y14.9382 F120.00
G01 X4.7741 Y14.9310 F120.00
G01 X4.8044 Y14.9266 F120.00
G01 X4.8326 Y14.9251 F120.00
G01 X4.9124 Y14.9250 F120.00
G01 X4.9126 Y14.8576 F120.00
G01 X4.9138 Y14.8380 F120.00
G01 X4.9163 Y14.8210 F120.00
G01 X4.9178 Y14.8138 F120.00
G01 X4.9214 Y14.7995 F120.00
G01 X4.9237 Y14.7925 F120.00
G01 X4.9296 Y14.7764 F120.00
G01 X4.9368 Y14.7608 F120.00
G01 X4.9402 Y14.7543 F120.00
G01 X4.9490 Y14.7396 F120.00
G01 X4.9620 Y14.7216 F120.00
G01 X4.9784 Y14.7034 F120.00
G01 X5.3426 Y14.3391 F120.00
G01 X5.3572 Y14.3260 F120.00
G01 X5.3750 Y14.3129 F120.00
G01 X5.3939 Y14.3015 F120.00
G01 X5.4162 Y14.2912 F120.00
G01 X5.4347 Y14.2846 F120.00
G01 X5.4561 Y14.2793 F120.00
G01 X5.4779 Y14.2760 F120.00
G01 X5.5000 Y14.2749 F120.00
G01 X8.5025 Y14.2750 F120.00
G01 X8.5221 Y14.2760 F120.00
G01 X8.5439 Y14.2793 F120.00
G01 X8.5653 Y14.2846 F120.00
G01 X8.5861 Y14.2921 F120.00
G01 X8.6061 Y14.3015 F120.00
G01 X8.6250 Y14.3128 F120.00
G01 X8.6428 Y14.3260 F120.00
G01 X8.6574 Y14.3391 F120.00
G01 X10.1609 Y15.8426 F120.00
G01 X10.1740 Y15.8572 F120.00
G01 X10.1871 Y15.8750 F120.00
G01 X10.1985 Y15.8939 F120.00
G01 X10.2059 Y15.9094 F120.00
G01 X10.2097 Y15.9185 F120.00
G01 X10.2161 Y15.9370 F120.00
G01 X10.2207 Y15.9561 F120.00
G01 X10.2237 Y15.9755 F120.00
G01 X10.2251 Y16.0000 F120.00
G01 X10.2251 Y25.9068 F120.00
G01 X18.0932 Y33.7749 F120.00
G01 X59.7900 Y33.7749 F120.00
G01 X59.7900 Y33.2000 F120.00
G01 X59.7908 Y33.1804 F120.00
G01 X59.7918 Y33.1706 F120.00
G01 X59.7948 Y33.1512 F120.00
G01 X59.7995 Y33.1322 F120.00
G01 X59.8023 Y33.1228 F120.00
G01 X59.8090 Y33.1043 F120.00
G01 X59.8175 Y33.0862 F120.00
G01 X59.8219 Y33.0779 F120.00
G01 X59.8321 Y33.0611 F120.00
G01 X59.8467 Y33.0414 F120.00
G01 X59.8632 Y33.0232 F120.00
G01 X59.8814 Y33.0067 F120.00
G01 X59.9011 Y32.9921 F120.00
G01 X59.9222 Y32.9795 F120.00
G01 X59.9443 Y32.9690 F120.00
G01 X59.9674 Y32.9608 F120.00
G01 X59.9888 Y32.9553 F120.00
G01 X60.0155 Y32.9512 F120.00
G01 X60.0375 Y32.9500 F120.00
G01 X60.3425 Y32.9500 F120.00
G01 X60.3645 Y32.9512 F120.00
G01 X60.3888 Y32.9548 F120.00
G01 X60.4128 Y32.9608 F120.00
G01 X60.4334 Y32.9681 F120.00
G01 X60.4559 Y32.9785 F120.00
G01 X60.4747 Y32.9895 F120.00
G01 X60.4809 Y32.9935 F120.00
G01 X60.4947 Y33.0037 F120.00
G01 X60.5023 Y33.0100 F120.00
G01 X60.5168 Y33.0232 F120.00
G01 X60.5333 Y33.0414 F120.00
G01 X60.5479 Y33.0611 F120.00
G01 X60.5605 Y33.0822 F120.00
G01 X60.5710 Y33.1043 F120.00
G01 X60.5792 Y33.1274 F120.00
G01 X60.5852 Y33.1512 F120.00
G01 X60.5885 Y33.1731 F120.00
G01 X60.5900 Y33.2000 F120.00
G01 X60.5900 Y34.8500 F120.00
G01 X60.5888 Y34.8745 F120.00
G01 X60.5860 Y34.8939 F120.00
G01 X60.5841 Y34.9036 F120.00
G01 X60.5792 Y34.9228 F120.00
G01 X60.5710 Y34.9457 F120.00
G01 X60.5627 Y34.9635 F120.00
G01 X60.5593 Y34.9701 F120.00
G01 X60.5479 Y34.9889 F120.00
G01 X60.5363 Y35.0047 F120.00
G01 X60.5300 Y35.0123 F120.00
G01 X60.5168 Y35.0268 F120.00
G01 X60.5023 Y35.0400 F120.00
G01 X60.4947 Y35.0463 F120.00
G01 X60.4789 Y35.0579 F120.00
G01 X60.4621 Y35.0681 F120.00
G01 X60.4535 Y35.0727 F120.00
G01 X60.4357 Y35.0810 F120.00
G01 X60.4149 Y35.0885 F120.00
G01 X60.4078 Y35.0905 F120.00
G01 X60.3864 Y35.0956 F120.00
G01 X60.3645 Y35.0988 F120.00
G01 X60.3400 Y35.1000 F120.00
G01 X60.0400 Y35.1000 F120.00
G01 X60.0155 Y35.0988 F120.00
G01 X59.9912 Y35.0952 F120.00
G01 X59.9722 Y35.0905 F120.00
G01 X59.9650 Y35.0885 F120.00
G01 X59.9443 Y35.0810 F120.00
G01 X59.9220 Y35.0704 F120.00
G01 X59.9053 Y35.0605 F120.00
G01 X59.8971 Y35.0550 F120.00
G01 X59.8795 Y35.0417 F120.00
G01 X59.8632 Y35.0268 F120.00
G01 X59.8467 Y35.0086 F120.00
G01 X59.8321 Y34.9889 F120.00
G01 X59.8195 Y34.9678 F120.00
G01 X59.8090 Y34.9457 F120.00
G01 X59.8008 Y34.9226 F120.00
G01 X59.7948 Y34.8988 F120.00
G01 X59.7912 Y34.8745 F120.00
G01 X59.7900 Y34.8500 F120.00
G01 X59.7900 Y34.2251 F120.00
G01 X18.0000 Y34.2251 F120.00
G01 X17.9779 Y34.2240 F120.00
G01 X17.9609 Y34.2216 F120.00
G01 X17.9537 Y34.2202 F120.00
G01 X17.9347 Y34.2154 F120.00
G01 X17.9139 Y34.2079 F120.00
G01 X17.8961 Y34.1996 F120.00
G01 X17.8896 Y34.1961 F120.00
G01 X17.8750 Y34.1872 F120.00
G01 X17.8611 Y34.1770 F120.00
G01 X17.8553 Y34.1724 F120.00
G01 X17.8409 Y34.1591 F120.00
G01 X9.8409 Y26.1591 F120.00
G01 X9.8260 Y26.1428 F120.00
G01 X9.8129 Y26.1250 F120.00
G01 X9.8015 Y26.1061 F120.00
G01 X9.7930 Y26.0884 F120.00
G01 X9.7846 Y26.0653 F120.00
G01 X9.7793 Y26.0439 F120.00
G01 X9.7760 Y26.0221 F120.00
G01 X9.7749 Y26.0000 F120.00
G01 X9.7749 Y16.0932 F120.00
G01 X8.4068 Y14.7251 F120.00
G01 X5.5932 Y14.7251 F120.00
G01 X5.3933 Y14.9250 F120.00
G01 X5.4400 Y14.9250 F120.00
G01 X5.4657 Y14.9263 F120.00
G01 X5.4755 Y14.9272 F120.00
G01 X5.5033 Y14.9315 F120.00
G01 X5.5355 Y14.9395 F120.00
G01 X5.5621 Y14.9489 F120.00
G01 X5.5689 Y14.9517 F120.00
G01 X5.5922 Y14.9626 F120.00
G01 X5.6009 Y14.9673 F120.00
G01 X5.6250 Y14.9819 F120.00
G01 X5.6516 Y15.0016 F120.00
G01 X5.6761 Y15.0239 F120.00
G01 X5.6952 Y15.0447 F120.00
G01 X5.6999 Y15.0503 F120.00
G01 X5.7153 Y15.0710 F120.00
G01 X5.7207 Y15.0791 F120.00
G01 X5.7351 Y15.1034 F120.00
G01 X5.7493 Y15.1333 F120.00
G01 X5.7605 Y15.1645 F120.00
G01 X5.7685 Y15.1967 F120.00
G01 X5.7734 Y15.2294 F120.00
G01 X5.7750 Y15.2600 F120.00
G01 X5.7750 Y15.7375 F120.00
G01 X5.7734 Y15.7706 F120.00
G01 X5.7685 Y15.8033 F120.00
G01 X5.7605 Y15.8355 F120.00
G01 X5.7493 Y15.8667 F120.00
G01 X5.7351 Y15.8966 F120.00
G01 X5.7207 Y15.9209 F120.00
G01 X5.7153 Y15.9290 F120.00
G01 X5.6968 Y15.9535 F120.00
G01 X5.6779 Y15.9744 F120.00
G01 X5.6726 Y15.9795 F120.00
G01 X5.6516 Y15.9984 F120.00
G01 X5.6290 Y16.0153 F120.00
G01 X5.6229 Y16.0195 F120.00
G01 X5.6009 Y16.0327 F120.00
G01 X5.5922 Y16.0374 F120.00
G01 X5.5667 Y16.0493 F120.00
G01 X5.5378 Y16.0597 F120.00
G01 X5.5033 Y16.0685 F120.00
G01 X5.4755 Y16.0728 F120.00
G01 X5.4681 Y16.0736 F120.00
G01 X5.4400 Y16.0750 F120.00
G01 X5.3126 Y16.0750 F120.00
G01 X5.3126 Y16.4250 F120.00
G01 X5.3400 Y16.4250 F120.00
G01 X5.3730 Y16.4269 F120.00
G01 X5.4033 Y16.4315 F120.00
G01 X5.4378 Y16.4403 F120.00
G01 X5.4667 Y16.4507 F120.00
G01 X5.4966 Y16.4649 F120.00
G01 X5.5250 Y16.4819 F120.00
G01 X5.5516 Y16.5016 F120.00
G01 X5.5761 Y16.5239 F120.00
G01 X5.5984 Y16.5484 F120.00
G01 X5.6181 Y16.5750 F120.00
G01 X5.6351 Y16.6034 F120.00
G01 X5.6493 Y16.6333 F120.00
G01 X5.6605 Y16.6645 F120.00
G01 X5.6685 Y16.6967 F120.00
G01 X5.6731 Y16.7270 F120.00
G01 X5.6750 Y16.7625 F120.00
G01 X5.6750 Y17.2375 F120.00
G01 X5.6734 Y17.2706 F120.00
G01 X5.6680 Y17.3057 F120.00
G01 X5.6605 Y17.3355 F120.00
G01 X5.6493 Y17.3667 F120.00
G01 X5.6351 Y17.3966 F120.00
G01 X5.6207 Y17.4209 F120.00
G01 X5.6153 Y17.4290 F120.00
G01 X5.5968 Y17.4535 F120.00
G01 X5.5779 Y17.4744 F120.00
G01 X5.5726 Y17.4795 F120.00
G01 X5.5516 Y17.4984 F120.00
G01 X5.5290 Y17.5153 F120.00
G01 X5.5229 Y17.5195 F120.00
G01 X5.5009 Y17.5327 F120.00
G01 X5.4922 Y17.5374 F120.00
G01 X5.4667 Y17.5493 F120.00
G01 X5.4401 Y17.5589 F120.00
G01 X5.4307 Y17.5618 F120.00
G01 X5.4033 Y17.5685 F120.00
G01 X5.3755 Y17.5728 F120.00
G01 X5.3681 Y17.5736 F120.00
G01 X5.3400 Y17.5750 F120.00
G01 X4.8350 Y17.5750 F120.00
G01 X4.8044 Y17.5734 F120.00
G01 X4.7765 Y17.5694 F120.00
G01 X4.7669 Y17.5674 F120.00
G01 X4.7395 Y17.5605 F120.00
G01 X4.7083 Y17.5493 F120.00
G01 X4.6828 Y17.5374 F120.00
G01 X4.6741 Y17.5327 F120.00
G01 X4.6521 Y17.5195 F120.00
G01 X4.6460 Y17.5153 F120.00
G01 X4.6234 Y17.4984 F120.00
G01 X4.5989 Y17.4761 F120.00
G01 X4.5766 Y17.4516 F120.00
G01 X4.5583 Y17.4270 F120.00
G01 X4.5399 Y17.3966 F120.00
G01 X4.5277 Y17.3711 F120.00
G01 X4.5239 Y17.3621 F120.00
G01 X4.5138 Y17.3331 F120.00
G01 X4.5065 Y17.3033 F120.00
G01 X4.5019 Y17.2730 F120.00
G01 X4.5001 Y17.2424 F120.00
G01 X4.5000 Y17.2251 F120.00
G01 X2.9364 Y17.2251 F120.00
G01 X2.9312 Y17.2577 F120.00
G01 X2.9104 Y17.3410 F120.00
G01 X2.9084 Y17.3481 F120.00
G01 X2.8777 Y17.4335 F120.00
G01 X2.8400 Y17.5134 F120.00
G01 X2.8366 Y17.5200 F120.00
G01 X2.7899 Y17.5978 F120.00
G01 X2.7344 Y17.6727 F120.00
G01 X2.6718 Y17.7418 F120.00
G01 X2.6046 Y17.8028 F120.00
G01 X2.5988 Y17.8074 F120.00
G01 X2.5278 Y17.8599 F120.00
G01 X2.4478 Y17.9078 F120.00
G01 X2.3635 Y17.9477 F120.00
G01 X2.2804 Y17.9776 F120.00
G01 X2.2710 Y17.9804 F120.00
G01 X2.1901 Y18.0007 F120.00
G01 X2.1805 Y18.0026 F120.00
G01 X2.0931 Y18.0154 F120.00
G01 X2.0049 Y18.0199 F120.00
G01 X1.9951 Y18.0199 F120.00
G01 X1.9069 Y18.0154 F120.00
G01 X1.8147 Y18.0017 F120.00
G01 X1.7242 Y17.9791 F120.00
G01 X1.6410 Y17.9495 F120.00
G01 X1.6320 Y17.9457 F120.00
G01 X1.5566 Y17.9100 F120.00
G01 X1.5479 Y17.9054 F120.00
G01 X1.4722 Y17.8599 F120.00
G01 X1.4012 Y17.8074 F120.00
G01 X1.3936 Y17.8012 F120.00
G01 X1.3318 Y17.7451 F120.00
G01 X1.3249 Y17.7382 F120.00
G01 X1.2656 Y17.6727 F120.00
G01 X1.2101 Y17.5978 F120.00
G01 X1.1646 Y17.5221 F120.00
G01 X1.1600 Y17.5134 F120.00
G01 X1.1223 Y17.4335 F120.00
G01 X1.0925 Y17.3504 F120.00
G00 Z2.0000
G00 X0.9983 Y17.3841
G01 F60.00
G01 Z-0.0500
G01 F120.00
G01 X0.9926 Y17.3653 F120.00
G01 X0.9702 Y17.2748 F120.00
G01 X0.9551 Y17.1729 F120.00
G01 X0.9500 Y17.0700 F120.00
G01 X0.9551 Y16.9671 F120.00
G01 X0.9702 Y16.8652 F120.00
G01 X0.9952 Y16.7652 F120.00
G01 X1.0299 Y16.6682 F120.00
G01 X1.0696 Y16.5838 F120.00
G01 X1.0788 Y16.5665 F120.00
G01 X1.1270 Y16.4867 F120.00
G01 X1.1823 Y16.4116 F120.00
G01 X1.1948 Y16.3965 F120.00
G01 X1.2508 Y16.3346 F120.00
G01 X1.2646 Y16.3208 F120.00
G01 X1.3339 Y16.2583 F120.00
G01 X1.4086 Y16.2026 F120.00
G01 X1.4249 Y16.1917 F120.00
G01 X1.5050 Y16.1440 F120.00
G01 X1.5982 Y16.0999 F120.00
G01 X1.6859 Y16.0683 F120.00
G01 X1.6956 Y16.0651 F120.00
G01 X1.7952 Y16.0402 F120.00
G01 X1.8971 Y16.0251 F120.00
G01 X2.0000 Y16.0200 F120.00
G01 X2.1029 Y16.0251 F120.00
G01 X2.1952 Y16.0385 F120.00
G01 X2.2144 Y16.0423 F120.00
G01 X2.2953 Y16.0626 F120.00
G01 X2.3141 Y16.0683 F120.00
G01 X2.4018 Y16.0999 F120.00
G01 X2.4950 Y16.1440 F120.00
G01 X2.5833 Y16.1970 F120.00
G01 X2.6661 Y16.2583 F120.00
G01 X2.7425 Y16.3275 F120.00
G01 X2.8052 Y16.3965 F120.00
G01 X2.8177 Y16.4116 F120.00
G01 X2.8674 Y16.4786 F120.00
G01 X2.8783 Y16.4949 F120.00
G01 X2.9260 Y16.5750 F120.00
G01 X2.9661 Y16.6592 F120.00
G01 X2.9727 Y16.6749 F120.00
G01 X4.4089 Y16.6749 F120.00
G01 X4.4188 Y16.6355 F120.00
G01 X4.4298 Y16.6042 F120.00
G01 X4.4352 Y16.5906 F120.00
G01 X4.4517 Y16.5563 F120.00
G01 X4.4737 Y16.5194 F120.00
G01 X4.4933 Y16.4927 F120.00
G01 X4.5057 Y16.4775 F120.00
G01 X4.5247 Y16.4567 F120.00
G01 X4.5317 Y16.4497 F120.00
G01 X4.5600 Y16.4243 F120.00
G01 X4.5864 Y16.4044 F120.00
G01 X4.6027 Y16.3935 F120.00
G01 X4.6270 Y16.3790 F120.00
G01 X4.6356 Y16.3744 F120.00
G01 X4.6701 Y16.3583 F120.00
G01 X4.7058 Y16.3453 F120.00
G01 X4.7152 Y16.3425 F120.00
G01 X4.7426 Y16.3356 F120.00
G01 X4.7521 Y16.3334 F120.00
G01 X4.7624 Y16.3316 F120.00
G01 X4.7624 Y16.1684 F120.00
G01 X4.7473 Y16.1656 F120.00
G01 X4.7105 Y16.1562 F120.00
G01 X4.6746 Y16.1435 F120.00
G01 X4.6611 Y16.1377 F120.00
G01 X4.6313 Y16.1233 F120.00
G01 X4.5986 Y16.1039 F120.00
G01 X4.5904 Y16.0985 F120.00
G01 X4.5677 Y16.0817 F120.00
G01 X4.5525 Y16.0693 F120.00
G01 X4.5281 Y16.0469 F120.00
G01 X4.5025 Y16.0188 F120.00
G01 X4.4962 Y16.0112 F120.00
G01 X4.4794 Y15.9886 F120.00
G01 X4.4711 Y15.9764 F120.00
G01 X4.4517 Y15.9437 F120.00
G01 X4.4373 Y15.9139 F120.00
G01 X4.4298 Y15.8958 F120.00
G01 X4.4203 Y15.8692 F120.00
G01 X4.4175 Y15.8598 F120.00
G01 X4.4084 Y15.8229 F120.00
G01 X4.4033 Y15.7901 F120.00
G01 X4.4017 Y15.7755 F120.00
G01 X4.4001 Y15.7424 F120.00
G01 X4.4001 Y15.2576 F120.00
G01 X4.4021 Y15.2196 F120.00
G01 X4.4084 Y15.1771 F120.00
G01 X4.4188 Y15.1355 F120.00
G01 X4.4315 Y15.0996 F120.00
G01 X4.4352 Y15.0906 F120.00
G01 X4.4472 Y15.0650 F120.00
G01 X4.4565 Y15.0477 F120.00
G01 X4.4737 Y15.0194 F120.00
G01 X4.4993 Y14.9850 F120.00
G01 X4.5247 Y14.9567 F120.00
G01 X4.5353 Y14.9464 F120.00
G01 X4.5600 Y14.9243 F120.00
G01 X4.5904 Y14.9015 F120.00
G01 X4.5986 Y14.8961 F120.00
G01 X4.6227 Y14.8815 F120.00
G01 X4.6400 Y14.8722 F120.00
G01 X4.6701 Y14.8583 F120.00
G01 X4.7058 Y14.8453 F120.00
G01 X4.7200 Y14.8412 F120.00
G01 X4.7473 Y14.8344 F120.00
G01 X4.7570 Y14.8325 F120.00
G01 X4.7897 Y14.8276 F120.00
G01 X4.7995 Y14.8267 F120.00
G01 X4.8145 Y14.8259 F120.00
G01 X4.8187 Y14.7991 F120.00
G01 X4.8251 Y14.7729 F120.00
G01 X4.8295 Y14.7588 F120.00
G01 X4.8354 Y14.7427 F120.00
G01 X4.8391 Y14.7336 F120.00
G01 X4.8508 Y14.7093 F120.00
G01 X4.8645 Y14.6861 F120.00
G01 X4.8700 Y14.6779 F120.00
G01 X4.8802 Y14.6640 F120.00
G01 X4.8926 Y14.6488 F120.00
G01 X4.9076 Y14.6326 F120.00
G01 X5.2737 Y14.2667 F120.00
G01 X5.2938 Y14.2487 F120.00
G01 X5.3194 Y14.2297 F120.00
G01 X5.3468 Y14.2133 F120.00
G01 X5.3756 Y14.1997 F120.00
G01 X5.4056 Y14.1889 F120.00
G01 X5.4366 Y14.1812 F120.00
G01 X5.4681 Y14.1765 F120.00
G01 X5.5000 Y14.1749 F120.00
G01 X8.5049 Y14.1750 F120.00
G01 X8.5319 Y14.1765 F120.00
G01 X8.5634 Y14.1812 F120.00
G01 X8.5944 Y14.1889 F120.00
G01 X8.6244 Y14.1997 F120.00
G01 X8.6532 Y14.2133 F120.00
G01 X8.6805 Y14.2297 F120.00
G01 X8.7062 Y14.2487 F120.00
G01 X8.7263 Y14.2667 F120.00
G01 X10.2333 Y15.7737 F120.00
G01 X10.2513 Y15.7938 F120.00
G01 X10.2675 Y15.8154 F120.00
G01 X10.2730 Y15.8235 F120.00
G01 X10.2818 Y15.8382 F120.00
G01 X10.2911 Y15.8555 F120.00
G01 X10.2984 Y15.8711 F120.00
G01 X10.3021 Y15.8802 F120.00
G01 X10.3111 Y15.9056 F120.00
G01 X10.3178 Y15.9318 F120.00
G01 X10.3197 Y15.9414 F120.00
G01 X10.3223 Y15.9584 F120.00
G01 X10.3239 Y15.9730 F120.00
G01 X10.3251 Y16.0000 F120.00
G01 X10.3251 Y25.8654 F120.00
G01 X18.1346 Y33.6749 F120.00
G01 X59.6900 Y33.6749 F120.00
G01 X59.6900 Y33.2000 F120.00
G01 X59.6917 Y33.1657 F120.00
G01 X59.6958 Y33.1365 F120.00
G01 X59.6977 Y33.1269 F120.00
G01 X59.7025 Y33.1079 F120.00
G01 X59.7066 Y33.0937 F120.00
G01 X59.7166 Y33.0661 F120.00
G01 X59.7293 Y33.0389 F120.00
G01 X59.7362 Y33.0265 F120.00
G01 X59.7490 Y33.0056 F120.00
G01 X59.7664 Y32.9818 F120.00
G01 X59.7726 Y32.9742 F120.00
G01 X59.7891 Y32.9560 F120.00
G01 X59.7960 Y32.9491 F120.00
G01 X59.8105 Y32.9359 F120.00
G01 X59.8257 Y32.9234 F120.00
G01 X59.8415 Y32.9118 F120.00
G01 X59.8497 Y32.9063 F120.00
G01 X59.8750 Y32.8913 F120.00
G01 X59.9061 Y32.8766 F120.00
G01 X59.9384 Y32.8651 F120.00
G01 X59.9669 Y32.8577 F120.00
G01 X59.9765 Y32.8558 F120.00
G01 X60.0008 Y32.8522 F120.00
G01 X60.0106 Y32.8513 F120.00
G01 X60.0351 Y32.8501 F120.00
G01 X60.3449 Y32.8501 F120.00
G01 X60.3743 Y32.8517 F120.00
G01 X60.4083 Y32.8567 F120.00
G01 X60.4321 Y32.8625 F120.00
G01 X60.4421 Y32.8652 F120.00
G01 X60.4739 Y32.8766 F120.00
G01 X60.4962 Y32.8869 F120.00
G01 X60.5053 Y32.8915 F120.00
G01 X60.5344 Y32.9090 F120.00
G01 X60.5620 Y32.9294 F120.00
G01 X60.5840 Y32.9491 F120.00
G01 X60.5909 Y32.9560 F120.00
G01 X60.6074 Y32.9742 F120.00
G01 X60.6136 Y32.9818 F120.00
G01 X60.6282 Y33.0015 F120.00
G01 X60.6337 Y33.0097 F120.00
G01 X60.6463 Y33.0307 F120.00
G01 X60.6509 Y33.0394 F120.00
G01 X60.6594 Y33.0571 F120.00
G01 X60.6669 Y33.0752 F120.00
G01 X60.6734 Y33.0937 F120.00
G01 X60.6775 Y33.1079 F120.00
G01 X60.6823 Y33.1269 F120.00
G01 X60.6842 Y33.1365 F120.00
G01 X60.6878 Y33.1608 F120.00
G01 X60.6890 Y33.1755 F120.00
G01 X60.6900 Y33.2000 F120.00
G01 X60.6900 Y34.8500 F120.00
G01 X60.6883 Y34.8843 F120.00
G01 X60.6842 Y34.9135 F120.00
G01 X60.6811 Y34.9279 F120.00
G01 X60.6748 Y34.9521 F120.00
G01 X60.6652 Y34.9794 F120.00
G01 X60.6614 Y34.9885 F120.00
G01 X60.6531 Y35.0062 F120.00
G01 X60.6462 Y35.0194 F120.00
G01 X60.6310 Y35.0444 F120.00
G01 X60.6166 Y35.0643 F120.00
G01 X60.6074 Y35.0758 F120.00
G01 X60.5875 Y35.0975 F120.00
G01 X60.5658 Y35.1174 F120.00
G01 X60.5543 Y35.1266 F120.00
G01 X60.5344 Y35.1410 F120.00
G01 X60.5093 Y35.1563 F120.00
G01 X60.4962 Y35.1631 F120.00
G01 X60.4785 Y35.1714 F120.00
G01 X60.4700 Y35.1749 F120.00
G01 X61.1800 Y35.1749 F120.00
G01 X61.1715 Y35.1714 F120.00
G01 X61.1531 Y35.1628 F120.00
G01 X61.1365 Y35.1538 F120.00
G01 X61.1197 Y35.1437 F120.00
G01 X61.1115 Y35.1382 F120.00
G01 X61.0880 Y35.1206 F120.00
G01 X61.0660 Y35.1009 F120.00
G01 X61.0591 Y35.0940 F120.00
G01 X61.0459 Y35.0795 F120.00
G01 X61.0364 Y35.0682 F120.00
G01 X61.0190 Y35.0444 F120.00
G01 X61.0037 Y35.0193 F120.00
G01 X60.9969 Y35.0062 F120.00
G01 X60.9886 Y34.9885 F120.00
G01 X60.9848 Y34.9794 F120.00
G01 X60.9751 Y34.9516 F120.00
G01 X60.9677 Y34.9231 F120.00
G01 X60.9658 Y34.9135 F120.00
G01 X60.9629 Y34.8940 F120.00
G01 X60.9613 Y34.8794 F120.00
G01 X60.9600 Y34.8500 F120.00
G01 X60.9600 Y33.2000 F120.00
G01 X60.9613 Y33.1706 F120.00
G01 X60.9629 Y33.1560 F120.00
G01 X60.9667 Y33.1317 F120.00
G01 X60.9725 Y33.1079 F120.00
G01 X60.9766 Y33.0937 F120.00
G01 X60.9848 Y33.0706 F120.00
G01 X60.9906 Y33.0571 F120.00
G01 X61.0015 Y33.0347 F120.00
G01 X61.0163 Y33.0097 F120.00
G01 X61.0246 Y32.9975 F120.00
G01 X61.0394 Y32.9780 F120.00
G01 X61.0557 Y32.9596 F120.00
G01 X61.0660 Y32.9491 F120.00
G01 X61.0842 Y32.9326 F120.00
G01 X61.0957 Y32.9234 F120.00
G01 X61.1156 Y32.9090 F120.00
G01 X61.1349 Y32.8971 F120.00
G01 X61.1349 Y32.5400 F120.00
G01 X61.1361 Y32.5130 F120.00
G01 X61.1370 Y32.5033 F120.00
G01 X61.1403 Y32.4814 F120.00
G01 X61.1422 Y32.4718 F120.00
G01 X61.1476 Y32.4504 F120.00
G01 X61.1504 Y32.4410 F120.00
G01 X61.1579 Y32.4202 F120.00
G01 X61.1616 Y32.4111 F120.00
G01 X61.1711 Y32.3911 F120.00
G01 X61.1757 Y32.3825 F120.00
G01 X61.1845 Y32.3677 F120.00
G01 X61.1954 Y32.3514 F120.00
G01 X61.2057 Y32.3376 F120.00
G01 X61.2119 Y32.3300 F120.00
G01 X61.2301 Y32.3101 F120.00
G01 X63.7701 Y29.7701 F120.00
G01 X63.7938 Y29.7487 F120.00
G01 X63.8194 Y29.7297 F120.00
G01 X63.8468 Y29.7133 F120.00
G01 X63.8711 Y29.7016 F120.00
G01 X63.8848 Y29.6961 F120.00
G01 X63.9056 Y29.6889 F120.00
G01 X63.9366 Y29.6812 F120.00
G01 X63.9681 Y29.6765 F120.00
G01 X64.0000 Y29.6749 F120.00
G01 X71.3425 Y29.6749 F120.00
G01 X71.3485 Y29.6348 F120.00
G01 X71.3512 Y29.6204 F120.00
G01 X71.3726 Y29.5347 F120.00
G01 X71.3767 Y29.5205 F120.00
G01 X71.4099 Y29.4282 F120.00
G01 X71.4496 Y29.3438 F120.00
G01 X71.4563 Y29.3307 F120.00
G01 X71.5070 Y29.2467 F120.00
G01 X71.5683 Y29.1639 F120.00
G01 X71.6375 Y29.0875 F120.00
G01 X71.7065 Y29.0248 F120.00
G01 X71.7177 Y29.0153 F120.00
G01 X71.7967 Y28.9570 F120.00
G01 X71.8850 Y28.9040 F120.00
G01 X71.9782 Y28.8599 F120.00
G01 X72.0659 Y28.8283 F120.00
G01 X72.0756 Y28.8251 F120.00
G01 X72.1752 Y28.8002 F120.00
G01 X72.2771 Y28.7851 F120.00
G01 X72.3800 Y28.7800 F120.00
G01 X72.4731 Y28.7843 F120.00
G01 X72.4878 Y28.7856 F120.00
G01 X72.5848 Y28.8002 F120.00
G01 X72.6753 Y28.8226 F120.00
G01 X72.6941 Y28.8283 F120.00
G01 X72.7818 Y28.8599 F120.00
G01 X72.8662 Y28.8996 F120.00
G01 X72.8835 Y28.9088 F120.00
G01 X72.9633 Y28.9570 F120.00
G01 X73.0384 Y29.0123 F120.00
G01 X73.0535 Y29.0248 F120.00
G01 X73.1225 Y29.0875 F120.00
G01 X73.1852 Y29.1565 F120.00
G01 X73.1977 Y29.1716 F120.00
G01 X73.2530 Y29.2467 F120.00
G01 X73.3012 Y29.3265 F120.00
G01 X73.3104 Y29.3438 F120.00
G01 X73.3461 Y29.4192 F120.00
G01 X73.3519 Y29.4327 F120.00
G01 X73.3849 Y29.5256 F120.00
G01 X73.4098 Y29.6252 F120.00
G01 X73.4249 Y29.7271 F120.00
G01 X73.4300 Y29.8300 F120.00
G01 X73.4249 Y29.9329 F120.00
G01 X73.4098 Y30.0348 F120.00
G01 X73.3848 Y30.1348 F120.00
G01 X73.3519 Y30.2273 F120.00
G01 X73.3461 Y30.2408 F120.00
G01 X73.3060 Y30.3250 F120.00
G01 X73.2530 Y30.4133 F120.00
G01 X73.1917 Y30.4961 F120.00
G01 X73.1259 Y30.5689 F120.00
G01 X73.1154 Y30.5792 F120.00
G01 X73.0461 Y30.6417 F120.00
G01 X72.9674 Y30.7003 F120.00
G01 X72.9551 Y30.7083 F120.00
G01 X72.8793 Y30.7537 F120.00
G01 X72.8662 Y30.7604 F120.00
G01 X72.8355 Y30.7749 F120.00
G01 X73.2654 Y30.7749 F120.00
G01 X75.1749 Y28.8654 F120.00
G01 X75.1749 Y22.9246 F120.00
G01 X72.8557 Y20.6054 F120.00
G01 X72.7818 Y20.6401 F120.00
G01 X72.6941 Y20.6717 F120.00
G01 X72.6844 Y20.6749 F120.00
G01 X72.5848 Y20.6998 F120.00
G01 X72.4829 Y20.7149 F120.00
G01 X72.3800 Y20.7200 F120.00
G01 X72.2771 Y20.7149 F120.00
G01 X72.1752 Y20.6998 F120.00
G01 X72.0847 Y20.6774 F120.00
G01 X72.0659 Y20.6717 F120.00
G01 X71.9873 Y20.6436 F120.00
G01 X71.9692 Y20.6361 F120.00
G01 X71.8850 Y20.5960 F120.00
G01 X71.8049 Y20.5483 F120.00
G01 X71.7886 Y20.5374 F120.00
G01 X71.7139 Y20.4817 F120.00
G01 X71.6375 Y20.4125 F120.00
G01 X71.5683 Y20.3361 F120.00
G01 X71.5070 Y20.2533 F120.00
G01 X71.4588 Y20.1735 F120.00
G01 X71.4496 Y20.1562 F120.00
G01 X71.4099 Y20.0718 F120.00
G01 X71.3780 Y19.9834 F120.00
G01 X71.3726 Y19.9653 F120.00
G01 X71.3502 Y19.8748 F120.00
G01 X71.3363 Y19.7827 F120.00
G01 X71.3343 Y19.7631 F120.00
G01 X71.3300 Y19.6700 F120.00
G01 X71.3343 Y19.5769 F120.00
G01 X71.3363 Y19.5573 F120.00
G01 X71.3502 Y19.4652 F120.00
G01 X71.3726 Y19.3747 F120.00
G01 X71.3783 Y19.3559 F120.00
G01 X71.4099 Y19.2682 F120.00
G01 X71.4496 Y19.1838 F120.00
G01 X71.4588 Y19.1665 F120.00
G01 X71.5070 Y19.0867 F120.00
G01 X71.5623 Y19.0116 F120.00
G01 X71.5748 Y18.9965 F120.00
G01 X71.6375 Y18.9275 F120.00
G01 X71.7065 Y18.8648 F120.00
G01 X71.7216 Y18.8523 F120.00
G01 X71.7967 Y18.7970 F120.00
G01 X71.8765 Y18.7488 F120.00
G01 X71.8938 Y18.7396 F120.00
G01 X71.9782 Y18.6999 F120.00
G01 X72.0666 Y18.6680 F120.00
G01 X72.0847 Y18.6626 F120.00
G01 X72.1752 Y18.6402 F120.00
G01 X72.2673 Y18.6263 F120.00
G01 X72.2820 Y18.6246 F120.00
G01 X72.3702 Y18.6202 F120.00
G01 X72.3898 Y18.6202 F120.00
G01 X72.4829 Y18.6251 F120.00
G01 X72.5752 Y18.6385 F120.00
G01 X72.5944 Y18.6423 F120.00
G01 X72.6848 Y18.6652 F120.00
G01 X72.7818 Y18.6999 F120.00
G01 X72.8750 Y18.7440 F120.00
G01 X72.9551 Y18.7917 F120.00
G01 X72.9714 Y18.8026 F120.00
G01 X73.0461 Y18.8583 F120.00
G01 X73.1154 Y18.9208 F120.00
G01 X73.1292 Y18.9346 F120.00
G01 X73.1885 Y19.0001 F120.00
G01 X73.1977 Y19.0116 F120.00
G01 X73.2474 Y19.0786 F120.00
G01 X73.2583 Y19.0949 F120.00
G01 X73.3060 Y19.1750 F120.00
G01 X73.3501 Y19.2682 F120.00
G01 X73.3820 Y19.3566 F120.00
G01 X73.3874 Y19.3747 F120.00
G01 X73.4098 Y19.4652 F120.00
G01 X73.4249 Y19.5671 F120.00
G01 X73.4300 Y19.6700 F120.00
G01 X73.4257 Y19.7631 F120.00
G01 X73.4237 Y19.7827 F120.00
G01 X73.4098 Y19.8748 F120.00
G01 X73.3874 Y19.9653 F120.00
G01 X73.3817 Y19.9841 F120.00
G01 X73.3501 Y20.0718 F120.00
G01 X73.3154 Y20.1457 F120.00
G01 X75.7299 Y22.5601 F120.00
G01 X75.7449 Y22.5763 F120.00
G01 X75.7543 Y22.5876 F120.00
G01 X75.7675 Y22.6054 F120.00
G01 X75.7755 Y22.6177 F120.00
G01 X75.7867 Y22.6368 F120.00
G01 X75.7963 Y22.6566 F120.00
G01 X75.8021 Y22.6702 F120.00
G01 X75.8096 Y22.6910 F120.00
G01 X75.8124 Y22.7004 F120.00
G01 X75.8167 Y22.7170 F120.00
G01 X75.8205 Y22.7363 F120.00
G01 X75.8230 Y22.7533 F120.00
G01 X75.8239 Y22.7630 F120.00
G01 X75.8251 Y22.7900 F120.00
G01 X75.8251 Y29.0000 F120.00
G01 X75.8239 Y29.0270 F120.00
G01 X75.8230 Y29.0367 F120.00
G01 X75.8205 Y29.0537 F120.00
G01 X75.8167 Y29.0730 F120.00
G01 X75.8124 Y29.0896 F120.00
G01 X75.8096 Y29.0990 F120.00
G01 X75.8003 Y29.1244 F120.00
G01 X75.7889 Y29.1489 F120.00
G01 X75.7818 Y29.1618 F120.00
G01 X75.7730 Y29.1764 F120.00
G01 X75.7675 Y29.1846 F120.00
G01 X75.7513 Y29.2062 F120.00
G01 X75.7333 Y29.2263 F120.00
G01 X73.6299 Y31.3299 F120.00
G01 X73.6137 Y31.3449 F120.00
G01 X73.6024 Y31.3543 F120.00
G01 X73.5806 Y31.3703 F120.00
G01 X73.5618 Y31.3818 F120.00
G01 X73.5489 Y31.3889 F120.00
G01 X73.5244 Y31.4003 F120.00
G01 X73.4990 Y31.4096 F120.00
G01 X73.4849 Y31.4137 F120.00
G01 X73.4682 Y31.4178 F120.00
G01 X73.4586 Y31.4197 F120.00
G01 X73.4319 Y31.4235 F120.00
G01 X73.4000 Y31.4251 F120.00
G01 X72.8355 Y31.4251 F120.00
G01 X72.8662 Y31.4396 F120.00
G01 X72.8793 Y31.4463 F120.00
G01 X72.9592 Y31.4943 F120.00
G01 X72.9714 Y31.5026 F120.00
G01 X73.0384 Y31.5523 F120.00
G01 X73.0499 Y31.5615 F120.00
G01 X73.1225 Y31.6275 F120.00
G01 X73.1852 Y31.6965 F120.00
G01 X73.1977 Y31.7116 F120.00
G01 X73.2503 Y31.7826 F120.00
G01 X73.2583 Y31.7949 F120.00
G01 X73.3060 Y31.8750 F120.00
G01 X73.3461 Y31.9592 F120.00
G01 X73.3536 Y31.9773 F120.00
G01 X73.3849 Y32.0656 F120.00
G01 X73.4077 Y32.1556 F120.00
G01 X73.4115 Y32.1748 F120.00
G01 X73.4237 Y32.2573 F120.00
G01 X73.4254 Y32.2720 F120.00
G01 X73.4300 Y32.3700 F120.00
G01 X73.4257 Y32.4631 F120.00
G01 X73.4237 Y32.4827 F120.00
G01 X73.4098 Y32.5748 F120.00
G01 X73.3874 Y32.6653 F120.00
G01 X73.3817 Y32.6841 F120.00
G01 X73.3501 Y32.7718 F120.00
G01 X73.3104 Y32.8562 F120.00
G01 X73.3012 Y32.8735 F120.00
G01 X73.2530 Y32.9533 F120.00
G01 X73.1977 Y33.0284 F120.00
G01 X73.1852 Y33.0435 F120.00
G01 X73.1225 Y33.1125 F120.00
G01 X73.0535 Y33.1752 F120.00
G01 X73.0384 Y33.1877 F120.00
G01 X72.9633 Y33.2430 F120.00
G01 X72.8750 Y33.2960 F120.00
G01 X72.7908 Y33.3361 F120.00
G01 X72.7727 Y33.3436 F120.00
G01 X72.6934 Y33.3720 F120.00
G01 X72.6753 Y33.3774 F120.00
G01 X72.5848 Y33.3998 F120.00
G01 X72.4927 Y33.4137 F120.00
G01 X72.4731 Y33.4157 F120.00
G01 X72.3800 Y33.4200 F120.00
G01 X72.2771 Y33.4149 F120.00
G01 X72.1752 Y33.3998 F120.00
G01 X72.0847 Y33.3774 F120.00
G01 X72.0659 Y33.3717 F120.00
G01 X71.9873 Y33.3436 F120.00
G01 X71.9692 Y33.3361 F120.00
G01 X71.8850 Y33.2960 F120.00
G01 X71.8049 Y33.2483 F120.00
G01 X71.7886 Y33.2374 F120.00
G01 X71.7139 Y33.1817 F120.00
G01 X71.6375 Y33.1125 F120.00
G01 X71.5683 Y33.0361 F120.00
G01 X71.5126 Y32.9614 F120.00
G01 X71.5017 Y32.9451 F120.00
G01 X71.4588 Y32.8735 F120.00
G01 X71.4496 Y32.8562 F120.00
G01 X71.4099 Y32.7718 F120.00
G01 X71.3822 Y32.6951 F120.00
G01 X67.2646 Y32.6951 F120.00
G01 X66.9697 Y32.9900 F120.00
G01 X66.9782 Y33.0015 F120.00
G01 X66.9837 Y33.0097 F120.00
G01 X66.9963 Y33.0307 F120.00
G01 X67.0009 Y33.0394 F120.00
G01 X67.0134 Y33.0661 F120.00
G01 X67.0234 Y33.0937 F120.00
G01 X67.0275 Y33.1079 F120.00
G01 X67.0323 Y33.1269 F120.00
G01 X67.0342 Y33.1365 F120.00
G01 X67.0383 Y33.1657 F120.00
G01 X67.0399 Y33.1951 F120.00
G01 X67.0400 Y34.8500 F120.00
G01 X67.0383 Y34.8843 F120.00
G01 X67.0350 Y34.9086 F120.00
G01 X67.0323 Y34.9231 F120.00
G01 X67.0248 Y34.9521 F120.00
G01 X67.0152 Y34.9794 F120.00
G01 X67.0114 Y34.9885 F120.00
G01 X67.0028 Y35.0069 F120.00
G01 X66.9938 Y35.0235 F120.00
G01 X66.9837 Y35.0403 F120.00
G01 X66.9782 Y35.0485 F120.00
G01 X66.9606 Y35.0720 F120.00
G01 X66.9409 Y35.0940 F120.00
G01 X66.9340 Y35.1009 F120.00
G01 X66.9195 Y35.1141 F120.00
G01 X66.9043 Y35.1266 F120.00
G01 X66.8885 Y35.1382 F120.00
G01 X66.8803 Y35.1437 F120.00
G01 X66.8550 Y35.1587 F120.00
G01 X66.8285 Y35.1714 F120.00
G01 X66.8194 Y35.1752 F120.00
G01 X66.8009 Y35.1818 F120.00
G01 X66.7821 Y35.1875 F120.00
G01 X66.7631 Y35.1923 F120.00
G01 X66.7535 Y35.1942 F120.00
G01 X66.7243 Y35.1983 F120.00
G01 X66.6900 Y35.2000 F120.00
G01 X66.3802 Y35.1998 F120.00
G01 X66.3606 Y35.1987 F120.00
G01 X66.3508 Y35.1978 F120.00
G01 X66.3217 Y35.1933 F120.00
G01 X66.2924 Y35.1861 F120.00
G01 X66.2835 Y35.1834 F120.00
G01 X66.2652 Y35.1769 F120.00
G01 X66.2515 Y35.1714 F120.00
G01 X66.2289 Y35.1607 F120.00
G01 X66.2165 Y35.1538 F120.00
G01 X66.1956 Y35.1410 F120.00
G01 X66.1680 Y35.1206 F120.00
G01 X66.1496 Y35.1043 F120.00
G01 X66.1391 Y35.0940 F120.00
G01 X66.1226 Y35.0758 F120.00
G01 X66.1134 Y35.0643 F120.00
G01 X66.0990 Y35.0444 F120.00
G01 X66.0862 Y35.0235 F120.00
G01 X66.0791 Y35.0106 F120.00
G01 X66.0686 Y34.9885 F120.00
G01 X66.0648 Y34.9794 F120.00
G01 X66.0566 Y34.9563 F120.00
G01 X66.0537 Y34.9469 F120.00
G01 X66.0489 Y34.9279 F120.00
G01 X66.0450 Y34.9086 F120.00
G01 X66.0422 Y34.8892 F120.00
G01 X66.0413 Y34.8794 F120.00
G01 X66.0400 Y34.8500 F120.00
G01 X66.0400 Y33.2000 F120.00
G01 X66.0413 Y33.1706 F120.00
G01 X66.0429 Y33.1560 F120.00
G01 X66.0467 Y33.1317 F120.00
G01 X66.0551 Y33.0984 F120.00
G01 X66.0631 Y33.0752 F120.00
G01 X66.0686 Y33.0615 F120.00
G01 X66.0793 Y33.0389 F120.00
G01 X66.0862 Y33.0265 F120.00
G01 X66.0990 Y33.0056 F120.00
G01 X66.1164 Y32.9818 F120.00
G01 X66.1259 Y32.9705 F120.00
G01 X66.1425 Y32.9525 F120.00
G01 X66.1642 Y32.9326 F120.00
G01 X66.1757 Y32.9234 F120.00
G01 X66.1956 Y32.9090 F120.00
G01 X66.2219 Y32.8930 F120.00
G01 X66.2276 Y32.8704 F120.00
G01 X66.2320 Y32.8563 F120.00
G01 X66.2397 Y32.8356 F120.00
G01 X66.2511 Y32.8111 F120.00
G01 X66.2582 Y32.7982 F120.00
G01 X66.2697 Y32.7795 F120.00
G01 X66.2827 Y32.7615 F120.00
G01 X66.2919 Y32.7500 F120.00
G01 X66.3101 Y32.7301 F120.00
G01 X66.9001 Y32.1401 F120.00
G01 X66.9200 Y32.1219 F120.00
G01 X66.9276 Y32.1157 F120.00
G01 X66.9414 Y32.1054 F120.00
G01 X66.9577 Y32.0945 F120.00
G01 X66.9725 Y32.0857 F120.00
G01 X66.9811 Y32.0811 F120.00
G01 X67.0056 Y32.0697 F120.00
G01 X67.0310 Y32.0604 F120.00
G01 X67.0451 Y32.0563 F120.00
G01 X67.0618 Y32.0522 F120.00
G01 X67.0714 Y32.0503 F120.00
G01 X67.0981 Y32.0465 F120.00
G01 X67.1251 Y32.0450 F120.00
G01 X71.3822 Y32.0449 F120.00
G01 X71.4099 Y31.9682 F120.00
G01 X71.4540 Y31.8750 F120.00
G01 X71.5070 Y31.7867 F120.00
G01 X71.5623 Y31.7116 F120.00
G01 X71.5715 Y31.7001 F120.00
G01 X71.6375 Y31.6275 F120.00
G01 X71.7065 Y31.5648 F120.00
G01 X71.7177 Y31.5553 F120.00
G01 X71.7886 Y31.5026 F120.00
G01 X71.8008 Y31.4943 F120.00
G01 X71.8807 Y31.4463 F120.00
G01 X71.8938 Y31.4396 F120.00
G01 X71.9245 Y31.4251 F120.00
G01 X65.5346 Y31.4251 F120.00
G01 X64.3251 Y32.6346 F120.00
G01 X64.3251 Y32.8971 F120.00
G01 X64.3444 Y32.9090 F120.00
G01 X64.3643 Y32.9234 F120.00
G01 X64.3758 Y32.9326 F120.00
G01 X64.3940 Y32.9491 F120.00
