(G-CODE GENERATED BY FLATCAM v8.994 - www.flatcam.org - Version Date: 2020/11/7)

(Name: PatientMonitor-Edge_Cuts.gbr_cutout_cnc)
(Type: G-code from Geometry)
(Units: MM)

(Created on Tuesday, 04 June 2024 at 00:28)

(This preprocessor is used with a motion controller loaded with GRBL firmware.)
(It is configured to be compatible with almost any version of GRBL firmware.)

(TOOL DIAMETER: 1.0 mm)
(Feedrate_XY: 120.0 mm/min)
(Feedrate_Z: 60.0 mm/min)
(Feedrate rapids 1500.0 mm/min)

(Z_Cut: -2.0 mm)
(DepthPerCut: 0.5 mm <=>4 passes)
(Z_Move: 2.0 mm)
(Z Start: None mm)
(Z End: 15.0 mm)
(X,Y End: None mm)
(Steps per circle: 64)
(Steps per circle: 64)
(Preprocessor Geometry: GRBL_11_no_M6)

(X range:   -0.5500 ...   98.5500  mm)
(Y range:   -0.5500 ...   57.5500  mm)

(Spindle Speed: 1000.0 RPM)
G21
G90
G17
G94


G01 F120.00

M5             
G00 Z15.0000
G00 X0.0000 Y0.0000                
T1
(MSG, Change to Tool Dia = 1.0000)
M0
G00 Z15.0000
        
M03 S1000.0
G01 F120.00
G00 X-0.5500 Y57.0000
G01 F60.00
G01 Z-0.5000
G01 F120.00
G01 X-0.5492 Y57.0294 F120.00
G01 X-0.5444 Y57.0783 F120.00
G01 X-0.5341 Y57.1312 F120.00
G01 X-0.5186 Y57.1830 F120.00
G01 X-0.4982 Y57.2329 F120.00
G01 X-0.4730 Y57.2806 F120.00
G01 X-0.4432 Y57.3256 F120.00
G01 X-0.4091 Y57.3675 F120.00
G01 X-0.3712 Y57.4058 F120.00
G01 X-0.3296 Y57.4403 F120.00
G01 X-0.2848 Y57.4705 F120.00
G01 X-0.2374 Y57.4961 F120.00
G01 X-0.1876 Y57.5170 F120.00
G01 X-0.1360 Y57.5329 F120.00
G01 X-0.0831 Y57.5437 F120.00
G01 X-0.0294 Y57.5492 F120.00
G01 X0.0000 Y57.5500 F120.00
G01 X98.0000 Y57.5500 F120.00
G01 X98.0294 Y57.5492 F120.00
G01 X98.0783 Y57.5444 F120.00
G01 X98.1360 Y57.5329 F120.00
G01 X98.1876 Y57.5170 F120.00
G01 X98.2329 Y57.4982 F120.00
G01 X98.2806 Y57.4730 F120.00
G01 X98.3256 Y57.4432 F120.00
G01 X98.3712 Y57.4058 F120.00
G01 X98.4058 Y57.3712 F120.00
G01 X98.4403 Y57.3296 F120.00
G01 X98.4730 Y57.2806 F120.00
G01 X98.4961 Y57.2374 F120.00
G01 X98.5170 Y57.1876 F120.00
G01 X98.5329 Y57.1360 F120.00
G01 X98.5444 Y57.0783 F120.00
G01 X98.5492 Y57.0294 F120.00
G01 X98.5500 Y57.0000 F120.00
G01 X98.5500 Y0.0000 F120.00
G01 X98.5492 Y-0.0294 F120.00
G01 X98.5444 Y-0.0783 F120.00
G01 X98.5329 Y-0.1360 F120.00
G01 X98.5170 Y-0.1876 F120.00
G01 X98.4961 Y-0.2374 F120.00
G01 X98.4730 Y-0.2806 F120.00
G01 X98.4403 Y-0.3296 F120.00
G01 X98.4058 Y-0.3712 F120.00
G01 X98.3712 Y-0.4058 F120.00
G01 X98.3296 Y-0.4403 F120.00
G01 X98.2806 Y-0.4730 F120.00
G01 X98.2329 Y-0.4982 F120.00
G01 X98.1876 Y-0.5170 F120.00
G01 X98.1360 Y-0.5329 F120.00
G01 X98.0783 Y-0.5444 F120.00
G01 X98.0294 Y-0.5492 F120.00
G01 X98.0000 Y-0.5500 F120.00
G01 X0.0000 Y-0.5500 F120.00
G01 X-0.0294 Y-0.5492 F120.00
G01 X-0.0783 Y-0.5444 F120.00
G01 X-0.1360 Y-0.5329 F120.00
G01 X-0.1876 Y-0.5170 F120.00
G01 X-0.2329 Y-0.4982 F120.00
G01 X-0.2806 Y-0.4730 F120.00
G01 X-0.3296 Y-0.4403 F120.00
G01 X-0.3675 Y-0.4091 F120.00
G01 X-0.4058 Y-0.3712 F120.00
G01 X-0.4403 Y-0.3296 F120.00
G01 X-0.4730 Y-0.2806 F120.00
G01 X-0.4961 Y-0.2374 F120.00
G01 X-0.5170 Y-0.1876 F120.00
G01 X-0.5329 Y-0.1360 F120.00
G01 X-0.5444 Y-0.0783 F120.00
G01 X-0.5492 Y-0.0294 F120.00
G01 X-0.5500 Y0.0000 F120.00
G01 X-0.5500 Y57.0000 F120.00
G00 X-0.5500 Y57.0000
G01 F60.00
G01 Z-1.0000
G01 F120.00
G01 X-0.5500 Y0.0000 F120.00
G01 X-0.5492 Y-0.0294 F120.00
G01 X-0.5444 Y-0.0783 F120.00
G01 X-0.5329 Y-0.1360 F120.00
G01 X-0.5170 Y-0.1876 F120.00
G01 X-0.4961 Y-0.2374 F120.00
G01 X-0.4730 Y-0.2806 F120.00
G01 X-0.4403 Y-0.3296 F120.00
G01 X-0.4058 Y-0.3712 F120.00
G01 X-0.3675 Y-0.4091 F120.00
G01 X-0.3296 Y-0.4403 F120.00
G01 X-0.2806 Y-0.4730 F120.00
G01 X-0.2329 Y-0.4982 F120.00
G01 X-0.1876 Y-0.5170 F120.00
G01 X-0.1360 Y-0.5329 F120.00
G01 X-0.0783 Y-0.5444 F120.00
G01 X-0.0294 Y-0.5492 F120.00
G01 X0.0000 Y-0.5500 F120.00
G01 X98.0000 Y-0.5500 F120.00
G01 X98.0294 Y-0.5492 F120.00
G01 X98.0783 Y-0.5444 F120.00
G01 X98.1360 Y-0.5329 F120.00
G01 X98.1876 Y-0.5170 F120.00
G01 X98.2329 Y-0.4982 F120.00
G01 X98.2806 Y-0.4730 F120.00
G01 X98.3296 Y-0.4403 F120.00
G01 X98.3712 Y-0.4058 F120.00
G01 X98.4058 Y-0.3712 F120.00
G01 X98.4403 Y-0.3296 F120.00
G01 X98.4730 Y-0.2806 F120.00
G01 X98.4961 Y-0.2374 F120.00
G01 X98.5170 Y-0.1876 F120.00
G01 X98.5329 Y-0.1360 F120.00
G01 X98.5444 Y-0.0783 F120.00
G01 X98.5492 Y-0.0294 F120.00
G01 X98.5500 Y0.0000 F120.00
G01 X98.5500 Y57.0000 F120.00
G01 X98.5492 Y57.0294 F120.00
G01 X98.5444 Y57.0783 F120.00
G01 X98.5329 Y57.1360 F120.00
G01 X98.5170 Y57.1876 F120.00
G01 X98.4961 Y57.2374 F120.00
G01 X98.4730 Y57.2806 F120.00
G01 X98.4403 Y57.3296 F120.00
G01 X98.4058 Y57.3712 F120.00
G01 X98.3712 Y57.4058 F120.00
G01 X98.3256 Y57.4432 F120.00
G01 X98.2806 Y57.4730 F120.00
G01 X98.2329 Y57.4982 F120.00
G01 X98.1876 Y57.5170 F120.00
G01 X98.1360 Y57.5329 F120.00
G01 X98.0783 Y57.5444 F120.00
G01 X98.0294 Y57.5492 F120.00
G01 X98.0000 Y57.5500 F120.00
G01 X0.0000 Y57.5500 F120.00
G01 X-0.0294 Y57.5492 F120.00
G01 X-0.0831 Y57.5437 F120.00
G01 X-0.1360 Y57.5329 F120.00
G01 X-0.1876 Y57.5170 F120.00
G01 X-0.2374 Y57.4961 F120.00
G01 X-0.2848 Y57.4705 F120.00
G01 X-0.3296 Y57.4403 F120.00
G01 X-0.3712 Y57.4058 F120.00
G01 X-0.4091 Y57.3675 F120.00
G01 X-0.4432 Y57.3256 F120.00
G01 X-0.4730 Y57.2806 F120.00
G01 X-0.4982 Y57.2329 F120.00
G01 X-0.5186 Y57.1830 F120.00
G01 X-0.5341 Y57.1312 F120.00
G01 X-0.5444 Y57.0783 F120.00
G01 X-0.5492 Y57.0294 F120.00
G01 X-0.5500 Y57.0000 F120.00
G00 X-0.5500 Y57.0000
G01 F60.00
G01 Z-1.5000
G01 F120.00
G01 X-0.5492 Y57.0294 F120.00
G01 X-0.5444 Y57.0783 F120.00
G01 X-0.5341 Y57.1312 F120.00
G01 X-0.5186 Y57.1830 F120.00
G01 X-0.4982 Y57.2329 F120.00
G01 X-0.4730 Y57.2806 F120.00
G01 X-0.4432 Y57.3256 F120.00
G01 X-0.4091 Y57.3675 F120.00
G01 X-0.3712 Y57.4058 F120.00
G01 X-0.3296 Y57.4403 F120.00
G01 X-0.2848 Y57.4705 F120.00
G01 X-0.2374 Y57.4961 F120.00
G01 X-0.1876 Y57.5170 F120.00
G01 X-0.1360 Y57.5329 F120.00
G01 X-0.0831 Y57.5437 F120.00
G01 X-0.0294 Y57.5492 F120.00
G01 X0.0000 Y57.5500 F120.00
G01 X98.0000 Y57.5500 F120.00
G01 X98.0294 Y57.5492 F120.00
G01 X98.0783 Y57.5444 F120.00
G01 X98.1360 Y57.5329 F120.00
G01 X98.1876 Y57.5170 F120.00
G01 X98.2329 Y57.4982 F120.00
G01 X98.2806 Y57.4730 F120.00
G01 X98.3256 Y57.4432 F120.00
G01 X98.3712 Y57.4058 F120.00
G01 X98.4058 Y57.3712 F120.00
G01 X98.4403 Y57.3296 F120.00
G01 X98.4730 Y57.2806 F120.00
G01 X98.4961 Y57.2374 F120.00
G01 X98.5170 Y57.1876 F120.00
G01 X98.5329 Y57.1360 F120.00
G01 X98.5444 Y57.0783 F120.00
G01 X98.5492 Y57.0294 F120.00
G01 X98.5500 Y57.0000 F120.00
G01 X98.5500 Y0.0000 F120.00
G01 X98.5492 Y-0.0294 F120.00
G01 X98.5444 Y-0.0783 F120.00
G01 X98.5329 Y-0.1360 F120.00
G01 X98.5170 Y-0.1876 F120.00
G01 X98.4961 Y-0.2374 F120.00
G01 X98.4730 Y-0.2806 F120.00
G01 X98.4403 Y-0.3296 F120.00
G01 X98.4058 Y-0.3712 F120.00
G01 X98.3712 Y-0.4058 F120.00
G01 X98.3296 Y-0.4403 F120.00
G01 X98.2806 Y-0.4730 F120.00
G01 X98.2329 Y-0.4982 F120.00
G01 X98.1876 Y-0.5170 F120.00
G01 X98.1360 Y-0.5329 F120.00
G01 X98.0783 Y-0.5444 F120.00
G01 X98.0294 Y-0.5492 F120.00
G01 X98.0000 Y-0.5500 F120.00
G01 X0.0000 Y-0.5500 F120.00
G01 X-0.0294 Y-0.5492 F120.00
G01 X-0.0783 Y-0.5444 F120.00
G01 X-0.1360 Y-0.5329 F120.00
G01 X-0.1876 Y-0.5170 F120.00
G01 X-0.2329 Y-0.4982 F120.00
G01 X-0.2806 Y-0.4730 F120.00
G01 X-0.3296 Y-0.4403 F120.00
G01 X-0.3675 Y-0.4091 F120.00
G01 X-0.4058 Y-0.3712 F120.00
G01 X-0.4403 Y-0.3296 F120.00
G01 X-0.4730 Y-0.2806 F120.00
G01 X-0.4961 Y-0.2374 F120.00
G01 X-0.5170 Y-0.1876 F120.00
G01 X-0.5329 Y-0.1360 F120.00
G01 X-0.5444 Y-0.0783 F120.00
G01 X-0.5492 Y-0.0294 F120.00
G01 X-0.5500 Y0.0000 F120.00
G01 X-0.5500 Y57.0000 F120.00
G00 X-0.5500 Y57.0000
G01 F60.00
G01 Z-2.0000
G01 F120.00
G01 X-0.5500 Y0.0000 F120.00
G01 X-0.5492 Y-0.0294 F120.00
G01 X-0.5444 Y-0.0783 F120.00
G01 X-0.5329 Y-0.1360 F120.00
G01 X-0.5170 Y-0.1876 F120.00
G01 X-0.4961 Y-0.2374 F120.00
G01 X-0.4730 Y-0.2806 F120.00
G01 X-0.4403 Y-0.3296 F120.00
G01 X-0.4058 Y-0.3712 F120.00
G01 X-0.3675 Y-0.4091 F120.00
G01 X-0.3296 Y-0.4403 F120.00
G01 X-0.2806 Y-0.4730 F120.00
G01 X-0.2329 Y-0.4982 F120.00
G01 X-0.1876 Y-0.5170 F120.00
G01 X-0.1360 Y-0.5329 F120.00
G01 X-0.0783 Y-0.5444 F120.00
G01 X-0.0294 Y-0.5492 F120.00
G01 X0.0000 Y-0.5500 F120.00
G01 X98.0000 Y-0.5500 F120.00
G01 X98.0294 Y-0.5492 F120.00
G01 X98.0783 Y-0.5444 F120.00
G01 X98.1360 Y-0.5329 F120.00
G01 X98.1876 Y-0.5170 F120.00
G01 X98.2329 Y-0.4982 F120.00
G01 X98.2806 Y-0.4730 F120.00
G01 X98.3296 Y-0.4403 F120.00
G01 X98.3712 Y-0.4058 F120.00
G01 X98.4058 Y-0.3712 F120.00
G01 X98.4403 Y-0.3296 F120.00
G01 X98.4730 Y-0.2806 F120.00
G01 X98.4961 Y-0.2374 F120.00
G01 X98.5170 Y-0.1876 F120.00
G01 X98.5329 Y-0.1360 F120.00
G01 X98.5444 Y-0.0783 F120.00
G01 X98.5492 Y-0.0294 F120.00
G01 X98.5500 Y0.0000 F120.00
G01 X98.5500 Y57.0000 F120.00
G01 X98.5492 Y57.0294 F120.00
G01 X98.5444 Y57.0783 F120.00
G01 X98.5329 Y57.1360 F120.00
G01 X98.5170 Y57.1876 F120.00
G01 X98.4961 Y57.2374 F120.00
G01 X98.4730 Y57.2806 F120.00
G01 X98.4403 Y57.3296 F120.00
G01 X98.4058 Y57.3712 F120.00
G01 X98.3712 Y57.4058 F120.00
G01 X98.3256 Y57.4432 F120.00
G01 X98.2806 Y57.4730 F120.00
G01 X98.2329 Y57.4982 F120.00
G01 X98.1876 Y57.5170 F120.00
G01 X98.1360 Y57.5329 F120.00
G01 X98.0783 Y57.5444 F120.00
G01 X98.0294 Y57.5492 F120.00
G01 X98.0000 Y57.5500 F120.00
G01 X0.0000 Y57.5500 F120.00
G01 X-0.0294 Y57.5492 F120.00
G01 X-0.0831 Y57.5437 F120.00
G01 X-0.1360 Y57.5329 F120.00
G01 X-0.1876 Y57.5170 F120.00
G01 X-0.2374 Y57.4961 F120.00
G01 X-0.2848 Y57.4705 F120.00
G01 X-0.3296 Y57.4403 F120.00
G01 X-0.3712 Y57.4058 F120.00
G01 X-0.4091 Y57.3675 F120.00
G01 X-0.4432 Y57.3256 F120.00
G01 X-0.4730 Y57.2806 F120.00
G01 X-0.4982 Y57.2329 F120.00
G01 X-0.5186 Y57.1830 F120.00
G01 X-0.5341 Y57.1312 F120.00
G01 X-0.5444 Y57.0783 F120.00
G01 X-0.5492 Y57.0294 F120.00
G01 X-0.5500 Y57.0000 F120.00
G00 Z2.0000
M05
G00 Z2.0000
G00 Z15.00


