(G-CODE GENERATED BY FLATCAM v8.994 - www.flatcam.org - Version Date: 2020/11/7)

(Name: PatientMonitor-F_Cu.gbr_iso_combined_cnc)
(Type: G-code from Geometry)
(Units: MM)

(Created on Sunday, 02 June 2024 at 23:43)

(This preprocessor is used with a motion controller loaded with GRBL firmware.)
(It is configured to be compatible with almost any version of GRBL firmware.)

(TOOL DIAMETER: 0.2 mm)
(Feedrate_XY: 120.0 mm/min)
(Feedrate_Z: 60.0 mm/min)
(Feedrate rapids 1500.0 mm/min)

(Z_Cut: -0.05 mm)
(Z_Move: 2.0 mm)
(Z Start: None mm)
(Z End: 15.0 mm)
(X,Y End: None mm)
(Steps per circle: 64)
(Steps per circle: 64)
(Preprocessor Geometry: GRBL_11_no_M6)

(X range:   -0.2995 ...   98.2995  mm)
(Y range:   -0.2995 ...   57.2995  mm)

(Spindle Speed: 1000.0 RPM)
G21
G90
G17
G94


G01 F120.00

M5             
G00 Z15.0000
G00 X0.0000 Y0.0000                
T1
(MSG, Change to Tool Dia = 0.2000)
M0
G00 Z15.0000
        
M03 S1000.0
G01 F120.00
G00 X1.2460 Y3.6859
G01 F60.00
G01 Z-0.0500
G01 F120.00
G01 X1.2740 Y3.4312 F120.00
G01 X1.3388 Y3.1833 F120.00
G01 X1.4390 Y2.9475 F120.00
G01 X1.5725 Y2.7287 F120.00
G01 X1.7364 Y2.5318 F120.00
G01 X1.9273 Y2.3608 F120.00
G01 X2.1410 Y2.2194 F120.00
G01 X2.3730 Y2.1106 F120.00
G01 X2.6184 Y2.0368 F120.00
G01 X2.8719 Y1.9995 F120.00
G01 X3.0640 Y1.9995 F120.00
G01 X3.2556 Y2.0135 F120.00
G01 X3.5057 Y2.0692 F120.00
G01 X3.7450 Y2.1608 F120.00
G01 X3.9685 Y2.2862 F120.00
G01 X4.1713 Y2.4428 F120.00
G01 X4.3491 Y2.6273 F120.00
G01 X4.4982 Y2.8357 F120.00
G01 X4.6154 Y3.0635 F120.00
G01 X4.6981 Y3.3061 F120.00
G01 X4.7447 Y3.5580 F120.00
G01 X4.7540 Y3.8141 F120.00
G01 X4.7260 Y4.0688 F120.00
G01 X4.6612 Y4.3167 F120.00
G01 X4.5610 Y4.5525 F120.00
G01 X4.4275 Y4.7713 F120.00
G01 X4.2636 Y4.9682 F120.00
G01 X4.0727 Y5.1392 F120.00
G01 X3.8590 Y5.2806 F120.00
G01 X3.6270 Y5.3894 F120.00
G01 X3.3816 Y5.4632 F120.00
G01 X3.1281 Y5.5005 F120.00
G01 X2.9360 Y5.5005 F120.00
G01 X2.7444 Y5.4865 F120.00
G01 X2.4943 Y5.4308 F120.00
G01 X2.2550 Y5.3392 F120.00
G01 X2.0316 Y5.2138 F120.00
G01 X1.8287 Y5.0572 F120.00
G01 X1.6509 Y4.8728 F120.00
G01 X1.5018 Y4.6643 F120.00
G01 X1.3846 Y4.4365 F120.00
G01 X1.3019 Y4.1940 F120.00
G01 X1.2553 Y3.9420 F120.00
G01 X1.2460 Y3.6859 F120.00
G00 Z2.0000
G00 X1.3462 Y3.6896
G01 F60.00
G01 Z-0.0500
G01 F120.00
G01 X1.3726 Y3.4494 F120.00
G01 X1.4337 Y3.2157 F120.00
G01 X1.5282 Y2.9933 F120.00
G01 X1.6541 Y2.7871 F120.00
G01 X1.8086 Y2.6014 F120.00
G01 X1.9886 Y2.4401 F120.00
G01 X2.1901 Y2.3068 F120.00
G01 X2.4088 Y2.2043 F120.00
G01 X2.6402 Y2.1347 F120.00
G01 X2.8792 Y2.0995 F120.00
G01 X3.0603 Y2.0995 F120.00
G01 X3.2410 Y2.1127 F120.00
G01 X3.4768 Y2.1653 F120.00
G01 X3.7024 Y2.2516 F120.00
G01 X3.9131 Y2.3698 F120.00
G01 X4.1044 Y2.5175 F120.00
G01 X4.2720 Y2.6914 F120.00
G01 X4.4126 Y2.8879 F120.00
G01 X4.5231 Y3.1027 F120.00
G01 X4.6011 Y3.3314 F120.00
G01 X4.6450 Y3.5690 F120.00
G01 X4.6538 Y3.8104 F120.00
G01 X4.6274 Y4.0506 F120.00
G01 X4.5663 Y4.2843 F120.00
G01 X4.4718 Y4.5067 F120.00
G01 X4.3459 Y4.7129 F120.00
G01 X4.1914 Y4.8986 F120.00
G01 X4.0114 Y5.0599 F120.00
G01 X3.8099 Y5.1932 F120.00
G01 X3.5912 Y5.2957 F120.00
G01 X3.3598 Y5.3653 F120.00
G01 X3.1208 Y5.4005 F120.00
G01 X2.9397 Y5.4005 F120.00
G01 X2.7590 Y5.3873 F120.00
G01 X2.5232 Y5.3348 F120.00
G01 X2.2976 Y5.2484 F120.00
G01 X2.0869 Y5.1302 F120.00
G01 X1.8956 Y4.9825 F120.00
G01 X1.7280 Y4.8086 F120.00
G01 X1.5874 Y4.6121 F120.00
G01 X1.4769 Y4.3973 F120.00
G01 X1.3989 Y4.1686 F120.00
G01 X1.3550 Y3.9310 F120.00
G01 X1.3462 Y3.6896 F120.00
G00 Z2.0000
G00 X1.4464 Y3.6932
G01 F60.00
G01 Z-0.0500
G01 F120.00
G01 X1.4712 Y3.4676 F120.00
G01 X1.5286 Y3.2480 F120.00
G01 X1.6174 Y3.0392 F120.00
G01 X1.7356 Y2.8454 F120.00
G01 X1.8808 Y2.6710 F120.00
G01 X2.0498 Y2.5195 F120.00
G01 X2.2391 Y2.3943 F120.00
G01 X2.4446 Y2.2979 F120.00
G01 X2.6620 Y2.2325 F120.00
G01 X2.8865 Y2.1995 F120.00
G01 X3.0567 Y2.1995 F120.00
G01 X3.2264 Y2.2119 F120.00
G01 X3.4479 Y2.2613 F120.00
G01 X3.6599 Y2.3423 F120.00
G01 X3.8578 Y2.4534 F120.00
G01 X4.0374 Y2.5921 F120.00
G01 X4.1950 Y2.7555 F120.00
G01 X4.3270 Y2.9401 F120.00
G01 X4.4308 Y3.1420 F120.00
G01 X4.5041 Y3.3568 F120.00
G01 X4.5453 Y3.5800 F120.00
G01 X4.5536 Y3.8068 F120.00
G01 X4.5288 Y4.0324 F120.00
G01 X4.4714 Y4.2520 F120.00
G01 X4.3826 Y4.4609 F120.00
G01 X4.2644 Y4.6546 F120.00
G01 X4.1192 Y4.8290 F120.00
G01 X3.9502 Y4.9805 F120.00
G01 X3.7609 Y5.1057 F120.00
G01 X3.5554 Y5.2021 F120.00
G01 X3.3380 Y5.2675 F120.00
G01 X3.1135 Y5.3005 F120.00
G01 X2.9433 Y5.3005 F120.00
G01 X2.7736 Y5.2881 F120.00
G01 X2.5521 Y5.2387 F120.00
G01 X2.3401 Y5.1577 F120.00
G01 X2.1422 Y5.0466 F120.00
G01 X1.9626 Y4.9079 F120.00
G01 X1.8050 Y4.7445 F120.00
G01 X1.6730 Y4.5599 F120.00
G01 X1.5692 Y4.3580 F120.00
G01 X1.4959 Y4.1432 F120.00
G01 X1.4547 Y3.9200 F120.00
G01 X1.4464 Y3.6932 F120.00
G00 Z2.0000
G00 X2.0098 Y10.9402
G01 F60.00
G01 Z-0.0500
G01 F120.00
G01 X2.1029 Y10.9451 F120.00
G01 X2.2048 Y10.9602 F120.00
G01 X2.3048 Y10.9852 F120.00
G01 X2.4018 Y11.0199 F120.00
G01 X2.4950 Y11.0640 F120.00
G01 X2.5833 Y11.1170 F120.00
G01 X2.6661 Y11.1783 F120.00
G01 X2.7425 Y11.2475 F120.00
G01 X2.8117 Y11.3239 F120.00
G01 X2.8730 Y11.4067 F120.00
G01 X2.9260 Y11.4950 F120.00
G01 X2.9701 Y11.5882 F120.00
G01 X3.0048 Y11.6852 F120.00
G01 X3.0298 Y11.7852 F120.00
G01 X3.0449 Y11.8871 F120.00
G01 X3.0500 Y11.9900 F120.00
G01 X3.0449 Y12.0929 F120.00
G01 X3.0298 Y12.1948 F120.00
G01 X3.0048 Y12.2948 F120.00
G01 X2.9701 Y12.3918 F120.00
G01 X2.9260 Y12.4850 F120.00
G01 X2.8730 Y12.5733 F120.00
G01 X2.8117 Y12.6561 F120.00
G01 X2.7425 Y12.7325 F120.00
G01 X2.6661 Y12.8017 F120.00
G01 X2.5833 Y12.8630 F120.00
G01 X2.4950 Y12.9160 F120.00
G01 X2.4018 Y12.9601 F120.00
G01 X2.3048 Y12.9948 F120.00
G01 X2.2048 Y13.0198 F120.00
G01 X2.1029 Y13.0349 F120.00
G01 X2.0000 Y13.0400 F120.00
G01 X1.8971 Y13.0349 F120.00
G01 X1.7952 Y13.0198 F120.00
G01 X1.6952 Y12.9948 F120.00
G01 X1.5982 Y12.9601 F120.00
G01 X1.5050 Y12.9160 F120.00
G01 X1.4167 Y12.8630 F120.00
G01 X1.3339 Y12.8017 F120.00
G01 X1.2575 Y12.7325 F120.00
G01 X1.1883 Y12.6561 F120.00
G01 X1.1270 Y12.5733 F120.00
G01 X1.0740 Y12.4850 F120.00
G01 X1.0299 Y12.3918 F120.00
G01 X0.9952 Y12.2948 F120.00
G01 X0.9702 Y12.1948 F120.00
G01 X0.9551 Y12.0929 F120.00
G01 X0.9500 Y11.9900 F120.00
G01 X0.9551 Y11.8871 F120.00
G01 X0.9702 Y11.7852 F120.00
G01 X0.9952 Y11.6852 F120.00
G01 X1.0299 Y11.5882 F120.00
G01 X1.0740 Y11.4950 F120.00
G01 X1.1270 Y11.4067 F120.00
G01 X1.1883 Y11.3239 F120.00
G01 X1.2575 Y11.2475 F120.00
G01 X1.3339 Y11.1783 F120.00
G01 X1.4167 Y11.1170 F120.00
G01 X1.5050 Y11.0640 F120.00
G01 X1.5982 Y11.0199 F120.00
G01 X1.6952 Y10.9852 F120.00
G01 X1.7952 Y10.9602 F120.00
G01 X1.8971 Y10.9451 F120.00
G01 X1.9902 Y10.9402 F120.00
G01 X2.0098 Y10.9402 F120.00
G00 Z2.0000
G00 X2.0049 Y11.0401
G01 F60.00
G01 Z-0.0500
G01 F120.00
G01 X2.0931 Y11.0446 F120.00
G01 X2.1853 Y11.0583 F120.00
G01 X2.2758 Y11.0809 F120.00
G01 X2.3635 Y11.1123 F120.00
G01 X2.4478 Y11.1522 F120.00
G01 X2.5278 Y11.2001 F120.00
G01 X2.6027 Y11.2556 F120.00
G01 X2.6718 Y11.3182 F120.00
G01 X2.7344 Y11.3873 F120.00
G01 X2.7899 Y11.4622 F120.00
G01 X2.8378 Y11.5422 F120.00
G01 X2.8777 Y11.6265 F120.00
G01 X2.9091 Y11.7142 F120.00
G01 X2.9317 Y11.8047 F120.00
G01 X2.9454 Y11.8969 F120.00
G01 X2.9500 Y11.9900 F120.00
G01 X2.9454 Y12.0831 F120.00
G01 X2.9317 Y12.1753 F120.00
G01 X2.9091 Y12.2658 F120.00
G01 X2.8777 Y12.3535 F120.00
G01 X2.8378 Y12.4378 F120.00
G01 X2.7899 Y12.5178 F120.00
G01 X2.7344 Y12.5927 F120.00
G01 X2.6718 Y12.6618 F120.00
G01 X2.6027 Y12.7244 F120.00
G01 X2.5278 Y12.7799 F120.00
G01 X2.4478 Y12.8278 F120.00
G01 X2.3635 Y12.8677 F120.00
G01 X2.2758 Y12.8991 F120.00
G01 X2.1853 Y12.9217 F120.00
G01 X2.0931 Y12.9354 F120.00
G01 X2.0000 Y12.9400 F120.00
G01 X1.9069 Y12.9354 F120.00
G01 X1.8147 Y12.9217 F120.00
G01 X1.7242 Y12.8991 F120.00
G01 X1.6365 Y12.8677 F120.00
G01 X1.5522 Y12.8278 F120.00
G01 X1.4722 Y12.7799 F120.00
G01 X1.3973 Y12.7244 F120.00
G01 X1.3282 Y12.6618 F120.00
G01 X1.2656 Y12.5927 F120.00
G01 X1.2101 Y12.5178 F120.00
G01 X1.1622 Y12.4378 F120.00
G01 X1.1223 Y12.3535 F120.00
G01 X1.0909 Y12.2658 F120.00
G01 X1.0683 Y12.1753 F120.00
G01 X1.0546 Y12.0831 F120.00
G01 X1.0500 Y11.9900 F120.00
G01 X1.0546 Y11.8969 F120.00
G01 X1.0683 Y11.8047 F120.00
G01 X1.0909 Y11.7142 F120.00
G01 X1.1223 Y11.6265 F120.00
G01 X1.1622 Y11.5422 F120.00
G01 X1.2101 Y11.4622 F120.00
G01 X1.2656 Y11.3873 F120.00
G01 X1.3282 Y11.3182 F120.00
G01 X1.3973 Y11.2556 F120.00
G01 X1.4722 Y11.2001 F120.00
G01 X1.5522 Y11.1522 F120.00
G01 X1.6365 Y11.1123 F120.00
G01 X1.7242 Y11.0809 F120.00
G01 X1.8147 Y11.0583 F120.00
G01 X1.9069 Y11.0446 F120.00
G01 X1.9951 Y11.0401 F120.00
G01 X2.0049 Y11.0401 F120.00
G00 Z2.0000
G00 X0.8451 Y11.9900
G01 F60.00
G01 Z-0.0500
G01 F120.00
G01 X0.8626 Y11.7895 F120.00
G01 X0.9148 Y11.5950 F120.00
G01 X0.9792 Y11.4567 F120.00
G01 X0.9998 Y11.4126 F120.00
G01 X1.1153 Y11.2476 F120.00
G01 X1.2576 Y11.1053 F120.00
G01 X1.4225 Y10.9898 F120.00
G01 X1.6050 Y10.9048 F120.00
G01 X1.7995 Y10.8527 F120.00
G01 X2.0000 Y10.8351 F120.00
G01 X2.2005 Y10.8527 F120.00
G01 X2.3950 Y10.9048 F120.00
G01 X2.5774 Y10.9898 F120.00
G01 X2.7424 Y11.1053 F120.00
G01 X2.8847 Y11.2476 F120.00
G01 X3.0002 Y11.4126 F120.00
G01 X3.0852 Y11.5950 F120.00
G01 X3.1373 Y11.7895 F120.00
G01 X3.1549 Y11.9900 F120.00
G01 X3.1373 Y12.1905 F120.00
G01 X3.0852 Y12.3850 F120.00
G01 X3.0002 Y12.5674 F120.00
G01 X2.8847 Y12.7324 F120.00
G01 X2.7424 Y12.8747 F120.00
G01 X2.5711 Y12.9946 F120.00
G01 X2.5635 Y13.0002 F120.00
G01 X2.5525 Y13.0094 F120.00
G01 X2.5422 Y13.0193 F120.00
G01 X2.5326 Y13.0299 F120.00
G01 X2.4860 Y13.0881 F120.00
G01 X2.4744 Y13.1042 F120.00
G01 X2.4644 Y13.1214 F120.00
G01 X2.4562 Y13.1395 F120.00
G01 X2.4528 Y13.1488 F120.00
G01 X2.4485 Y13.1631 F120.00
G01 X2.4454 Y13.1777 F120.00
G01 X2.4433 Y13.1924 F120.00
G01 X2.4361 Y13.2619 F120.00
G01 X2.4350 Y13.2817 F120.00
G01 X2.4359 Y13.3016 F120.00
G01 X2.4388 Y13.3212 F120.00
G01 X2.4436 Y13.3405 F120.00
G01 X2.4503 Y13.3592 F120.00
G01 X2.4565 Y13.3727 F120.00
G01 X2.4927 Y13.4437 F120.00
G01 X2.5031 Y13.4601 F120.00
G01 X2.5150 Y13.4754 F120.00
G01 X2.5215 Y13.4826 F120.00
G01 X2.5319 Y13.4928 F120.00
G01 X2.5549 Y13.5127 F120.00
G01 X2.5669 Y13.5224 F120.00
G01 X2.7424 Y13.6453 F120.00
G01 X2.8847 Y13.7876 F120.00
G01 X3.0002 Y13.9526 F120.00
G01 X3.0852 Y14.1350 F120.00
G01 X3.1373 Y14.3295 F120.00
G01 X3.1549 Y14.5300 F120.00
G01 X3.1373 Y14.7305 F120.00
G01 X3.0852 Y14.9250 F120.00
G01 X3.0002 Y15.1074 F120.00
G01 X2.8847 Y15.2724 F120.00
G01 X2.7424 Y15.4147 F120.00
G01 X2.5711 Y15.5346 F120.00
G01 X2.5635 Y15.5402 F120.00
G01 X2.5525 Y15.5494 F120.00
G01 X2.5422 Y15.5593 F120.00
G01 X2.5326 Y15.5699 F120.00
G01 X2.4860 Y15.6281 F120.00
G01 X2.4744 Y15.6442 F120.00
G01 X2.4667 Y15.6570 F120.00
G01 X2.4622 Y15.6659 F120.00
G01 X2.4544 Y15.6841 F120.00
G01 X2.4485 Y15.7031 F120.00
G01 X2.4454 Y15.7177 F120.00
G01 X2.4433 Y15.7324 F120.00
G01 X2.4361 Y15.8019 F120.00
G01 X2.4350 Y15.8217 F120.00
G01 X2.4359 Y15.8416 F120.00
G01 X2.4388 Y15.8612 F120.00
G01 X2.4436 Y15.8805 F120.00
G01 X2.4503 Y15.8992 F120.00
G01 X2.4565 Y15.9127 F120.00
G01 X2.4927 Y15.9837 F120.00
G01 X2.5031 Y16.0001 F120.00
G01 X2.5150 Y16.0154 F120.00
G01 X2.5215 Y16.0226 F120.00
G01 X2.5319 Y16.0328 F120.00
G01 X2.5549 Y16.0527 F120.00
G01 X2.5669 Y16.0624 F120.00
G01 X2.7424 Y16.1853 F120.00
G01 X2.8847 Y16.3276 F120.00
G01 X3.0002 Y16.4926 F120.00
G01 X3.0852 Y16.6750 F120.00
G01 X3.1373 Y16.8695 F120.00
G01 X3.1549 Y17.0700 F120.00
G01 X3.1373 Y17.2705 F120.00
G01 X3.0852 Y17.4650 F120.00
G01 X3.0002 Y17.6474 F120.00
G01 X2.8847 Y17.8124 F120.00
G01 X2.7424 Y17.9547 F120.00
G01 X2.5711 Y18.0746 F120.00
G01 X2.5597 Y18.0832 F120.00
G01 X2.5525 Y18.0894 F120.00
G01 X2.5422 Y18.0993 F120.00
G01 X2.5326 Y18.1099 F120.00
G01 X2.4860 Y18.1681 F120.00
G01 X2.4744 Y18.1842 F120.00
G01 X2.4692 Y18.1927 F120.00
G01 X2.4622 Y18.2059 F120.00
G01 X2.4544 Y18.2241 F120.00
G01 X2.4485 Y18.2431 F120.00
G01 X2.4454 Y18.2577 F120.00
G01 X2.4433 Y18.2724 F120.00
G01 X2.4361 Y18.3419 F120.00
G01 X2.4350 Y18.3617 F120.00
G01 X2.4359 Y18.3816 F120.00
G01 X2.4388 Y18.4012 F120.00
G01 X2.4436 Y18.4205 F120.00
G01 X2.4503 Y18.4392 F120.00
G01 X2.4565 Y18.4527 F120.00
G01 X2.4927 Y18.5237 F120.00
G01 X2.5031 Y18.5401 F120.00
G01 X2.5150 Y18.5554 F120.00
G01 X2.5249 Y18.5661 F120.00
G01 X2.5319 Y18.5728 F120.00
G01 X2.5549 Y18.5927 F120.00
G01 X2.5669 Y18.6024 F120.00
G01 X2.7424 Y18.7253 F120.00
G01 X2.8847 Y18.8676 F120.00
G01 X3.0002 Y19.0326 F120.00
G01 X3.0852 Y19.2150 F120.00
G01 X3.1373 Y19.4095 F120.00
G01 X3.1549 Y19.6100 F120.00
G01 X3.1373 Y19.8105 F120.00
G01 X3.0852 Y20.0050 F120.00
G01 X3.0002 Y20.1874 F120.00
G01 X2.8847 Y20.3524 F120.00
G01 X2.7424 Y20.4947 F120.00
G01 X2.5711 Y20.6146 F120.00
G01 X2.5635 Y20.6202 F120.00
G01 X2.5525 Y20.6294 F120.00
G01 X2.5422 Y20.6393 F120.00
G01 X2.5326 Y20.6499 F120.00
G01 X2.4860 Y20.7081 F120.00
G01 X2.4800 Y20.7160 F120.00
G01 X2.4717 Y20.7284 F120.00
G01 X2.4622 Y20.7459 F120.00
G01 X2.4544 Y20.7641 F120.00
G01 X2.4485 Y20.7831 F120.00
G01 X2.4454 Y20.7977 F120.00
G01 X2.4433 Y20.8124 F120.00
G01 X2.4361 Y20.8819 F120.00
G01 X2.4350 Y20.9017 F120.00
G01 X2.4359 Y20.9216 F120.00
G01 X2.4388 Y20.9412 F120.00
G01 X2.4436 Y20.9605 F120.00
G01 X2.4503 Y20.9792 F120.00
G01 X2.4565 Y20.9927 F120.00
G01 X2.4927 Y21.0637 F120.00
G01 X2.5031 Y21.0801 F120.00
G01 X2.5150 Y21.0954 F120.00
G01 X2.5249 Y21.1061 F120.00
G01 X2.5319 Y21.1128 F120.00
G01 X2.5549 Y21.1327 F120.00
G01 X2.5669 Y21.1424 F120.00
G01 X2.7424 Y21.2653 F120.00
G01 X2.8847 Y21.4076 F120.00
G01 X3.0002 Y21.5726 F120.00
G01 X3.0852 Y21.7550 F120.00
G01 X3.1373 Y21.9495 F120.00
G01 X3.1549 Y22.1500 F120.00
G01 X3.1373 Y22.3505 F120.00
G01 X3.0852 Y22.5450 F120.00
G01 X3.0002 Y22.7274 F120.00
G01 X2.8847 Y22.8924 F120.00
G01 X2.7424 Y23.0347 F120.00
G01 X2.5711 Y23.1546 F120.00
G01 X2.5635 Y23.1602 F120.00
G01 X2.5525 Y23.1694 F120.00
G01 X2.5422 Y23.1793 F120.00
G01 X2.5326 Y23.1899 F120.00
G01 X2.4860 Y23.2481 F120.00
G01 X2.4800 Y23.2560 F120.00
G01 X2.4717 Y23.2684 F120.00
G01 X2.4622 Y23.2859 F120.00
G01 X2.4544 Y23.3041 F120.00
G01 X2.4485 Y23.3231 F120.00
G01 X2.4454 Y23.3377 F120.00
G01 X2.4433 Y23.3524 F120.00
G01 X2.4361 Y23.4219 F120.00
G01 X2.4350 Y23.4417 F120.00
G01 X2.4359 Y23.4616 F120.00
G01 X2.4388 Y23.4812 F120.00
G01 X2.4436 Y23.5005 F120.00
G01 X2.4503 Y23.5192 F120.00
G01 X2.4565 Y23.5327 F120.00
G01 X2.4926 Y23.6036 F120.00
G01 X2.5031 Y23.6201 F120.00
G01 X2.5150 Y23.6354 F120.00
G01 X2.5249 Y23.6461 F120.00
G01 X2.5319 Y23.6528 F120.00
G01 X2.5549 Y23.6727 F120.00
G01 X2.5669 Y23.6824 F120.00
G01 X2.7424 Y23.8053 F120.00
G01 X2.8847 Y23.9476 F120.00
G01 X3.0002 Y24.1126 F120.00
G01 X3.0852 Y24.2950 F120.00
G01 X3.1373 Y24.4895 F120.00
G01 X3.1549 Y24.6900 F120.00
G01 X3.1373 Y24.8905 F120.00
G01 X3.0852 Y25.0850 F120.00
G01 X3.0002 Y25.2674 F120.00
G01 X2.8847 Y25.4324 F120.00
G01 X2.7424 Y25.5747 F120.00
G01 X2.5711 Y25.6946 F120.00
G01 X2.5635 Y25.7002 F120.00
G01 X2.5525 Y25.7094 F120.00
G01 X2.5422 Y25.7193 F120.00
G01 X2.5326 Y25.7299 F120.00
G01 X2.4860 Y25.7881 F120.00
G01 X2.4744 Y25.8042 F120.00
G01 X2.4644 Y25.8214 F120.00
G01 X2.4581 Y25.8349 F120.00
G01 X2.4544 Y25.8441 F120.00
G01 X2.4485 Y25.8631 F120.00
G01 X2.4454 Y25.8777 F120.00
G01 X2.4433 Y25.8924 F120.00
G01 X2.4361 Y25.9619 F120.00
G01 X2.4350 Y25.9817 F120.00
G01 X2.4359 Y26.0016 F120.00
G01 X2.4388 Y26.0212 F120.00
G01 X2.4436 Y26.0405 F120.00
G01 X2.4503 Y26.0592 F120.00
G01 X2.4565 Y26.0727 F120.00
G01 X2.4927 Y26.1437 F120.00
G01 X2.5031 Y26.1601 F120.00
G01 X2.5150 Y26.1754 F120.00
G01 X2.5249 Y26.1861 F120.00
G01 X2.5319 Y26.1928 F120.00
G01 X2.5549 Y26.2127 F120.00
G01 X2.5669 Y26.2224 F120.00
G01 X2.7424 Y26.3453 F120.00
G01 X2.8847 Y26.4876 F120.00
G01 X3.0002 Y26.6526 F120.00
G01 X3.0852 Y26.8350 F120.00
G01 X3.1373 Y27.0295 F120.00
G01 X3.1549 Y27.2300 F120.00
G01 X3.1373 Y27.4305 F120.00
G01 X3.0852 Y27.6250 F120.00
G01 X3.0002 Y27.8074 F120.00
G01 X2.8847 Y27.9724 F120.00
G01 X2.7424 Y28.1147 F120.00
G01 X2.5711 Y28.2346 F120.00
G01 X2.5597 Y28.2432 F120.00
G01 X2.5525 Y28.2494 F120.00
G01 X2.5422 Y28.2593 F120.00
G01 X2.5326 Y28.2699 F120.00
G01 X2.4860 Y28.3281 F120.00
G01 X2.4744 Y28.3442 F120.00
G01 X2.4644 Y28.3614 F120.00
G01 X2.4581 Y28.3749 F120.00
G01 X2.4544 Y28.3841 F120.00
G01 X2.4485 Y28.4031 F120.00
G01 X2.4454 Y28.4177 F120.00
G01 X2.4433 Y28.4324 F120.00
G01 X2.4361 Y28.5019 F120.00
G01 X2.4350 Y28.5217 F120.00
G01 X2.4359 Y28.5416 F120.00
G01 X2.4388 Y28.5612 F120.00
G01 X2.4436 Y28.5805 F120.00
G01 X2.4503 Y28.5992 F120.00
G01 X2.4565 Y28.6127 F120.00
G01 X2.4927 Y28.6837 F120.00
G01 X2.5031 Y28.7001 F120.00
G01 X2.5150 Y28.7154 F120.00
G01 X2.5215 Y28.7226 F120.00
G01 X2.5319 Y28.7328 F120.00
G01 X2.5549 Y28.7527 F120.00
G01 X2.5669 Y28.7624 F120.00
G01 X2.7424 Y28.8853 F120.00
G01 X2.8847 Y29.0276 F120.00
G01 X3.0002 Y29.1926 F120.00
G01 X3.0852 Y29.3750 F120.00
G01 X3.1373 Y29.5695 F120.00
G01 X3.1549 Y29.7700 F120.00
G01 X3.1373 Y29.9705 F120.00
G01 X3.0852 Y30.1650 F120.00
G01 X3.0002 Y30.3474 F120.00
G01 X2.8847 Y30.5124 F120.00
G01 X2.7424 Y30.6547 F120.00
G01 X2.5711 Y30.7746 F120.00
G01 X2.5597 Y30.7832 F120.00
G01 X2.5525 Y30.7894 F120.00
G01 X2.5422 Y30.7993 F120.00
G01 X2.5326 Y30.8099 F120.00
G01 X2.4860 Y30.8681 F120.00
G01 X2.4744 Y30.8842 F120.00
G01 X2.4692 Y30.8927 F120.00
G01 X2.4622 Y30.9059 F120.00
G01 X2.4544 Y30.9241 F120.00
G01 X2.4485 Y30.9431 F120.00
G01 X2.4454 Y30.9577 F120.00
G01 X2.4433 Y30.9724 F120.00
G01 X2.4361 Y31.0419 F120.00
G01 X2.4350 Y31.0617 F120.00
G01 X2.4359 Y31.0816 F120.00
G01 X2.4388 Y31.1012 F120.00
G01 X2.4436 Y31.1205 F120.00
G01 X2.4503 Y31.1392 F120.00
G01 X2.4565 Y31.1527 F120.00
G01 X2.4927 Y31.2237 F120.00
G01 X2.5031 Y31.2401 F120.00
G01 X2.5150 Y31.2554 F120.00
G01 X2.5249 Y31.2661 F120.00
G01 X2.5319 Y31.2728 F120.00
G01 X2.5549 Y31.2927 F120.00
G01 X2.5669 Y31.3024 F120.00
G01 X2.7424 Y31.4253 F120.00
G01 X2.8847 Y31.5676 F120.00
G01 X3.0002 Y31.7326 F120.00
G01 X3.0852 Y31.9150 F120.00
G01 X3.1373 Y32.1095 F120.00
G01 X3.1549 Y32.3100 F120.00
G01 X3.1373 Y32.5105 F120.00
G01 X3.0852 Y32.7050 F120.00
G01 X3.0002 Y32.8874 F120.00
G01 X2.8847 Y33.0524 F120.00
G01 X2.7424 Y33.1947 F120.00
G01 X2.5711 Y33.3146 F120.00
G01 X2.5597 Y33.3232 F120.00
G01 X2.5525 Y33.3294 F120.00
G01 X2.5422 Y33.3393 F120.00
G01 X2.5326 Y33.3499 F120.00
G01 X2.4860 Y33.4081 F120.00
G01 X2.4744 Y33.4242 F120.00
G01 X2.4644 Y33.4414 F120.00
G01 X2.4562 Y33.4595 F120.00
G01 X2.4513 Y33.4736 F120.00
G01 X2.4485 Y33.4831 F120.00
G01 X2.4454 Y33.4977 F120.00
G01 X2.4433 Y33.5124 F120.00
G01 X2.4361 Y33.5819 F120.00
G01 X2.4350 Y33.6017 F120.00
G01 X2.4359 Y33.6216 F120.00
G01 X2.4388 Y33.6412 F120.00
G01 X2.4436 Y33.6605 F120.00
G01 X2.4503 Y33.6792 F120.00
G01 X2.4565 Y33.6927 F120.00
G01 X2.4927 Y33.7637 F120.00
G01 X2.5031 Y33.7801 F120.00
G01 X2.5150 Y33.7954 F120.00
G01 X2.5215 Y33.8026 F120.00
G01 X2.5319 Y33.8128 F120.00
G01 X2.5549 Y33.8327 F120.00
G01 X2.5669 Y33.8424 F120.00
G01 X2.7424 Y33.9653 F120.00
G01 X2.8847 Y34.1076 F120.00
G01 X3.0002 Y34.2726 F120.00
G01 X3.0852 Y34.4550 F120.00
G01 X3.1373 Y34.6495 F120.00
G01 X3.1549 Y34.8500 F120.00
G01 X3.1373 Y35.0505 F120.00
G01 X3.0852 Y35.2450 F120.00
G01 X3.0002 Y35.4275 F120.00
G01 X2.8847 Y35.5924 F120.00
G01 X2.7424 Y35.7347 F120.00
G01 X2.5711 Y35.8546 F120.00
G01 X2.5597 Y35.8632 F120.00
G01 X2.5525 Y35.8694 F120.00
G01 X2.5422 Y35.8793 F120.00
G01 X2.5326 Y35.8899 F120.00
G01 X2.4860 Y35.9481 F120.00
G01 X2.4744 Y35.9642 F120.00
G01 X2.4644 Y35.9814 F120.00
G01 X2.4562 Y35.9995 F120.00
G01 X2.4513 Y36.0136 F120.00
G01 X2.4485 Y36.0231 F120.00
G01 X2.4454 Y36.0377 F120.00
G01 X2.4433 Y36.0524 F120.00
G01 X2.4361 Y36.1219 F120.00
G01 X2.4350 Y36.1417 F120.00
G01 X2.4359 Y36.1616 F120.00
G01 X2.4388 Y36.1812 F120.00
G01 X2.4436 Y36.2005 F120.00
G01 X2.4503 Y36.2192 F120.00
G01 X2.4565 Y36.2327 F120.00
G01 X2.4927 Y36.3037 F120.00
G01 X2.5031 Y36.3201 F120.00
G01 X2.5150 Y36.3354 F120.00
G01 X2.5215 Y36.3426 F120.00
G01 X2.5319 Y36.3528 F120.00
G01 X2.5549 Y36.3727 F120.00
G01 X2.5669 Y36.3824 F120.00
G01 X2.7424 Y36.5053 F120.00
G01 X2.8847 Y36.6476 F120.00
G01 X3.0002 Y36.8126 F120.00
G01 X3.0852 Y36.9950 F120.00
G01 X3.1373 Y37.1895 F120.00
G01 X3.1549 Y37.3900 F120.00
G01 X3.1373 Y37.5905 F120.00
G01 X3.0852 Y37.7850 F120.00
G01 X3.0002 Y37.9674 F120.00
G01 X2.8847 Y38.1324 F120.00
G01 X2.7424 Y38.2747 F120.00
G01 X2.5711 Y38.3946 F120.00
G01 X2.5597 Y38.4032 F120.00
G01 X2.5525 Y38.4094 F120.00
G01 X2.5422 Y38.4193 F120.00
G01 X2.5326 Y38.4299 F120.00
G01 X2.4860 Y38.4881 F120.00
G01 X2.4744 Y38.5042 F120.00
G01 X2.4644 Y38.5214 F120.00
G01 X2.4601 Y38.5304 F120.00
G01 X2.4544 Y38.5441 F120.00
G01 X2.4485 Y38.5631 F120.00
G01 X2.4454 Y38.5777 F120.00
G01 X2.4433 Y38.5924 F120.00
G01 X2.4361 Y38.6619 F120.00
G01 X2.4350 Y38.6817 F120.00
G01 X2.4359 Y38.7016 F120.00
G01 X2.4388 Y38.7212 F120.00
G01 X2.4436 Y38.7405 F120.00
G01 X2.4503 Y38.7592 F120.00
G01 X2.4565 Y38.7727 F120.00
G01 X2.4927 Y38.8437 F120.00
G01 X2.5031 Y38.8601 F120.00
G01 X2.5150 Y38.8754 F120.00
G01 X2.5215 Y38.8826 F120.00
G01 X2.5319 Y38.8928 F120.00
G01 X2.5549 Y38.9127 F120.00
G01 X2.5669 Y38.9224 F120.00
G01 X2.7424 Y39.0453 F120.00
G01 X2.8847 Y39.1876 F120.00
G01 X3.0002 Y39.3526 F120.00
G01 X3.0852 Y39.5350 F120.00
G01 X3.1373 Y39.7295 F120.00
G01 X3.1549 Y39.9300 F120.00
G01 X3.1373 Y40.1305 F120.00
G01 X3.0852 Y40.3250 F120.00
G01 X3.0002 Y40.5074 F120.00
G01 X2.8847 Y40.6724 F120.00
G01 X2.7424 Y40.8147 F120.00
G01 X2.5707 Y40.9349 F120.00
G01 X2.5630 Y40.9405 F120.00
G01 X2.5521 Y40.9497 F120.00
G01 X2.5418 Y40.9596 F120.00
G01 X2.5322 Y40.9702 F120.00
G01 X2.4856 Y41.0284 F120.00
G01 X2.4795 Y41.0363 F120.00
G01 X2.4713 Y41.0487 F120.00
G01 X2.4618 Y41.0662 F120.00
G01 X2.4540 Y41.0845 F120.00
G01 X2.4481 Y41.1034 F120.00
G01 X2.4449 Y41.1180 F120.00
G01 X2.4434 Y41.1278 F120.00
G01 X2.4357 Y41.2022 F120.00
G01 X2.4347 Y41.2171 F120.00
G01 X2.4351 Y41.2369 F120.00
G01 X2.4375 Y41.2567 F120.00
G01 X2.4418 Y41.2760 F120.00
G01 X2.4480 Y41.2949 F120.00
G01 X2.4561 Y41.3130 F120.00
G01 X2.4899 Y41.3797 F120.00
G01 X2.4999 Y41.3964 F120.00
G01 X2.5084 Y41.4082 F120.00
G01 X2.5178 Y41.4193 F120.00
G01 X2.5279 Y41.4298 F120.00
G01 X2.5544 Y41.4530 F120.00
G01 X2.5624 Y41.4596 F120.00
G01 X2.5707 Y41.4657 F120.00
G01 X2.7420 Y41.5857 F120.00
G01 X2.8843 Y41.7280 F120.00
G01 X2.9997 Y41.8928 F120.00
G01 X3.0590 Y42.0200 F120.00
G01 X2.9476 Y42.0200 F120.00
G01 X2.9304 Y41.9838 F120.00
G01 X2.9237 Y41.9707 F120.00
G01 X2.8783 Y41.8949 F120.00
G01 X2.8703 Y41.8826 F120.00
G01 X2.8117 Y41.8039 F120.00
G01 X2.7459 Y41.7311 F120.00
G01 X2.7354 Y41.7208 F120.00
G01 X2.6735 Y41.6648 F120.00
G01 X2.6584 Y41.6523 F120.00
G01 X2.5833 Y41.5970 F120.00
G01 X2.4993 Y41.5463 F120.00
G01 X2.4862 Y41.5396 F120.00
G01 X2.4018 Y41.4999 F120.00
G01 X2.3141 Y41.4683 F120.00
G01 X2.2953 Y41.4626 F120.00
G01 X2.2048 Y41.4402 F120.00
G01 X2.1127 Y41.4263 F120.00
G01 X2.0931 Y41.4243 F120.00
G01 X2.0000 Y41.4200 F120.00
G01 X1.9069 Y41.4243 F120.00
G01 X1.8873 Y41.4263 F120.00
G01 X1.7952 Y41.4402 F120.00
G01 X1.7047 Y41.4626 F120.00
G01 X1.6859 Y41.4683 F120.00
G01 X1.5982 Y41.4999 F120.00
G01 X1.5138 Y41.5396 F120.00
G01 X1.5007 Y41.5463 F120.00
G01 X1.4167 Y41.5970 F120.00
G01 X1.3416 Y41.6523 F120.00
G01 X1.3265 Y41.6648 F120.00
G01 X1.2646 Y41.7208 F120.00
G01 X1.2541 Y41.7311 F120.00
G01 X1.1883 Y41.8039 F120.00
G01 X1.1297 Y41.8826 F120.00
G01 X1.1217 Y41.8949 F120.00
G01 X1.0763 Y41.9707 F120.00
G01 X1.0696 Y41.9838 F120.00
G01 X1.0524 Y42.0200 F120.00
G01 X0.9410 Y42.0200 F120.00
G01 X1.0003 Y41.8928 F120.00
G01 X1.1157 Y41.7280 F120.00
G01 X1.2580 Y41.5857 F120.00
G01 X1.4293 Y41.4657 F120.00
G01 X1.4370 Y41.4601 F120.00
G01 X1.4479 Y41.4509 F120.00
G01 X1.4582 Y41.4410 F120.00
G01 X1.4678 Y41.4304 F120.00
G01 X1.5205 Y41.3643 F120.00
G01 X1.5313 Y41.3476 F120.00
G01 X1.5403 Y41.3299 F120.00
G01 X1.5476 Y41.3115 F120.00
G01 X1.5531 Y41.2924 F120.00
G01 X1.5566 Y41.2728 F120.00
G01 X1.5643 Y41.1984 F120.00
G01 X1.5653 Y41.1835 F120.00
G01 X1.5652 Y41.1686 F120.00
G01 X1.5633 Y41.1489 F120.00
G01 X1.5595 Y41.1294 F120.00
G01 X1.5537 Y41.1104 F120.00
G01 X1.5482 Y41.0965 F120.00
G01 X1.5078 Y41.0167 F120.00
G01 X1.4974 Y41.0003 F120.00
G01 X1.4854 Y40.9849 F120.00
G01 X1.4789 Y40.9777 F120.00
G01 X1.4685 Y40.9675 F120.00
G01 X1.4456 Y40.9476 F120.00
G01 X1.4335 Y40.9379 F120.00
G01 X1.2576 Y40.8147 F120.00
G01 X1.1153 Y40.6724 F120.00
G01 X0.9998 Y40.5074 F120.00
G01 X0.9148 Y40.3250 F120.00
G01 X0.8627 Y40.1306 F120.00
G01 X0.8451 Y39.9300 F120.00
G01 X0.8626 Y39.7295 F120.00
G01 X0.9148 Y39.5350 F120.00
G01 X0.9998 Y39.3526 F120.00
G01 X1.1153 Y39.1877 F120.00
G01 X1.2576 Y39.0453 F120.00
G01 X1.4289 Y38.9254 F120.00
G01 X1.4365 Y38.9198 F120.00
G01 X1.4475 Y38.9106 F120.00
G01 X1.4578 Y38.9007 F120.00
G01 X1.4674 Y38.8901 F120.00
G01 X1.5140 Y38.8319 F120.00
G01 X1.5256 Y38.8158 F120.00
G01 X1.5356 Y38.7986 F120.00
G01 X1.5438 Y38.7805 F120.00
G01 X1.5487 Y38.7664 F120.00
G01 X1.5515 Y38.7569 F120.00
G01 X1.5546 Y38.7423 F120.00
G01 X1.5567 Y38.7276 F120.00
G01 X1.5644 Y38.6531 F120.00
G01 X1.5649 Y38.6333 F120.00
G01 X1.5635 Y38.6135 F120.00
G01 X1.5612 Y38.5988 F120.00
G01 X1.5564 Y38.5795 F120.00
G01 X1.5497 Y38.5608 F120.00
G01 X1.5435 Y38.5473 F120.00
G01 X1.5073 Y38.4763 F120.00
G01 X1.4969 Y38.4599 F120.00
G01 X1.4850 Y38.4446 F120.00
G01 X1.4751 Y38.4339 F120.00
G01 X1.4681 Y38.4272 F120.00
G01 X1.4451 Y38.4073 F120.00
G01 X1.4331 Y38.3976 F120.00
G01 X1.2576 Y38.2747 F120.00
G01 X1.1153 Y38.1324 F120.00
G01 X0.9998 Y37.9674 F120.00
G01 X0.9148 Y37.7850 F120.00
G01 X0.8627 Y37.5906 F120.00
G01 X0.8451 Y37.3900 F120.00
G01 X0.8626 Y37.1895 F120.00
G01 X0.9148 Y36.9950 F120.00
G01 X0.9998 Y36.8126 F120.00
G01 X1.1153 Y36.6477 F120.00
G01 X1.2576 Y36.5053 F120.00
G01 X1.4289 Y36.3854 F120.00
G01 X1.4365 Y36.3798 F120.00
G01 X1.4475 Y36.3706 F120.00
G01 X1.4578 Y36.3607 F120.00
G01 X1.4674 Y36.3501 F120.00
G01 X1.5140 Y36.2919 F120.00
G01 X1.5256 Y36.2758 F120.00
G01 X1.5356 Y36.2586 F120.00
G01 X1.5438 Y36.2405 F120.00
G01 X1.5487 Y36.2264 F120.00
G01 X1.5515 Y36.2169 F120.00
G01 X1.5546 Y36.2023 F120.00
G01 X1.5567 Y36.1876 F120.00
G01 X1.5644 Y36.1131 F120.00
G01 X1.5649 Y36.0933 F120.00
G01 X1.5635 Y36.0735 F120.00
G01 X1.5612 Y36.0588 F120.00
G01 X1.5564 Y36.0395 F120.00
G01 X1.5497 Y36.0208 F120.00
G01 X1.5435 Y36.0073 F120.00
G01 X1.5073 Y35.9363 F120.00
G01 X1.4969 Y35.9199 F120.00
G01 X1.4850 Y35.9046 F120.00
G01 X1.4751 Y35.8939 F120.00
G01 X1.4681 Y35.8872 F120.00
G01 X1.4451 Y35.8673 F120.00
G01 X1.4331 Y35.8576 F120.00
G01 X1.2576 Y35.7347 F120.00
G01 X1.1153 Y35.5924 F120.00
G01 X0.9998 Y35.4274 F120.00
G01 X0.9148 Y35.2450 F120.00
G01 X0.8627 Y35.0506 F120.00
G01 X0.8451 Y34.8500 F120.00
G01 X0.8626 Y34.6495 F120.00
G01 X0.9148 Y34.4550 F120.00
G01 X0.9998 Y34.2726 F120.00
G01 X1.1153 Y34.1077 F120.00
G01 X1.2576 Y33.9653 F120.00
G01 X1.4289 Y33.8454 F120.00
G01 X1.4365 Y33.8398 F120.00
G01 X1.4475 Y33.8306 F120.00
G01 X1.4578 Y33.8207 F120.00
G01 X1.4674 Y33.8101 F120.00
G01 X1.5140 Y33.7519 F120.00
G01 X1.5256 Y33.7358 F120.00
G01 X1.5356 Y33.7186 F120.00
G01 X1.5399 Y33.7096 F120.00
G01 X1.5456 Y33.6959 F120.00
G01 X1.5515 Y33.6769 F120.00
G01 X1.5546 Y33.6623 F120.00
G01 X1.5567 Y33.6476 F120.00
G01 X1.5644 Y33.5731 F120.00
G01 X1.5649 Y33.5533 F120.00
G01 X1.5635 Y33.5335 F120.00
G01 X1.5612 Y33.5188 F120.00
G01 X1.5564 Y33.4995 F120.00
G01 X1.5497 Y33.4808 F120.00
G01 X1.5435 Y33.4673 F120.00
G01 X1.5073 Y33.3963 F120.00
G01 X1.4969 Y33.3799 F120.00
G01 X1.4850 Y33.3646 F120.00
G01 X1.4751 Y33.3539 F120.00
G01 X1.4681 Y33.3472 F120.00
G01 X1.4451 Y33.3273 F120.00
G01 X1.4331 Y33.3176 F120.00
G01 X1.2576 Y33.1947 F120.00
G01 X1.1153 Y33.0524 F120.00
G01 X0.9998 Y32.8874 F120.00
G01 X0.9148 Y32.7050 F120.00
G01 X0.8627 Y32.5106 F120.00
G01 X0.8451 Y32.3100 F120.00
G01 X0.8626 Y32.1095 F120.00
G01 X0.9148 Y31.9150 F120.00
G01 X0.9998 Y31.7326 F120.00
G01 X1.1153 Y31.5677 F120.00
G01 X1.2576 Y31.4253 F120.00
G01 X1.4289 Y31.3054 F120.00
G01 X1.4365 Y31.2998 F120.00
G01 X1.4475 Y31.2906 F120.00
G01 X1.4578 Y31.2807 F120.00
G01 X1.4674 Y31.2701 F120.00
G01 X1.5140 Y31.2119 F120.00
G01 X1.5200 Y31.2040 F120.00
G01 X1.5283 Y31.1916 F120.00
G01 X1.5378 Y31.1741 F120.00
G01 X1.5456 Y31.1559 F120.00
G01 X1.5515 Y31.1369 F120.00
G01 X1.5546 Y31.1223 F120.00
G01 X1.5567 Y31.1076 F120.00
G01 X1.5639 Y31.0381 F120.00
G01 X1.5650 Y31.0183 F120.00
G01 X1.5641 Y30.9984 F120.00
G01 X1.5612 Y30.9788 F120.00
G01 X1.5564 Y30.9595 F120.00
G01 X1.5497 Y30.9408 F120.00
G01 X1.5435 Y30.9273 F120.00
G01 X1.5073 Y30.8563 F120.00
G01 X1.4969 Y30.8399 F120.00
G01 X1.4850 Y30.8246 F120.00
G01 X1.4751 Y30.8139 F120.00
G01 X1.4681 Y30.8072 F120.00
G01 X1.4451 Y30.7873 F120.00
G01 X1.4331 Y30.7776 F120.00
G01 X1.2576 Y30.6547 F120.00
G01 X1.1153 Y30.5124 F120.00
G01 X0.9998 Y30.3474 F120.00
G01 X0.9148 Y30.1650 F120.00
G01 X0.8627 Y29.9706 F120.00
G01 X0.8451 Y29.7700 F120.00
G01 X0.8626 Y29.5695 F120.00
G01 X0.9148 Y29.3750 F120.00
G01 X0.9998 Y29.1926 F120.00
G01 X1.1153 Y29.0277 F120.00
G01 X1.2576 Y28.8853 F120.00
G01 X1.4289 Y28.7654 F120.00
G01 X1.4403 Y28.7568 F120.00
G01 X1.4475 Y28.7506 F120.00
G01 X1.4578 Y28.7407 F120.00
G01 X1.4674 Y28.7301 F120.00
G01 X1.5140 Y28.6719 F120.00
G01 X1.5200 Y28.6640 F120.00
G01 X1.5283 Y28.6516 F120.00
G01 X1.5378 Y28.6341 F120.00
G01 X1.5456 Y28.6159 F120.00
G01 X1.5515 Y28.5969 F120.00
G01 X1.5546 Y28.5823 F120.00
G01 X1.5567 Y28.5676 F120.00
G01 X1.5639 Y28.4981 F120.00
G01 X1.5650 Y28.4783 F120.00
G01 X1.5641 Y28.4584 F120.00
G01 X1.5612 Y28.4388 F120.00
G01 X1.5564 Y28.4195 F120.00
G01 X1.5497 Y28.4008 F120.00
G01 X1.5435 Y28.3873 F120.00
G01 X1.5073 Y28.3163 F120.00
G01 X1.4969 Y28.2999 F120.00
G01 X1.4850 Y28.2846 F120.00
G01 X1.4751 Y28.2739 F120.00
G01 X1.4681 Y28.2672 F120.00
G01 X1.4451 Y28.2473 F120.00
G01 X1.4331 Y28.2376 F120.00
G01 X1.2576 Y28.1147 F120.00
G01 X1.1153 Y27.9724 F120.00
G01 X0.9998 Y27.8074 F120.00
G01 X0.9148 Y27.6250 F120.00
G01 X0.8627 Y27.4306 F120.00
G01 X0.8451 Y27.2300 F120.00
G01 X0.8626 Y27.0295 F120.00
G01 X0.9148 Y26.8350 F120.00
G01 X0.9998 Y26.6526 F120.00
G01 X1.1153 Y26.4877 F120.00
G01 X1.2576 Y26.3453 F120.00
G01 X1.4289 Y26.2254 F120.00
G01 X1.4403 Y26.2168 F120.00
G01 X1.4475 Y26.2106 F120.00
G01 X1.4578 Y26.2007 F120.00
G01 X1.4674 Y26.1901 F120.00
G01 X1.5140 Y26.1319 F120.00
G01 X1.5256 Y26.1158 F120.00
G01 X1.5356 Y26.0986 F120.00
G01 X1.5438 Y26.0805 F120.00
G01 X1.5472 Y26.0712 F120.00
G01 X1.5515 Y26.0569 F120.00
G01 X1.5546 Y26.0423 F120.00
G01 X1.5567 Y26.0276 F120.00
G01 X1.5639 Y25.9581 F120.00
G01 X1.5650 Y25.9383 F120.00
G01 X1.5641 Y25.9184 F120.00
G01 X1.5612 Y25.8988 F120.00
G01 X1.5564 Y25.8795 F120.00
G01 X1.5497 Y25.8608 F120.00
G01 X1.5435 Y25.8473 F120.00
G01 X1.5073 Y25.7763 F120.00
G01 X1.4969 Y25.7599 F120.00
G01 X1.4850 Y25.7446 F120.00
G01 X1.4751 Y25.7339 F120.00
G01 X1.4681 Y25.7272 F120.00
G01 X1.4451 Y25.7073 F120.00
G01 X1.4331 Y25.6976 F120.00
G01 X1.2576 Y25.5747 F120.00
G01 X1.1153 Y25.4324 F120.00
G01 X0.9998 Y25.2674 F120.00
G01 X0.9148 Y25.0850 F120.00
G01 X0.8627 Y24.8906 F120.00
G01 X0.8451 Y24.6900 F120.00
G01 X0.8626 Y24.4895 F120.00
G01 X0.9148 Y24.2950 F120.00
G01 X0.9998 Y24.1126 F120.00
G01 X1.1153 Y23.9477 F120.00
G01 X1.2576 Y23.8053 F120.00
G01 X1.4289 Y23.6854 F120.00
G01 X1.4403 Y23.6768 F120.00
G01 X1.4475 Y23.6706 F120.00
G01 X1.4578 Y23.6607 F120.00
G01 X1.4674 Y23.6501 F120.00
G01 X1.5140 Y23.5919 F120.00
G01 X1.5229 Y23.5799 F120.00
G01 X1.5283 Y23.5716 F120.00
G01 X1.5378 Y23.5541 F120.00
G01 X1.5456 Y23.5359 F120.00
G01 X1.5515 Y23.5169 F120.00
G01 X1.5546 Y23.5023 F120.00
G01 X1.5567 Y23.4876 F120.00
G01 X1.5639 Y23.4181 F120.00
G01 X1.5650 Y23.3983 F120.00
G01 X1.5641 Y23.3784 F120.00
G01 X1.5612 Y23.3588 F120.00
G01 X1.5564 Y23.3395 F120.00
G01 X1.5497 Y23.3208 F120.00
G01 X1.5435 Y23.3073 F120.00
G01 X1.5073 Y23.2363 F120.00
G01 X1.4969 Y23.2199 F120.00
G01 X1.4850 Y23.2046 F120.00
G01 X1.4751 Y23.1939 F120.00
G01 X1.4681 Y23.1872 F120.00
G01 X1.4451 Y23.1673 F120.00
G01 X1.4331 Y23.1576 F120.00
G01 X1.2576 Y23.0347 F120.00
G01 X1.1153 Y22.8924 F120.00
G01 X0.9998 Y22.7274 F120.00
G01 X0.9148 Y22.5450 F120.00
G01 X0.8627 Y22.3506 F120.00
G01 X0.8451 Y22.1500 F120.00
G01 X0.8626 Y21.9495 F120.00
G01 X0.9148 Y21.7550 F120.00
G01 X0.9998 Y21.5726 F120.00
G01 X1.1153 Y21.4077 F120.00
G01 X1.2576 Y21.2653 F120.00
G01 X1.4289 Y21.1454 F120.00
G01 X1.4365 Y21.1398 F120.00
G01 X1.4475 Y21.1306 F120.00
G01 X1.4578 Y21.1207 F120.00
G01 X1.4674 Y21.1101 F120.00
G01 X1.5140 Y21.0519 F120.00
G01 X1.5200 Y21.0440 F120.00
G01 X1.5283 Y21.0316 F120.00
G01 X1.5378 Y21.0141 F120.00
G01 X1.5456 Y20.9959 F120.00
G01 X1.5515 Y20.9769 F120.00
G01 X1.5546 Y20.9623 F120.00
G01 X1.5567 Y20.9476 F120.00
G01 X1.5639 Y20.8781 F120.00
G01 X1.5650 Y20.8583 F120.00
G01 X1.5641 Y20.8384 F120.00
G01 X1.5612 Y20.8188 F120.00
G01 X1.5564 Y20.7995 F120.00
G01 X1.5497 Y20.7808 F120.00
G01 X1.5435 Y20.7673 F120.00
G01 X1.5073 Y20.6963 F120.00
G01 X1.4969 Y20.6799 F120.00
G01 X1.4850 Y20.6646 F120.00
G01 X1.4751 Y20.6539 F120.00
G01 X1.4681 Y20.6472 F120.00
G01 X1.4451 Y20.6273 F120.00
G01 X1.4331 Y20.6176 F120.00
G01 X1.2576 Y20.4947 F120.00
G01 X1.1153 Y20.3524 F120.00
G01 X0.9998 Y20.1874 F120.00
G01 X0.9148 Y20.0050 F120.00
G01 X0.8627 Y19.8106 F120.00
G01 X0.8451 Y19.6100 F120.00
G01 X0.8626 Y19.4095 F120.00
G01 X0.9148 Y19.2150 F120.00
G01 X0.9998 Y19.0326 F120.00
G01 X1.1153 Y18.8677 F120.00
G01 X1.2576 Y18.7253 F120.00
G01 X1.4289 Y18.6054 F120.00
G01 X1.4365 Y18.5998 F120.00
G01 X1.4475 Y18.5906 F120.00
G01 X1.4578 Y18.5807 F120.00
G01 X1.4674 Y18.5701 F120.00
G01 X1.5140 Y18.5119 F120.00
G01 X1.5200 Y18.5040 F120.00
G01 X1.5283 Y18.4916 F120.00
G01 X1.5378 Y18.4741 F120.00
G01 X1.5456 Y18.4559 F120.00
G01 X1.5515 Y18.4369 F120.00
G01 X1.5546 Y18.4223 F120.00
G01 X1.5567 Y18.4076 F120.00
G01 X1.5639 Y18.3381 F120.00
G01 X1.5650 Y18.3183 F120.00
G01 X1.5641 Y18.2984 F120.00
G01 X1.5612 Y18.2788 F120.00
G01 X1.5564 Y18.2595 F120.00
G01 X1.5497 Y18.2408 F120.00
G01 X1.5435 Y18.2273 F120.00
G01 X1.5073 Y18.1563 F120.00
G01 X1.4969 Y18.1399 F120.00
G01 X1.4850 Y18.1246 F120.00
G01 X1.4751 Y18.1139 F120.00
G01 X1.4681 Y18.1072 F120.00
G01 X1.4451 Y18.0873 F120.00
G01 X1.4331 Y18.0776 F120.00
G01 X1.2576 Y17.9547 F120.00
G01 X1.1153 Y17.8124 F120.00
G01 X0.9998 Y17.6474 F120.00
G01 X0.9148 Y17.4650 F120.00
G01 X0.8627 Y17.2706 F120.00
G01 X0.8451 Y17.0700 F120.00
G01 X0.8626 Y16.8695 F120.00
G01 X0.9148 Y16.6750 F120.00
G01 X0.9998 Y16.4926 F120.00
G01 X1.1153 Y16.3277 F120.00
G01 X1.2576 Y16.1853 F120.00
G01 X1.4289 Y16.0654 F120.00
G01 X1.4365 Y16.0598 F120.00
G01 X1.4475 Y16.0506 F120.00
G01 X1.4578 Y16.0407 F120.00
G01 X1.4674 Y16.0301 F120.00
G01 X1.5140 Y15.9719 F120.00
G01 X1.5256 Y15.9558 F120.00
G01 X1.5308 Y15.9473 F120.00
G01 X1.5378 Y15.9341 F120.00
G01 X1.5456 Y15.9159 F120.00
G01 X1.5515 Y15.8969 F120.00
G01 X1.5546 Y15.8823 F120.00
G01 X1.5567 Y15.8676 F120.00
G01 X1.5639 Y15.7981 F120.00
G01 X1.5650 Y15.7783 F120.00
G01 X1.5641 Y15.7584 F120.00
G01 X1.5612 Y15.7388 F120.00
G01 X1.5564 Y15.7195 F120.00
G01 X1.5497 Y15.7008 F120.00
G01 X1.5435 Y15.6873 F120.00
G01 X1.5073 Y15.6163 F120.00
G01 X1.4969 Y15.5999 F120.00
G01 X1.4850 Y15.5846 F120.00
G01 X1.4751 Y15.5739 F120.00
G01 X1.4681 Y15.5672 F120.00
G01 X1.4451 Y15.5473 F120.00
G01 X1.4331 Y15.5376 F120.00
G01 X1.2576 Y15.4147 F120.00
G01 X1.1153 Y15.2724 F120.00
G01 X0.9998 Y15.1074 F120.00
G01 X0.9148 Y14.9250 F120.00
G01 X0.8627 Y14.7306 F120.00
G01 X0.8451 Y14.5300 F120.00
G01 X0.8626 Y14.3295 F120.00
G01 X0.9148 Y14.1350 F120.00
G01 X0.9998 Y13.9526 F120.00
G01 X1.1153 Y13.7877 F120.00
G01 X1.2576 Y13.6453 F120.00
G01 X1.4289 Y13.5254 F120.00
G01 X1.4403 Y13.5168 F120.00
G01 X1.4475 Y13.5106 F120.00
G01 X1.4578 Y13.5007 F120.00
G01 X1.4674 Y13.4901 F120.00
G01 X1.5140 Y13.4319 F120.00
G01 X1.5256 Y13.4158 F120.00
G01 X1.5308 Y13.4073 F120.00
G01 X1.5378 Y13.3941 F120.00
G01 X1.5456 Y13.3759 F120.00
G01 X1.5515 Y13.3569 F120.00
G01 X1.5546 Y13.3423 F120.00
G01 X1.5567 Y13.3276 F120.00
G01 X1.5639 Y13.2581 F120.00
G01 X1.5650 Y13.2383 F120.00
G01 X1.5641 Y13.2184 F120.00
G01 X1.5612 Y13.1988 F120.00
G01 X1.5564 Y13.1795 F120.00
G01 X1.5497 Y13.1608 F120.00
G01 X1.5435 Y13.1473 F120.00
G01 X1.5073 Y13.0763 F120.00
G01 X1.4969 Y13.0599 F120.00
G01 X1.4850 Y13.0446 F120.00
G01 X1.4751 Y13.0339 F120.00
G01 X1.4681 Y13.0272 F120.00
G01 X1.4451 Y13.0073 F120.00
G01 X1.4331 Y12.9976 F120.00
G01 X1.2576 Y12.8747 F120.00
G01 X1.1153 Y12.7324 F120.00
G01 X0.9998 Y12.5674 F120.00
G01 X0.9148 Y12.3850 F120.00
G01 X0.8627 Y12.1906 F120.00
G01 X0.8451 Y11.9900 F120.00
G00 Z2.0000
G00 X0.7447 Y11.9900
G01 F60.00
G01 Z-0.0500
G01 F120.00
G01 X0.7638 Y11.7720 F120.00
G01 X0.8204 Y11.5607 F120.00
G01 X0.9129 Y11.3624 F120.00
G01 X1.0384 Y11.1831 F120.00
G01 X1.1931 Y11.0284 F120.00
G01 X1.3724 Y10.9029 F120.00
G01 X1.5707 Y10.8104 F120.00
G01 X1.7820 Y10.7538 F120.00
G01 X2.0000 Y10.7347 F120.00
G01 X2.2180 Y10.7538 F120.00
G01 X2.4293 Y10.8104 F120.00
G01 X2.6276 Y10.9029 F120.00
G01 X2.8069 Y11.0284 F120.00
G01 X2.9616 Y11.1831 F120.00
G01 X3.0871 Y11.3624 F120.00
G01 X3.1796 Y11.5607 F120.00
G01 X3.2362 Y11.7720 F120.00
G01 X3.2553 Y11.9900 F120.00
G01 X3.2362 Y12.2080 F120.00
G01 X3.1796 Y12.4193 F120.00
G01 X3.0871 Y12.6176 F120.00
G01 X2.9616 Y12.7969 F120.00
G01 X2.8069 Y12.9516 F120.00
G01 X2.6266 Y13.0779 F120.00
G01 X2.6174 Y13.0855 F120.00
G01 X2.6092 Y13.0941 F120.00
G01 X2.5611 Y13.1545 F120.00
G01 X2.5545 Y13.1650 F120.00
G01 X2.5492 Y13.1763 F120.00
G01 X2.5454 Y13.1881 F120.00
G01 X2.5430 Y13.2002 F120.00
G01 X2.5356 Y13.2722 F120.00
G01 X2.5350 Y13.2821 F120.00
G01 X2.5355 Y13.2920 F120.00
G01 X2.5369 Y13.3019 F120.00
G01 X2.5401 Y13.3139 F120.00
G01 X2.5436 Y13.3231 F120.00
G01 X2.5784 Y13.3921 F120.00
G01 X2.5848 Y13.4025 F120.00
G01 X2.5924 Y13.4119 F120.00
G01 X2.6011 Y13.4204 F120.00
G01 X2.6264 Y13.4420 F120.00
G01 X2.8069 Y13.5684 F120.00
G01 X2.9616 Y13.7231 F120.00
G01 X3.0871 Y13.9024 F120.00
G01 X3.1796 Y14.1007 F120.00
G01 X3.2362 Y14.3120 F120.00
G01 X3.2553 Y14.5300 F120.00
G01 X3.2362 Y14.7480 F120.00
G01 X3.1796 Y14.9593 F120.00
G01 X3.0871 Y15.1576 F120.00
G01 X2.9616 Y15.3369 F120.00
G01 X2.8069 Y15.4916 F120.00
G01 X2.6266 Y15.6179 F120.00
G01 X2.6174 Y15.6255 F120.00
G01 X2.6092 Y15.6341 F120.00
G01 X2.5611 Y15.6945 F120.00
G01 X2.5545 Y15.7050 F120.00
G01 X2.5492 Y15.7163 F120.00
G01 X2.5454 Y15.7281 F120.00
G01 X2.5430 Y15.7402 F120.00
G01 X2.5356 Y15.8122 F120.00
G01 X2.5350 Y15.8221 F120.00
G01 X2.5355 Y15.8320 F120.00
G01 X2.5369 Y15.8419 F120.00
G01 X2.5401 Y15.8539 F120.00
G01 X2.5436 Y15.8631 F120.00
G01 X2.5784 Y15.9321 F120.00
G01 X2.5848 Y15.9425 F120.00
G01 X2.5924 Y15.9519 F120.00
G01 X2.6011 Y15.9604 F120.00
G01 X2.6264 Y15.9820 F120.00
G01 X2.8069 Y16.1084 F120.00
G01 X2.9616 Y16.2631 F120.00
G01 X3.0871 Y16.4424 F120.00
G01 X3.1796 Y16.6407 F120.00
G01 X3.2362 Y16.8520 F120.00
G01 X3.2553 Y17.0700 F120.00
G01 X3.2362 Y17.2880 F120.00
G01 X3.1796 Y17.4993 F120.00
G01 X3.0871 Y17.6976 F120.00
G01 X2.9616 Y17.8769 F120.00
G01 X2.8069 Y18.0316 F120.00
G01 X2.6266 Y18.1579 F120.00
G01 X2.6174 Y18.1655 F120.00
G01 X2.6092 Y18.1741 F120.00
G01 X2.5611 Y18.2345 F120.00
G01 X2.5545 Y18.2450 F120.00
G01 X2.5492 Y18.2563 F120.00
G01 X2.5454 Y18.2681 F120.00
G01 X2.5430 Y18.2802 F120.00
G01 X2.5356 Y18.3522 F120.00
G01 X2.5350 Y18.3621 F120.00
G01 X2.5355 Y18.3720 F120.00
G01 X2.5374 Y18.3843 F120.00
G01 X2.5401 Y18.3939 F120.00
G01 X2.5436 Y18.4031 F120.00
G01 X2.5784 Y18.4721 F120.00
G01 X2.5848 Y18.4825 F120.00
G01 X2.5924 Y18.4919 F120.00
G01 X2.6011 Y18.5004 F120.00
G01 X2.6264 Y18.5220 F120.00
G01 X2.8069 Y18.6484 F120.00
G01 X2.9616 Y18.8031 F120.00
G01 X3.0871 Y18.9824 F120.00
G01 X3.1796 Y19.1807 F120.00
G01 X3.2362 Y19.3920 F120.00
G01 X3.2553 Y19.6100 F120.00
G01 X3.2362 Y19.8280 F120.00
G01 X3.1796 Y20.0393 F120.00
G01 X3.0871 Y20.2376 F120.00
G01 X2.9616 Y20.4169 F120.00
G01 X2.8069 Y20.5716 F120.00
G01 X2.6266 Y20.6979 F120.00
G01 X2.6174 Y20.7055 F120.00
G01 X2.6092 Y20.7141 F120.00
G01 X2.5611 Y20.7745 F120.00
G01 X2.5545 Y20.7850 F120.00
G01 X2.5492 Y20.7963 F120.00
G01 X2.5454 Y20.8081 F120.00
G01 X2.5430 Y20.8202 F120.00
G01 X2.5356 Y20.8922 F120.00
G01 X2.5350 Y20.9021 F120.00
G01 X2.5355 Y20.9120 F120.00
G01 X2.5369 Y20.9219 F120.00
G01 X2.5393 Y20.9315 F120.00
G01 X2.5436 Y20.9431 F120.00
G01 X2.5784 Y21.0121 F120.00
G01 X2.5848 Y21.0225 F120.00
G01 X2.5924 Y21.0319 F120.00
G01 X2.6011 Y21.0404 F120.00
G01 X2.6264 Y21.0620 F120.00
G01 X2.8069 Y21.1884 F120.00
G01 X2.9616 Y21.3431 F120.00
G01 X3.0871 Y21.5224 F120.00
G01 X3.1796 Y21.7207 F120.00
G01 X3.2362 Y21.9320 F120.00
G01 X3.2553 Y22.1500 F120.00
G01 X3.2362 Y22.3680 F120.00
G01 X3.1796 Y22.5793 F120.00
G01 X3.0871 Y22.7776 F120.00
G01 X2.9616 Y22.9569 F120.00
G01 X2.8069 Y23.1116 F120.00
G01 X2.6266 Y23.2379 F120.00
G01 X2.6174 Y23.2455 F120.00
G01 X2.6092 Y23.2541 F120.00
G01 X2.5611 Y23.3145 F120.00
G01 X2.5545 Y23.3250 F120.00
G01 X2.5492 Y23.3363 F120.00
G01 X2.5454 Y23.3481 F120.00
G01 X2.5430 Y23.3602 F120.00
G01 X2.5356 Y23.4322 F120.00
G01 X2.5350 Y23.4421 F120.00
G01 X2.5357 Y23.4545 F120.00
G01 X2.5374 Y23.4643 F120.00
G01 X2.5401 Y23.4739 F120.00
G01 X2.5436 Y23.4831 F120.00
G01 X2.5784 Y23.5521 F120.00
G01 X2.5848 Y23.5625 F120.00
G01 X2.5924 Y23.5719 F120.00
G01 X2.6011 Y23.5804 F120.00
G01 X2.6264 Y23.6020 F120.00
G01 X2.8069 Y23.7284 F120.00
G01 X2.9616 Y23.8831 F120.00
G01 X3.0871 Y24.0624 F120.00
G01 X3.1796 Y24.2607 F120.00
G01 X3.2362 Y24.4720 F120.00
G01 X3.2553 Y24.6900 F120.00
G01 X3.2362 Y24.9080 F120.00
G01 X3.1796 Y25.1193 F120.00
G01 X3.0871 Y25.3176 F120.00
G01 X2.9616 Y25.4969 F120.00
G01 X2.8069 Y25.6516 F120.00
G01 X2.6266 Y25.7779 F120.00
G01 X2.6174 Y25.7855 F120.00
G01 X2.6092 Y25.7941 F120.00
G01 X2.5611 Y25.8545 F120.00
G01 X2.5545 Y25.8650 F120.00
G01 X2.5492 Y25.8763 F120.00
G01 X2.5454 Y25.8881 F120.00
G01 X2.5430 Y25.9002 F120.00
G01 X2.5356 Y25.9722 F120.00
G01 X2.5350 Y25.9821 F120.00
G01 X2.5355 Y25.9920 F120.00
G01 X2.5369 Y26.0019 F120.00
G01 X2.5393 Y26.0115 F120.00
G01 X2.5436 Y26.0231 F120.00
G01 X2.5784 Y26.0921 F120.00
G01 X2.5848 Y26.1025 F120.00
G01 X2.5924 Y26.1119 F120.00
G01 X2.6011 Y26.1204 F120.00
G01 X2.6264 Y26.1420 F120.00
G01 X2.8069 Y26.2684 F120.00
G01 X2.9616 Y26.4231 F120.00
G01 X3.0871 Y26.6024 F120.00
G01 X3.1796 Y26.8007 F120.00
G01 X3.2362 Y27.0120 F120.00
G01 X3.2553 Y27.2300 F120.00
G01 X3.2362 Y27.4480 F120.00
G01 X3.1796 Y27.6593 F120.00
G01 X3.0871 Y27.8576 F120.00
G01 X2.9616 Y28.0369 F120.00
G01 X2.8069 Y28.1916 F120.00
G01 X2.6266 Y28.3179 F120.00
G01 X2.6174 Y28.3255 F120.00
G01 X2.6092 Y28.3341 F120.00
G01 X2.5611 Y28.3945 F120.00
G01 X2.5545 Y28.4050 F120.00
G01 X2.5492 Y28.4163 F120.00
G01 X2.5454 Y28.4281 F120.00
G01 X2.5430 Y28.4402 F120.00
G01 X2.5356 Y28.5122 F120.00
G01 X2.5350 Y28.5221 F120.00
G01 X2.5355 Y28.5320 F120.00
G01 X2.5369 Y28.5419 F120.00
G01 X2.5393 Y28.5515 F120.00
G01 X2.5436 Y28.5631 F120.00
G01 X2.5784 Y28.6321 F120.00
G01 X2.5848 Y28.6425 F120.00
G01 X2.5924 Y28.6519 F120.00
G01 X2.6011 Y28.6604 F120.00
G01 X2.6264 Y28.6820 F120.00
G01 X2.8069 Y28.8084 F120.00
G01 X2.9616 Y28.9631 F120.00
G01 X3.0871 Y29.1424 F120.00
G01 X3.1796 Y29.3407 F120.00
G01 X3.2362 Y29.5520 F120.00
G01 X3.2553 Y29.7700 F120.00
G01 X3.2362 Y29.9880 F120.00
G01 X3.1796 Y30.1993 F120.00
G01 X3.0871 Y30.3976 F120.00
G01 X2.9616 Y30.5769 F120.00
G01 X2.8069 Y30.7316 F120.00
G01 X2.6266 Y30.8579 F120.00
G01 X2.6174 Y30.8655 F120.00
G01 X2.6092 Y30.8741 F120.00
G01 X2.5611 Y30.9345 F120.00
G01 X2.5545 Y30.9450 F120.00
G01 X2.5492 Y30.9563 F120.00
G01 X2.5454 Y30.9681 F120.00
G01 X2.5430 Y30.9802 F120.00
G01 X2.5356 Y31.0522 F120.00
G01 X2.5350 Y31.0621 F120.00
G01 X2.5355 Y31.0720 F120.00
G01 X2.5374 Y31.0843 F120.00
G01 X2.5401 Y31.0939 F120.00
G01 X2.5436 Y31.1031 F120.00
G01 X2.5784 Y31.1721 F120.00
G01 X2.5848 Y31.1825 F120.00
G01 X2.5924 Y31.1919 F120.00
G01 X2.6011 Y31.2004 F120.00
G01 X2.6264 Y31.2220 F120.00
G01 X2.8069 Y31.3484 F120.00
G01 X2.9616 Y31.5031 F120.00
G01 X3.0871 Y31.6824 F120.00
G01 X3.1796 Y31.8807 F120.00
G01 X3.2362 Y32.0920 F120.00
G01 X3.2553 Y32.3100 F120.00
G01 X3.2362 Y32.5280 F120.00
G01 X3.1796 Y32.7393 F120.00
G01 X3.0871 Y32.9376 F120.00
G01 X2.9616 Y33.1169 F120.00
G01 X2.8069 Y33.2716 F120.00
G01 X2.6266 Y33.3979 F120.00
G01 X2.6174 Y33.4055 F120.00
G01 X2.6092 Y33.4141 F120.00
G01 X2.5611 Y33.4745 F120.00
G01 X2.5545 Y33.4850 F120.00
G01 X2.5492 Y33.4963 F120.00
G01 X2.5454 Y33.5081 F120.00
G01 X2.5430 Y33.5202 F120.00
G01 X2.5356 Y33.5922 F120.00
G01 X2.5350 Y33.6021 F120.00
G01 X2.5357 Y33.6145 F120.00
G01 X2.5374 Y33.6243 F120.00
G01 X2.5401 Y33.6339 F120.00
G01 X2.5436 Y33.6431 F120.00
G01 X2.5784 Y33.7121 F120.00
G01 X2.5848 Y33.7225 F120.00
G01 X2.5924 Y33.7319 F120.00
G01 X2.6011 Y33.7404 F120.00
G01 X2.6264 Y33.7620 F120.00
G01 X2.8069 Y33.8884 F120.00
G01 X2.9616 Y34.0431 F120.00
G01 X3.0871 Y34.2224 F120.00
G01 X3.1796 Y34.4207 F120.00
G01 X3.2362 Y34.6320 F120.00
G01 X3.2553 Y34.8500 F120.00
G01 X3.2362 Y35.0680 F120.00
G01 X3.1796 Y35.2793 F120.00
G01 X3.0871 Y35.4776 F120.00
G01 X2.9616 Y35.6569 F120.00
G01 X2.8069 Y35.8116 F120.00
G01 X2.6266 Y35.9379 F120.00
G01 X2.6174 Y35.9455 F120.00
G01 X2.6092 Y35.9541 F120.00
G01 X2.5611 Y36.0145 F120.00
G01 X2.5545 Y36.0250 F120.00
G01 X2.5492 Y36.0363 F120.00
G01 X2.5454 Y36.0481 F120.00
G01 X2.5430 Y36.0602 F120.00
G01 X2.5356 Y36.1322 F120.00
G01 X2.5350 Y36.1421 F120.00
G01 X2.5357 Y36.1545 F120.00
G01 X2.5374 Y36.1643 F120.00
G01 X2.5401 Y36.1739 F120.00
G01 X2.5436 Y36.1831 F120.00
G01 X2.5784 Y36.2521 F120.00
G01 X2.5848 Y36.2625 F120.00
G01 X2.5924 Y36.2719 F120.00
G01 X2.6011 Y36.2804 F120.00
G01 X2.6264 Y36.3020 F120.00
G01 X2.8069 Y36.4284 F120.00
G01 X2.9616 Y36.5831 F120.00
G01 X3.0871 Y36.7624 F120.00
G01 X3.1796 Y36.9607 F120.00
G01 X3.2362 Y37.1720 F120.00
G01 X3.2553 Y37.3900 F120.00
G01 X3.2362 Y37.6080 F120.00
G01 X3.1796 Y37.8193 F120.00
G01 X3.0871 Y38.0176 F120.00
G01 X2.9616 Y38.1969 F120.00
G01 X2.8069 Y38.3516 F120.00
G01 X2.6285 Y38.4765 F120.00
G01 X2.6192 Y38.4839 F120.00
G01 X2.6140 Y38.4888 F120.00
G01 X2.6092 Y38.4941 F120.00
G01 X2.5626 Y38.5525 F120.00
G01 X2.5570 Y38.5607 F120.00
G01 X2.5512 Y38.5717 F120.00
G01 X2.5475 Y38.5809 F120.00
G01 X2.5443 Y38.5929 F120.00
G01 X2.5427 Y38.6027 F120.00
G01 X2.5356 Y38.6722 F120.00
G01 X2.5350 Y38.6821 F120.00
G01 X2.5357 Y38.6945 F120.00
G01 X2.5374 Y38.7043 F120.00
G01 X2.5401 Y38.7139 F120.00
G01 X2.5436 Y38.7231 F120.00
G01 X2.5784 Y38.7921 F120.00
G01 X2.5848 Y38.8025 F120.00
G01 X2.5924 Y38.8119 F120.00
G01 X2.6011 Y38.8204 F120.00
G01 X2.6264 Y38.8420 F120.00
G01 X2.8069 Y38.9684 F120.00
G01 X2.9616 Y39.1231 F120.00
G01 X3.0871 Y39.3024 F120.00
G01 X3.1796 Y39.5007 F120.00
G01 X3.2362 Y39.7120 F120.00
G01 X3.2553 Y39.9300 F120.00
G01 X3.2362 Y40.1480 F120.00
G01 X3.1796 Y40.3593 F120.00
G01 X3.0871 Y40.5576 F120.00
G01 X2.9616 Y40.7369 F120.00
G01 X2.8069 Y40.8916 F120.00
G01 X2.6280 Y41.0168 F120.00
G01 X2.6187 Y41.0242 F120.00
G01 X2.6136 Y41.0292 F120.00
G01 X2.6088 Y41.0345 F120.00
G01 X2.5621 Y41.0928 F120.00
G01 X2.5553 Y41.1032 F120.00
G01 X2.5507 Y41.1120 F120.00
G01 X2.5463 Y41.1236 F120.00
G01 X2.5438 Y41.1332 F120.00
G01 X2.5423 Y41.1430 F120.00
G01 X2.5351 Y41.2125 F120.00
G01 X2.5346 Y41.2224 F120.00
G01 X2.5350 Y41.2323 F120.00
G01 X2.5365 Y41.2422 F120.00
G01 X2.5389 Y41.2518 F120.00
G01 X2.5432 Y41.2634 F120.00
G01 X2.5792 Y41.3346 F120.00
G01 X2.5858 Y41.3447 F120.00
G01 X2.5936 Y41.3540 F120.00
G01 X2.6006 Y41.3607 F120.00
G01 X2.6260 Y41.3823 F120.00
G01 X2.8066 Y41.5088 F120.00
G01 X2.9612 Y41.6634 F120.00
G01 X3.0867 Y41.8426 F120.00
G01 X3.1791 Y42.0408 F120.00
G01 X3.2003 Y42.1200 F120.00
G01 X2.8827 Y42.1200 F120.00
G01 X2.8786 Y42.1087 F120.00
G01 X2.8757 Y42.1020 F120.00
G01 X2.8400 Y42.0266 F120.00
G01 X2.8354 Y42.0179 F120.00
G01 X2.7899 Y41.9422 F120.00
G01 X2.7344 Y41.8673 F120.00
G01 X2.6751 Y41.8018 F120.00
G01 X2.6682 Y41.7949 F120.00
G01 X2.6027 Y41.7356 F120.00
G01 X2.5278 Y41.6801 F120.00
G01 X2.4521 Y41.6346 F120.00
G01 X2.4434 Y41.6300 F120.00
G01 X2.3635 Y41.5923 F120.00
G01 X2.2758 Y41.5609 F120.00
G01 X2.1901 Y41.5393 F120.00
G01 X2.1805 Y41.5374 F120.00
G01 X2.0931 Y41.5246 F120.00
G01 X2.0000 Y41.5200 F120.00
G01 X1.9069 Y41.5246 F120.00
G01 X1.8195 Y41.5374 F120.00
G01 X1.8099 Y41.5393 F120.00
G01 X1.7242 Y41.5609 F120.00
G01 X1.6410 Y41.5905 F120.00
G01 X1.6320 Y41.5943 F120.00
G01 X1.5522 Y41.6322 F120.00
G01 X1.4722 Y41.6801 F120.00
G01 X1.3973 Y41.7356 F120.00
G01 X1.3318 Y41.7949 F120.00
G01 X1.3249 Y41.8018 F120.00
G01 X1.2656 Y41.8673 F120.00
G01 X1.2101 Y41.9422 F120.00
G01 X1.1646 Y42.0179 F120.00
G01 X1.1600 Y42.0266 F120.00
G01 X1.1243 Y42.1020 F120.00
G01 X1.1214 Y42.1087 F120.00
G01 X1.1173 Y42.1200 F120.00
G01 X0.7997 Y42.1200 F120.00
G01 X0.8209 Y42.0408 F120.00
G01 X0.9133 Y41.8426 F120.00
G01 X1.0388 Y41.6634 F120.00
G01 X1.1934 Y41.5088 F120.00
G01 X1.3720 Y41.3838 F120.00
G01 X1.3813 Y41.3764 F120.00
G01 X1.3896 Y41.3680 F120.00
G01 X1.4393 Y41.3058 F120.00
G01 X1.4460 Y41.2953 F120.00
G01 X1.4512 Y41.2841 F120.00
G01 X1.4551 Y41.2723 F120.00
G01 X1.4574 Y41.2601 F120.00
G01 X1.4649 Y41.1881 F120.00
G01 X1.4654 Y41.1757 F120.00
G01 X1.4647 Y41.1658 F120.00
G01 X1.4630 Y41.1560 F120.00
G01 X1.4604 Y41.1464 F120.00
G01 X1.4568 Y41.1372 F120.00
G01 X1.4220 Y41.0682 F120.00
G01 X1.4156 Y41.0579 F120.00
G01 X1.4081 Y41.0484 F120.00
G01 X1.3994 Y41.0399 F120.00
G01 X1.3740 Y41.0183 F120.00
G01 X1.1931 Y40.8916 F120.00
G01 X1.0384 Y40.7369 F120.00
G01 X0.9129 Y40.5576 F120.00
G01 X0.8204 Y40.3593 F120.00
G01 X0.7638 Y40.1480 F120.00
G01 X0.7447 Y39.9300 F120.00
G01 X0.7638 Y39.7120 F120.00
G01 X0.8204 Y39.5007 F120.00
G01 X0.9129 Y39.3024 F120.00
G01 X1.0384 Y39.1231 F120.00
G01 X1.1931 Y38.9684 F120.00
G01 X1.3734 Y38.8421 F120.00
G01 X1.3826 Y38.8345 F120.00
G01 X1.3908 Y38.8259 F120.00
G01 X1.4389 Y38.7655 F120.00
G01 X1.4455 Y38.7550 F120.00
G01 X1.4508 Y38.7437 F120.00
G01 X1.4546 Y38.7319 F120.00
G01 X1.4570 Y38.7198 F120.00
G01 X1.4644 Y38.6478 F120.00
G01 X1.4650 Y38.6379 F120.00
G01 X1.4645 Y38.6280 F120.00
G01 X1.4631 Y38.6181 F120.00
G01 X1.4607 Y38.6085 F120.00
G01 X1.4564 Y38.5969 F120.00
G01 X1.4216 Y38.5279 F120.00
G01 X1.4152 Y38.5175 F120.00
G01 X1.4076 Y38.5081 F120.00
G01 X1.3989 Y38.4996 F120.00
G01 X1.3736 Y38.4780 F120.00
G01 X1.1931 Y38.3516 F120.00
G01 X1.0384 Y38.1969 F120.00
G01 X0.9129 Y38.0176 F120.00
G01 X0.8204 Y37.8193 F120.00
G01 X0.7638 Y37.6080 F120.00
G01 X0.7447 Y37.3900 F120.00
G01 X0.7638 Y37.1720 F120.00
G01 X0.8204 Y36.9607 F120.00
G01 X0.9129 Y36.7624 F120.00
G01 X1.0384 Y36.5831 F120.00
G01 X1.1931 Y36.4284 F120.00
G01 X1.3734 Y36.3021 F120.00
G01 X1.3826 Y36.2945 F120.00
G01 X1.3908 Y36.2859 F120.00
G01 X1.4389 Y36.2255 F120.00
G01 X1.4455 Y36.2150 F120.00
G01 X1.4508 Y36.2037 F120.00
G01 X1.4546 Y36.1919 F120.00
G01 X1.4570 Y36.1798 F120.00
G01 X1.4644 Y36.1078 F120.00
G01 X1.4650 Y36.0979 F120.00
G01 X1.4645 Y36.0880 F120.00
G01 X1.4631 Y36.0781 F120.00
G01 X1.4607 Y36.0685 F120.00
G01 X1.4564 Y36.0569 F120.00
G01 X1.4216 Y35.9879 F120.00
G01 X1.4152 Y35.9775 F120.00
G01 X1.4076 Y35.9681 F120.00
G01 X1.3989 Y35.9596 F120.00
G01 X1.3736 Y35.9380 F120.00
G01 X1.1931 Y35.8116 F120.00
G01 X1.0384 Y35.6569 F120.00
G01 X0.9129 Y35.4776 F120.00
G01 X0.8204 Y35.2793 F120.00
G01 X0.7638 Y35.0680 F120.00
G01 X0.7447 Y34.8500 F120.00
G01 X0.7638 Y34.6320 F120.00
G01 X0.8204 Y34.4207 F120.00
G01 X0.9129 Y34.2224 F120.00
G01 X1.0384 Y34.0431 F120.00
G01 X1.1931 Y33.8884 F120.00
G01 X1.3734 Y33.7621 F120.00
G01 X1.3826 Y33.7545 F120.00
G01 X1.3908 Y33.7459 F120.00
G01 X1.4389 Y33.6855 F120.00
G01 X1.4455 Y33.6750 F120.00
G01 X1.4508 Y33.6637 F120.00
G01 X1.4546 Y33.6519 F120.00
G01 X1.4570 Y33.6398 F120.00
G01 X1.4644 Y33.5678 F120.00
G01 X1.4650 Y33.5579 F120.00
G01 X1.4645 Y33.5480 F120.00
G01 X1.4631 Y33.5381 F120.00
G01 X1.4607 Y33.5285 F120.00
G01 X1.4564 Y33.5169 F120.00
G01 X1.4216 Y33.4479 F120.00
G01 X1.4152 Y33.4375 F120.00
G01 X1.4076 Y33.4281 F120.00
G01 X1.3989 Y33.4196 F120.00
G01 X1.3736 Y33.3980 F120.00
G01 X1.1931 Y33.2716 F120.00
G01 X1.0384 Y33.1169 F120.00
G01 X0.9129 Y32.9376 F120.00
G01 X0.8204 Y32.7393 F120.00
G01 X0.7638 Y32.5280 F120.00
G01 X0.7447 Y32.3100 F120.00
G01 X0.7638 Y32.0920 F120.00
G01 X0.8204 Y31.8807 F120.00
G01 X0.9129 Y31.6824 F120.00
G01 X1.0384 Y31.5031 F120.00
G01 X1.1931 Y31.3484 F120.00
G01 X1.3734 Y31.2221 F120.00
G01 X1.3826 Y31.2145 F120.00
G01 X1.3908 Y31.2059 F120.00
G01 X1.4389 Y31.1455 F120.00
G01 X1.4455 Y31.1350 F120.00
G01 X1.4508 Y31.1237 F120.00
G01 X1.4546 Y31.1119 F120.00
G01 X1.4570 Y31.0998 F120.00
G01 X1.4644 Y31.0278 F120.00
G01 X1.4650 Y31.0179 F120.00
G01 X1.4645 Y31.0080 F120.00
G01 X1.4631 Y30.9981 F120.00
G01 X1.4607 Y30.9885 F120.00
G01 X1.4564 Y30.9769 F120.00
G01 X1.4216 Y30.9079 F120.00
G01 X1.4152 Y30.8975 F120.00
G01 X1.4076 Y30.8881 F120.00
G01 X1.3989 Y30.8796 F120.00
G01 X1.3736 Y30.8580 F120.00
G01 X1.1931 Y30.7316 F120.00
G01 X1.0384 Y30.5769 F120.00
G01 X0.9129 Y30.3976 F120.00
G01 X0.8204 Y30.1993 F120.00
G01 X0.7638 Y29.9880 F120.00
G01 X0.7447 Y29.7700 F120.00
G01 X0.7638 Y29.5520 F120.00
G01 X0.8204 Y29.3407 F120.00
G01 X0.9129 Y29.1424 F120.00
G01 X1.0384 Y28.9631 F120.00
G01 X1.1931 Y28.8084 F120.00
G01 X1.3734 Y28.6821 F120.00
G01 X1.3826 Y28.6745 F120.00
G01 X1.3908 Y28.6659 F120.00
G01 X1.4389 Y28.6055 F120.00
G01 X1.4455 Y28.5950 F120.00
G01 X1.4508 Y28.5837 F120.00
G01 X1.4546 Y28.5719 F120.00
G01 X1.4570 Y28.5598 F120.00
G01 X1.4644 Y28.4878 F120.00
G01 X1.4650 Y28.4779 F120.00
G01 X1.4645 Y28.4680 F120.00
G01 X1.4631 Y28.4581 F120.00
G01 X1.4607 Y28.4485 F120.00
G01 X1.4564 Y28.4369 F120.00
G01 X1.4216 Y28.3679 F120.00
G01 X1.4152 Y28.3575 F120.00
G01 X1.4076 Y28.3481 F120.00
G01 X1.3989 Y28.3396 F120.00
G01 X1.3736 Y28.3180 F120.00
G01 X1.1931 Y28.1916 F120.00
G01 X1.0384 Y28.0369 F120.00
G01 X0.9129 Y27.8576 F120.00
G01 X0.8204 Y27.6593 F120.00
G01 X0.7638 Y27.4480 F120.00
G01 X0.7447 Y27.2300 F120.00
G01 X0.7638 Y27.0120 F120.00
G01 X0.8204 Y26.8007 F120.00
G01 X0.9129 Y26.6024 F120.00
G01 X1.0384 Y26.4231 F120.00
G01 X1.1931 Y26.2684 F120.00
G01 X1.3734 Y26.1421 F120.00
G01 X1.3826 Y26.1345 F120.00
G01 X1.3908 Y26.1259 F120.00
G01 X1.4389 Y26.0655 F120.00
G01 X1.4455 Y26.0550 F120.00
G01 X1.4508 Y26.0437 F120.00
G01 X1.4546 Y26.0319 F120.00
G01 X1.4570 Y26.0198 F120.00
G01 X1.4644 Y25.9478 F120.00
G01 X1.4650 Y25.9379 F120.00
G01 X1.4645 Y25.9280 F120.00
G01 X1.4631 Y25.9181 F120.00
G01 X1.4607 Y25.9085 F120.00
G01 X1.4564 Y25.8969 F120.00
G01 X1.4216 Y25.8279 F120.00
G01 X1.4152 Y25.8175 F120.00
G01 X1.4076 Y25.8081 F120.00
G01 X1.3989 Y25.7996 F120.00
G01 X1.3736 Y25.7780 F120.00
G01 X1.1931 Y25.6516 F120.00
G01 X1.0384 Y25.4969 F120.00
G01 X0.9129 Y25.3176 F120.00
G01 X0.8204 Y25.1193 F120.00
G01 X0.7638 Y24.9080 F120.00
G01 X0.7447 Y24.6900 F120.00
G01 X0.7638 Y24.4720 F120.00
G01 X0.8204 Y24.2607 F120.00
G01 X0.9129 Y24.0624 F120.00
G01 X1.0384 Y23.8831 F120.00
G01 X1.1931 Y23.7284 F120.00
G01 X1.3734 Y23.6021 F120.00
G01 X1.3826 Y23.5945 F120.00
G01 X1.3908 Y23.5859 F120.00
G01 X1.4389 Y23.5255 F120.00
G01 X1.4455 Y23.5150 F120.00
G01 X1.4508 Y23.5037 F120.00
G01 X1.4546 Y23.4919 F120.00
G01 X1.4570 Y23.4798 F120.00
G01 X1.4644 Y23.4078 F120.00
G01 X1.4650 Y23.3979 F120.00
G01 X1.4645 Y23.3880 F120.00
G01 X1.4631 Y23.3781 F120.00
G01 X1.4599 Y23.3661 F120.00
G01 X1.4564 Y23.3569 F120.00
G01 X1.4216 Y23.2879 F120.00
G01 X1.4152 Y23.2775 F120.00
G01 X1.4076 Y23.2681 F120.00
G01 X1.3989 Y23.2596 F120.00
G01 X1.3736 Y23.2380 F120.00
G01 X1.1931 Y23.1116 F120.00
G01 X1.0384 Y22.9569 F120.00
G01 X0.9129 Y22.7776 F120.00
G01 X0.8204 Y22.5793 F120.00
G01 X0.7638 Y22.3680 F120.00
G01 X0.7447 Y22.1500 F120.00
G01 X0.7638 Y21.9320 F120.00
G01 X0.8204 Y21.7207 F120.00
G01 X0.9129 Y21.5224 F120.00
G01 X1.0384 Y21.3431 F120.00
G01 X1.1931 Y21.1884 F120.00
G01 X1.3734 Y21.0621 F120.00
G01 X1.3826 Y21.0545 F120.00
G01 X1.3908 Y21.0459 F120.00
G01 X1.4389 Y20.9855 F120.00
G01 X1.4455 Y20.9750 F120.00
G01 X1.4508 Y20.9637 F120.00
G01 X1.4546 Y20.9519 F120.00
G01 X1.4570 Y20.9398 F120.00
G01 X1.4644 Y20.8678 F120.00
G01 X1.4650 Y20.8579 F120.00
G01 X1.4645 Y20.8480 F120.00
G01 X1.4631 Y20.8381 F120.00
G01 X1.4607 Y20.8285 F120.00
G01 X1.4564 Y20.8169 F120.00
G01 X1.4216 Y20.7479 F120.00
G01 X1.4152 Y20.7375 F120.00
G01 X1.4076 Y20.7281 F120.00
G01 X1.3989 Y20.7196 F120.00
G01 X1.3736 Y20.6980 F120.00
G01 X1.1931 Y20.5716 F120.00
G01 X1.0384 Y20.4169 F120.00
G01 X0.9129 Y20.2376 F120.00
G01 X0.8204 Y20.0393 F120.00
G01 X0.7638 Y19.8280 F120.00
G01 X0.7447 Y19.6100 F120.00
G01 X0.7638 Y19.3920 F120.00
G01 X0.8204 Y19.1807 F120.00
G01 X0.9129 Y18.9824 F120.00
G01 X1.0384 Y18.8031 F120.00
G01 X1.1931 Y18.6484 F120.00
G01 X1.3734 Y18.5221 F120.00
G01 X1.3826 Y18.5145 F120.00
G01 X1.3908 Y18.5059 F120.00
G01 X1.4389 Y18.4455 F120.00
G01 X1.4455 Y18.4350 F120.00
G01 X1.4508 Y18.4237 F120.00
G01 X1.4546 Y18.4119 F120.00
G01 X1.4570 Y18.3998 F120.00
G01 X1.4644 Y18.3278 F120.00
G01 X1.4650 Y18.3179 F120.00
G01 X1.4645 Y18.3080 F120.00
G01 X1.4631 Y18.2981 F120.00
G01 X1.4607 Y18.2885 F120.00
G01 X1.4564 Y18.2769 F120.00
G01 X1.4216 Y18.2079 F120.00
G01 X1.4152 Y18.1975 F120.00
G01 X1.4076 Y18.1881 F120.00
G01 X1.3989 Y18.1796 F120.00
G01 X1.3736 Y18.1580 F120.00
G01 X1.1931 Y18.0316 F120.00
G01 X1.0384 Y17.8769 F120.00
G01 X0.9129 Y17.6976 F120.00
G01 X0.8204 Y17.4993 F120.00
G01 X0.7638 Y17.2880 F120.00
G01 X0.7447 Y17.0700 F120.00
G01 X0.7638 Y16.8520 F120.00
G01 X0.8204 Y16.6407 F120.00
G01 X0.9129 Y16.4424 F120.00
G01 X1.0384 Y16.2631 F120.00
G01 X1.1931 Y16.1084 F120.00
G01 X1.3734 Y15.9821 F120.00
G01 X1.3826 Y15.9745 F120.00
G01 X1.3908 Y15.9659 F120.00
G01 X1.4389 Y15.9055 F120.00
G01 X1.4455 Y15.8950 F120.00
G01 X1.4508 Y15.8837 F120.00
G01 X1.4546 Y15.8719 F120.00
G01 X1.4570 Y15.8598 F120.00
G01 X1.4644 Y15.7878 F120.00
G01 X1.4650 Y15.7779 F120.00
G01 X1.4645 Y15.7680 F120.00
G01 X1.4631 Y15.7581 F120.00
G01 X1.4599 Y15.7461 F120.00
G01 X1.4564 Y15.7369 F120.00
G01 X1.4216 Y15.6679 F120.00
G01 X1.4152 Y15.6575 F120.00
G01 X1.4076 Y15.6481 F120.00
G01 X1.3989 Y15.6396 F120.00
G01 X1.3736 Y15.6180 F120.00
G01 X1.1931 Y15.4916 F120.00
G01 X1.0384 Y15.3369 F120.00
G01 X0.9129 Y15.1576 F120.00
G01 X0.8204 Y14.9593 F120.00
G01 X0.7638 Y14.7480 F120.00
G01 X0.7447 Y14.5300 F120.00
G01 X0.7638 Y14.3120 F120.00
G01 X0.8204 Y14.1007 F120.00
G01 X0.9129 Y13.9024 F120.00
G01 X1.0384 Y13.7231 F120.00
G01 X1.1931 Y13.5684 F120.00
G01 X1.3734 Y13.4421 F120.00
G01 X1.3826 Y13.4345 F120.00
G01 X1.3908 Y13.4259 F120.00
G01 X1.4389 Y13.3655 F120.00
G01 X1.4455 Y13.3550 F120.00
G01 X1.4508 Y13.3437 F120.00
G01 X1.4546 Y13.3319 F120.00
G01 X1.4570 Y13.3198 F120.00
G01 X1.4644 Y13.2478 F120.00
G01 X1.4650 Y13.2379 F120.00
G01 X1.4645 Y13.2280 F120.00
G01 X1.4631 Y13.2181 F120.00
G01 X1.4599 Y13.2061 F120.00
G01 X1.4564 Y13.1969 F120.00
G01 X1.4216 Y13.1279 F120.00
G01 X1.4152 Y13.1175 F120.00
G01 X1.4076 Y13.1081 F120.00
G01 X1.3989 Y13.0996 F120.00
G01 X1.3736 Y13.0780 F120.00
G01 X1.1931 Y12.9516 F120.00
G01 X1.0384 Y12.7969 F120.00
G01 X0.9129 Y12.6176 F120.00
G01 X0.8204 Y12.4193 F120.00
G01 X0.7638 Y12.2080 F120.00
G01 X0.7447 Y11.9900 F120.00
G00 Z2.0000
G00 X1.6184 Y13.0738
G01 F60.00
G01 Z-0.0500
G01 F120.00
G01 X1.6592 Y13.0883 F120.00
G01 X1.6732 Y13.0925 F120.00
G01 X1.7613 Y13.1147 F120.00
G01 X1.7829 Y13.1193 F120.00
G01 X1.8727 Y13.1327 F120.00
G01 X1.8873 Y13.1345 F120.00
G01 X1.9020 Y13.1355 F120.00
G01 X1.9853 Y13.1396 F120.00
G01 X2.0000 Y13.1400 F120.00
G01 X2.0147 Y13.1396 F120.00
G01 X2.0980 Y13.1355 F120.00
G01 X2.1127 Y13.1345 F120.00
G01 X2.1273 Y13.1327 F120.00
G01 X2.2171 Y13.1193 F120.00
G01 X2.2387 Y13.1147 F120.00
G01 X2.3268 Y13.0925 F120.00
G01 X2.3408 Y13.0883 F120.00
G01 X2.3753 Y13.0760 F120.00
G01 X2.3660 Y13.0959 F120.00
G01 X2.3581 Y13.1167 F120.00
G01 X2.3517 Y13.1382 F120.00
G01 X2.3469 Y13.1600 F120.00
G01 X2.3438 Y13.1821 F120.00
G01 X2.3366 Y13.2516 F120.00
G01 X2.3355 Y13.2665 F120.00
G01 X2.3351 Y13.2888 F120.00
G01 X2.3358 Y13.3037 F120.00
G01 X2.3382 Y13.3259 F120.00
G01 X2.3422 Y13.3479 F120.00
G01 X2.3479 Y13.3695 F120.00
G01 X2.3526 Y13.3836 F120.00
G01 X2.3609 Y13.4044 F120.00
G01 X2.3673 Y13.4178 F120.00
G01 X2.3816 Y13.4462 F120.00
G01 X2.3408 Y13.4317 F120.00
G01 X2.3268 Y13.4275 F120.00
G01 X2.2387 Y13.4053 F120.00
G01 X2.2171 Y13.4007 F120.00
G01 X2.1273 Y13.3873 F120.00
G01 X2.1127 Y13.3855 F120.00
G01 X2.0980 Y13.3845 F120.00
G01 X2.0147 Y13.3804 F120.00
G01 X2.0000 Y13.3800 F120.00
G01 X1.9853 Y13.3804 F120.00
G01 X1.9020 Y13.3845 F120.00
G01 X1.8873 Y13.3855 F120.00
G01 X1.8727 Y13.3873 F120.00
G01 X1.7829 Y13.4007 F120.00
G01 X1.7613 Y13.4053 F120.00
G01 X1.6732 Y13.4275 F120.00
G01 X1.6592 Y13.4317 F120.00
G01 X1.6247 Y13.4440 F120.00
G01 X1.6340 Y13.4241 F120.00
G01 X1.6419 Y13.4033 F120.00
G01 X1.6483 Y13.3818 F120.00
G01 X1.6531 Y13.3600 F120.00
G01 X1.6562 Y13.3379 F120.00
G01 X1.6634 Y13.2684 F120.00
G01 X1.6645 Y13.2535 F120.00
G01 X1.6649 Y13.2312 F120.00
G01 X1.6636 Y13.2089 F120.00
G01 X1.6607 Y13.1867 F120.00
G01 X1.6561 Y13.1649 F120.00
G01 X1.6521 Y13.1505 F120.00
G01 X1.6474 Y13.1364 F120.00
G01 X1.6391 Y13.1156 F120.00
G01 X1.6327 Y13.1022 F120.00
G01 X1.6184 Y13.0738 F120.00
G00 Z2.0000
G00 X2.0098 Y13.4802
G01 F60.00
G01 Z-0.0500
G01 F120.00
G01 X2.1029 Y13.4851 F120.00
G01 X2.2048 Y13.5002 F120.00
G01 X2.3048 Y13.5252 F120.00
G01 X2.4018 Y13.5599 F120.00
G01 X2.4950 Y13.6040 F120.00
G01 X2.5833 Y13.6570 F120.00
G01 X2.6661 Y13.7183 F120.00
G01 X2.7425 Y13.7875 F120.00
G01 X2.8117 Y13.8639 F120.00
G01 X2.8730 Y13.9467 F120.00
G01 X2.9260 Y14.0350 F120.00
G01 X2.9701 Y14.1282 F120.00
G01 X3.0048 Y14.2252 F120.00
G01 X3.0298 Y14.3252 F120.00
G01 X3.0449 Y14.4271 F120.00
G01 X3.0500 Y14.5300 F120.00
G01 X3.0449 Y14.6329 F120.00
G01 X3.0298 Y14.7348 F120.00
G01 X3.0048 Y14.8348 F120.00
G01 X2.9701 Y14.9318 F120.00
G01 X2.9260 Y15.0250 F120.00
G01 X2.8730 Y15.1133 F120.00
G01 X2.8117 Y15.1961 F120.00
G01 X2.7425 Y15.2725 F120.00
G01 X2.6661 Y15.3417 F120.00
G01 X2.5833 Y15.4030 F120.00
G01 X2.4950 Y15.4560 F120.00
G01 X2.4018 Y15.5001 F120.00
G01 X2.3048 Y15.5348 F120.00
G01 X2.2048 Y15.5598 F120.00
G01 X2.1029 Y15.5749 F120.00
G01 X2.0000 Y15.5800 F120.00
G01 X1.8971 Y15.5749 F120.00
G01 X1.7952 Y15.5598 F120.00
G01 X1.6952 Y15.5348 F120.00
G01 X1.5982 Y15.5001 F120.00
G01 X1.5050 Y15.4560 F120.00
G01 X1.4167 Y15.4030 F120.00
G01 X1.3339 Y15.3417 F120.00
G01 X1.2575 Y15.2725 F120.00
G01 X1.1883 Y15.1961 F120.00
G01 X1.1270 Y15.1133 F120.00
G01 X1.0740 Y15.0250 F120.00
G01 X1.0299 Y14.9318 F120.00
G01 X0.9952 Y14.8348 F120.00
G01 X0.9702 Y14.7348 F120.00
G01 X0.9551 Y14.6329 F120.00
G01 X0.9500 Y14.5300 F120.00
G01 X0.9551 Y14.4271 F120.00
G01 X0.9702 Y14.3252 F120.00
G01 X0.9952 Y14.2252 F120.00
G01 X1.0299 Y14.1282 F120.00
G01 X1.0740 Y14.0350 F120.00
G01 X1.1270 Y13.9467 F120.00
G01 X1.1883 Y13.8639 F120.00
G01 X1.2575 Y13.7875 F120.00
G01 X1.3339 Y13.7183 F120.00
G01 X1.4167 Y13.6570 F120.00
G01 X1.5050 Y13.6040 F120.00
G01 X1.5982 Y13.5599 F120.00
G01 X1.6952 Y13.5252 F120.00
G01 X1.7952 Y13.5002 F120.00
G01 X1.8971 Y13.4851 F120.00
G01 X1.9902 Y13.4802 F120.00
G01 X2.0098 Y13.4802 F120.00
G00 Z2.0000
G00 X2.0049 Y13.5801
G01 F60.00
G01 Z-0.0500
G01 F120.00
G01 X2.0931 Y13.5846 F120.00
G01 X2.1853 Y13.5983 F120.00
G01 X2.2758 Y13.6209 F120.00
G01 X2.3635 Y13.6523 F120.00
G01 X2.4478 Y13.6922 F120.00
G01 X2.5278 Y13.7401 F120.00
G01 X2.6027 Y13.7956 F120.00
G01 X2.6718 Y13.8582 F120.00
G01 X2.7344 Y13.9273 F120.00
G01 X2.7899 Y14.0022 F120.00
G01 X2.8378 Y14.0822 F120.00
G01 X2.8777 Y14.1665 F120.00
G01 X2.9091 Y14.2542 F120.00
G01 X2.9317 Y14.3447 F120.00
G01 X2.9454 Y14.4369 F120.00
G01 X2.9500 Y14.5300 F120.00
G01 X2.9454 Y14.6231 F120.00
G01 X2.9317 Y14.7153 F120.00
G01 X2.9091 Y14.8058 F120.00
G01 X2.8777 Y14.8935 F120.00
G01 X2.8378 Y14.9778 F120.00
G01 X2.7899 Y15.0578 F120.00
G01 X2.7344 Y15.1327 F120.00
G01 X2.6718 Y15.2018 F120.00
G01 X2.6027 Y15.2644 F120.00
G01 X2.5278 Y15.3199 F120.00
G01 X2.4478 Y15.3678 F120.00
G01 X2.3635 Y15.4077 F120.00
G01 X2.2758 Y15.4391 F120.00
G01 X2.1853 Y15.4617 F120.00
G01 X2.0931 Y15.4754 F120.00
G01 X2.0000 Y15.4800 F120.00
G01 X1.9069 Y15.4754 F120.00
G01 X1.8147 Y15.4617 F120.00
G01 X1.7242 Y15.4391 F120.00
G01 X1.6365 Y15.4077 F120.00
G01 X1.5522 Y15.3678 F120.00
G01 X1.4722 Y15.3199 F120.00
G01 X1.3973 Y15.2644 F120.00
G01 X1.3282 Y15.2018 F120.00
G01 X1.2656 Y15.1327 F120.00
G01 X1.2101 Y15.0578 F120.00
G01 X1.1622 Y14.9778 F120.00
G01 X1.1223 Y14.8935 F120.00
G01 X1.0909 Y14.8058 F120.00
G01 X1.0683 Y14.7153 F120.00
G01 X1.0546 Y14.6231 F120.00
G01 X1.0500 Y14.5300 F120.00
G01 X1.0546 Y14.4369 F120.00
G01 X1.0683 Y14.3447 F120.00
G01 X1.0909 Y14.2542 F120.00
G01 X1.1223 Y14.1665 F120.00
G01 X1.1622 Y14.0822 F120.00
G01 X1.2101 Y14.0022 F120.00
G01 X1.2656 Y13.9273 F120.00
G01 X1.3282 Y13.8582 F120.00
G01 X1.3973 Y13.7956 F120.00
G01 X1.4722 Y13.7401 F120.00
G01 X1.5522 Y13.6922 F120.00
G01 X1.6365 Y13.6523 F120.00
G01 X1.7242 Y13.6209 F120.00
G01 X1.8147 Y13.5983 F120.00
G01 X1.9069 Y13.5846 F120.00
G01 X1.9951 Y13.5801 F120.00
G01 X2.0049 Y13.5801 F120.00
G00 Z2.0000
G00 X1.6184 Y15.6138
G01 F60.00
G01 Z-0.0500
G01 F120.00
G01 X1.6592 Y15.6283 F120.00
G01 X1.6732 Y15.6325 F120.00
G01 X1.7613 Y15.6547 F120.00
G01 X1.7829 Y15.6593 F120.00
G01 X1.8727 Y15.6727 F120.00
G01 X1.8873 Y15.6745 F120.00
G01 X1.9020 Y15.6755 F120.00
G01 X1.9853 Y15.6796 F120.00
G01 X2.0000 Y15.6800 F120.00
G01 X2.0147 Y15.6796 F120.00
G01 X2.0980 Y15.6755 F120.00
G01 X2.1127 Y15.6745 F120.00
G01 X2.1273 Y15.6727 F120.00
G01 X2.2171 Y15.6593 F120.00
G01 X2.2387 Y15.6547 F120.00
G01 X2.3268 Y15.6325 F120.00
G01 X2.3408 Y15.6283 F120.00
G01 X2.3753 Y15.6160 F120.00
G01 X2.3660 Y15.6359 F120.00
G01 X2.3581 Y15.6567 F120.00
G01 X2.3517 Y15.6782 F120.00
G01 X2.3469 Y15.7000 F120.00
G01 X2.3438 Y15.7221 F120.00
G01 X2.3366 Y15.7916 F120.00
G01 X2.3355 Y15.8065 F120.00
G01 X2.3351 Y15.8288 F120.00
G01 X2.3364 Y15.8511 F120.00
G01 X2.3393 Y15.8733 F120.00
G01 X2.3439 Y15.8951 F120.00
G01 X2.3479 Y15.9095 F120.00
G01 X2.3526 Y15.9236 F120.00
G01 X2.3609 Y15.9444 F120.00
G01 X2.3673 Y15.9578 F120.00
G01 X2.3816 Y15.9862 F120.00
G01 X2.3408 Y15.9717 F120.00
G01 X2.3268 Y15.9675 F120.00
G01 X2.2387 Y15.9453 F120.00
G01 X2.2171 Y15.9407 F120.00
G01 X2.1273 Y15.9273 F120.00
G01 X2.1127 Y15.9255 F120.00
G01 X2.0980 Y15.9245 F120.00
G01 X2.0147 Y15.9204 F120.00
G01 X2.0000 Y15.9200 F120.00
G01 X1.9853 Y15.9204 F120.00
G01 X1.9020 Y15.9245 F120.00
G01 X1.8873 Y15.9255 F120.00
G01 X1.8727 Y15.9273 F120.00
G01 X1.7829 Y15.9407 F120.00
G01 X1.7613 Y15.9453 F120.00
G01 X1.6732 Y15.9675 F120.00
G01 X1.6592 Y15.9717 F120.00
G01 X1.6247 Y15.9840 F120.00
G01 X1.6340 Y15.9641 F120.00
G01 X1.6419 Y15.9433 F120.00
G01 X1.6483 Y15.9218 F120.00
G01 X1.6531 Y15.9000 F120.00
G01 X1.6562 Y15.8779 F120.00
G01 X1.6634 Y15.8084 F120.00
G01 X1.6645 Y15.7935 F120.00
G01 X1.6649 Y15.7712 F120.00
G01 X1.6636 Y15.7489 F120.00
G01 X1.6607 Y15.7267 F120.00
G01 X1.6561 Y15.7049 F120.00
G01 X1.6521 Y15.6905 F120.00
G01 X1.6448 Y15.6694 F120.00
G01 X1.6391 Y15.6556 F120.00
G01 X1.6327 Y15.6422 F120.00
G01 X1.6184 Y15.6138 F120.00
G00 Z2.0000
G00 X2.0098 Y16.0202
G01 F60.00
G01 Z-0.0500
G01 F120.00
G01 X2.1029 Y16.0251 F120.00
G01 X2.2048 Y16.0402 F120.00
G01 X2.3048 Y16.0652 F120.00
G01 X2.4018 Y16.0999 F120.00
G01 X2.4950 Y16.1440 F120.00
G01 X2.5833 Y16.1970 F120.00
G01 X2.6661 Y16.2583 F120.00
G01 X2.7425 Y16.3275 F120.00
G01 X2.8117 Y16.4039 F120.00
G01 X2.8730 Y16.4867 F120.00
G01 X2.9260 Y16.5750 F120.00
G01 X2.9701 Y16.6682 F120.00
G01 X3.0048 Y16.7652 F120.00
G01 X3.0298 Y16.8652 F120.00
G01 X3.0449 Y16.9671 F120.00
G01 X3.0500 Y17.0700 F120.00
G01 X3.0449 Y17.1729 F120.00
G01 X3.0298 Y17.2748 F120.00
G01 X3.0048 Y17.3748 F120.00
G01 X2.9701 Y17.4718 F120.00
G01 X2.9260 Y17.5650 F120.00
G01 X2.8730 Y17.6533 F120.00
G01 X2.8117 Y17.7361 F120.00
G01 X2.7425 Y17.8125 F120.00
G01 X2.6661 Y17.8817 F120.00
G01 X2.5833 Y17.9430 F120.00
G01 X2.4950 Y17.9960 F120.00
G01 X2.4018 Y18.0401 F120.00
G01 X2.3048 Y18.0748 F120.00
G01 X2.2048 Y18.0998 F120.00
G01 X2.1029 Y18.1149 F120.00
G01 X2.0000 Y18.1200 F120.00
G01 X1.8971 Y18.1149 F120.00
G01 X1.7952 Y18.0998 F120.00
G01 X1.6952 Y18.0748 F120.00
G01 X1.5982 Y18.0401 F120.00
G01 X1.5050 Y17.9960 F120.00
G01 X1.4167 Y17.9430 F120.00
G01 X1.3339 Y17.8817 F120.00
G01 X1.2575 Y17.8125 F120.00
G01 X1.1883 Y17.7361 F120.00
G01 X1.1270 Y17.6533 F120.00
G01 X1.0740 Y17.5650 F120.00
G01 X1.0299 Y17.4718 F120.00
G01 X0.9952 Y17.3748 F120.00
G01 X0.9702 Y17.2748 F120.00
G01 X0.9551 Y17.1729 F120.00
G01 X0.9500 Y17.0700 F120.00
G01 X0.9551 Y16.9671 F120.00
G01 X0.9702 Y16.8652 F120.00
G01 X0.9952 Y16.7652 F120.00
G01 X1.0299 Y16.6682 F120.00
G01 X1.0740 Y16.5750 F120.00
G01 X1.1270 Y16.4867 F120.00
G01 X1.1883 Y16.4039 F120.00
G01 X1.2575 Y16.3275 F120.00
G01 X1.3339 Y16.2583 F120.00
G01 X1.4167 Y16.1970 F120.00
G01 X1.5050 Y16.1440 F120.00
G01 X1.5982 Y16.0999 F120.00
G01 X1.6952 Y16.0652 F120.00
G01 X1.7952 Y16.0402 F120.00
G01 X1.8971 Y16.0251 F120.00
G01 X1.9902 Y16.0202 F120.00
G01 X2.0098 Y16.0202 F120.00
G00 Z2.0000
G00 X2.0049 Y16.1201
G01 F60.00
G01 Z-0.0500
G01 F120.00
G01 X2.0931 Y16.1246 F120.00
G01 X2.1853 Y16.1383 F120.00
G01 X2.2758 Y16.1609 F120.00
G01 X2.3635 Y16.1923 F120.00
G01 X2.4478 Y16.2322 F120.00
G01 X2.5278 Y16.2801 F120.00
G01 X2.6027 Y16.3356 F120.00
G01 X2.6718 Y16.3982 F120.00
G01 X2.7344 Y16.4673 F120.00
G01 X2.7899 Y16.5422 F120.00
G01 X2.8378 Y16.6222 F120.00
G01 X2.8777 Y16.7065 F120.00
G01 X2.9091 Y16.7942 F120.00
G01 X2.9317 Y16.8847 F120.00
G01 X2.9454 Y16.9769 F120.00
G01 X2.9500 Y17.0700 F120.00
G01 X2.9454 Y17.1631 F120.00
G01 X2.9317 Y17.2553 F120.00
G01 X2.9091 Y17.3458 F120.00
G01 X2.8777 Y17.4335 F120.00
G01 X2.8378 Y17.5178 F120.00
G01 X2.7899 Y17.5978 F120.00
G01 X2.7344 Y17.6727 F120.00
G01 X2.6718 Y17.7418 F120.00
G01 X2.6027 Y17.8044 F120.00
G01 X2.5278 Y17.8599 F120.00
G01 X2.4478 Y17.9078 F120.00
G01 X2.3635 Y17.9477 F120.00
G01 X2.2758 Y17.9791 F120.00
G01 X2.1853 Y18.0017 F120.00
G01 X2.0931 Y18.0154 F120.00
G01 X2.0000 Y18.0200 F120.00
G01 X1.9069 Y18.0154 F120.00
G01 X1.8147 Y18.0017 F120.00
G01 X1.7242 Y17.9791 F120.00
G01 X1.6365 Y17.9477 F120.00
G01 X1.5522 Y17.9078 F120.00
G01 X1.4722 Y17.8599 F120.00
G01 X1.3973 Y17.8044 F120.00
G01 X1.3282 Y17.7418 F120.00
G01 X1.2656 Y17.6727 F120.00
G01 X1.2101 Y17.5978 F120.00
G01 X1.1622 Y17.5178 F120.00
G01 X1.1223 Y17.4335 F120.00
G01 X1.0909 Y17.3458 F120.00
G01 X1.0683 Y17.2553 F120.00
G01 X1.0546 Y17.1631 F120.00
G01 X1.0500 Y17.0700 F120.00
G01 X1.0546 Y16.9769 F120.00
G01 X1.0683 Y16.8847 F120.00
G01 X1.0909 Y16.7942 F120.00
G01 X1.1223 Y16.7065 F120.00
G01 X1.1622 Y16.6222 F120.00
G01 X1.2101 Y16.5422 F120.00
G01 X1.2656 Y16.4673 F120.00
G01 X1.3282 Y16.3982 F120.00
G01 X1.3973 Y16.3356 F120.00
G01 X1.4722 Y16.2801 F120.00
G01 X1.5522 Y16.2322 F120.00
G01 X1.6365 Y16.1923 F120.00
G01 X1.7242 Y16.1609 F120.00
G01 X1.8147 Y16.1383 F120.00
G01 X1.9069 Y16.1246 F120.00
G01 X1.9951 Y16.1201 F120.00
G01 X2.0049 Y16.1201 F120.00
G00 Z2.0000
G00 X1.6184 Y18.1538
G01 F60.00
G01 Z-0.0500
G01 F120.00
G01 X1.6592 Y18.1683 F120.00
G01 X1.6732 Y18.1725 F120.00
G01 X1.7613 Y18.1947 F120.00
G01 X1.7829 Y18.1993 F120.00
G01 X1.8727 Y18.2127 F120.00
G01 X1.8873 Y18.2145 F120.00
G01 X1.9020 Y18.2155 F120.00
G01 X1.9853 Y18.2196 F120.00
G01 X2.0000 Y18.2200 F120.00
G01 X2.0147 Y18.2196 F120.00
G01 X2.0980 Y18.2155 F120.00
G01 X2.1127 Y18.2145 F120.00
G01 X2.1273 Y18.2127 F120.00
G01 X2.2171 Y18.1993 F120.00
G01 X2.2387 Y18.1947 F120.00
G01 X2.3268 Y18.1725 F120.00
G01 X2.3408 Y18.1683 F120.00
G01 X2.3753 Y18.1560 F120.00
G01 X2.3660 Y18.1759 F120.00
G01 X2.3581 Y18.1967 F120.00
G01 X2.3517 Y18.2182 F120.00
G01 X2.3469 Y18.2400 F120.00
G01 X2.3438 Y18.2621 F120.00
G01 X2.3366 Y18.3316 F120.00
G01 X2.3351 Y18.3539 F120.00
G01 X2.3351 Y18.3688 F120.00
G01 X2.3364 Y18.3911 F120.00
G01 X2.3393 Y18.4133 F120.00
G01 X2.3439 Y18.4351 F120.00
G01 X2.3479 Y18.4495 F120.00
G01 X2.3526 Y18.4636 F120.00
G01 X2.3609 Y18.4844 F120.00
G01 X2.3673 Y18.4978 F120.00
G01 X2.3816 Y18.5262 F120.00
G01 X2.3408 Y18.5117 F120.00
G01 X2.3268 Y18.5075 F120.00
G01 X2.2387 Y18.4853 F120.00
G01 X2.2171 Y18.4807 F120.00
G01 X2.1273 Y18.4673 F120.00
G01 X2.1127 Y18.4655 F120.00
G01 X2.0980 Y18.4645 F120.00
G01 X2.0147 Y18.4604 F120.00
G01 X2.0000 Y18.4600 F120.00
G01 X1.9853 Y18.4604 F120.00
G01 X1.9020 Y18.4645 F120.00
G01 X1.8873 Y18.4655 F120.00
G01 X1.8727 Y18.4673 F120.00
G01 X1.7829 Y18.4807 F120.00
G01 X1.7613 Y18.4853 F120.00
G01 X1.6732 Y18.5075 F120.00
G01 X1.6592 Y18.5117 F120.00
G01 X1.6247 Y18.5240 F120.00
G01 X1.6340 Y18.5041 F120.00
G01 X1.6419 Y18.4833 F120.00
G01 X1.6483 Y18.4618 F120.00
G01 X1.6531 Y18.4400 F120.00
G01 X1.6562 Y18.4179 F120.00
G01 X1.6634 Y18.3484 F120.00
G01 X1.6649 Y18.3261 F120.00
G01 X1.6649 Y18.3112 F120.00
G01 X1.6636 Y18.2889 F120.00
G01 X1.6607 Y18.2667 F120.00
G01 X1.6578 Y18.2521 F120.00
G01 X1.6521 Y18.2305 F120.00
G01 X1.6448 Y18.2094 F120.00
G01 X1.6391 Y18.1956 F120.00
G01 X1.6327 Y18.1822 F120.00
G01 X1.6184 Y18.1538 F120.00
G00 Z2.0000
G00 X2.0098 Y18.5602
G01 F60.00
G01 Z-0.0500
G01 F120.00
G01 X2.1029 Y18.5651 F120.00
G01 X2.2048 Y18.5802 F120.00
G01 X2.3048 Y18.6052 F120.00
G01 X2.4018 Y18.6399 F120.00
G01 X2.4950 Y18.6840 F120.00
G01 X2.5833 Y18.7370 F120.00
G01 X2.6661 Y18.7983 F120.00
G01 X2.7425 Y18.8675 F120.00
G01 X2.8117 Y18.9439 F120.00
G01 X2.8730 Y19.0267 F120.00
G01 X2.9260 Y19.1150 F120.00
G01 X2.9701 Y19.2082 F120.00
G01 X3.0048 Y19.3052 F120.00
G01 X3.0298 Y19.4052 F120.00
G01 X3.0449 Y19.5071 F120.00
G01 X3.0500 Y19.6100 F120.00
G01 X3.0449 Y19.7129 F120.00
G01 X3.0298 Y19.8148 F120.00
G01 X3.0048 Y19.9148 F120.00
G01 X2.9701 Y20.0118 F120.00
G01 X2.9260 Y20.1050 F120.00
G01 X2.8730 Y20.1933 F120.00
G01 X2.8117 Y20.2761 F120.00
G01 X2.7425 Y20.3525 F120.00
G01 X2.6661 Y20.4217 F120.00
G01 X2.5833 Y20.4830 F120.00
G01 X2.4950 Y20.5360 F120.00
G01 X2.4018 Y20.5801 F120.00
G01 X2.3048 Y20.6148 F120.00
G01 X2.2048 Y20.6398 F120.00
G01 X2.1029 Y20.6549 F120.00
G01 X2.0000 Y20.6600 F120.00
G01 X1.8971 Y20.6549 F120.00
G01 X1.7952 Y20.6398 F120.00
G01 X1.6952 Y20.6148 F120.00
G01 X1.5982 Y20.5801 F120.00
G01 X1.5050 Y20.5360 F120.00
G01 X1.4167 Y20.4830 F120.00
G01 X1.3339 Y20.4217 F120.00
G01 X1.2575 Y20.3525 F120.00
G01 X1.1883 Y20.2761 F120.00
G01 X1.1270 Y20.1933 F120.00
G01 X1.0740 Y20.1050 F120.00
G01 X1.0299 Y20.0118 F120.00
G01 X0.9952 Y19.9148 F120.00
G01 X0.9702 Y19.8148 F120.00
G01 X0.9551 Y19.7129 F120.00
G01 X0.9500 Y19.6100 F120.00
G01 X0.9551 Y19.5071 F120.00
G01 X0.9702 Y19.4052 F120.00
G01 X0.9952 Y19.3052 F120.00
G01 X1.0299 Y19.2082 F120.00
G01 X1.0740 Y19.1150 F120.00
G01 X1.1270 Y19.0267 F120.00
G01 X1.1883 Y18.9439 F120.00
G01 X1.2575 Y18.8675 F120.00
G01 X1.3339 Y18.7983 F120.00
G01 X1.4167 Y18.7370 F120.00
G01 X1.5050 Y18.6840 F120.00
G01 X1.5982 Y18.6399 F120.00
G01 X1.6952 Y18.6052 F120.00
G01 X1.7952 Y18.5802 F120.00
G01 X1.8971 Y18.5651 F120.00
G01 X1.9902 Y18.5602 F120.00
G01 X2.0098 Y18.5602 F120.00
G00 Z2.0000
G00 X2.0049 Y18.6601
G01 F60.00
G01 Z-0.0500
G01 F120.00
G01 X2.0931 Y18.6646 F120.00
G01 X2.1853 Y18.6783 F120.00
G01 X2.2758 Y18.7009 F120.00
G01 X2.3635 Y18.7323 F120.00
G01 X2.4478 Y18.7722 F120.00
G01 X2.5278 Y18.8201 F120.00
G01 X2.6027 Y18.8756 F120.00
G01 X2.6718 Y18.9382 F120.00
G01 X2.7344 Y19.0073 F120.00
G01 X2.7899 Y19.0822 F120.00
G01 X2.8378 Y19.1622 F120.00
G01 X2.8777 Y19.2465 F120.00
G01 X2.9091 Y19.3342 F120.00
G01 X2.9317 Y19.4247 F120.00
G01 X2.9454 Y19.5169 F120.00
G01 X2.9500 Y19.6100 F120.00
G01 X2.9454 Y19.7031 F120.00
G01 X2.9317 Y19.7953 F120.00
G01 X2.9091 Y19.8858 F120.00
G01 X2.8777 Y19.9735 F120.00
G01 X2.8378 Y20.0578 F120.00
G01 X2.7899 Y20.1378 F120.00
G01 X2.7344 Y20.2127 F120.00
G01 X2.6718 Y20.2818 F120.00
G01 X2.6027 Y20.3444 F120.00
G01 X2.5278 Y20.3999 F120.00
G01 X2.4478 Y20.4478 F120.00
G01 X2.3635 Y20.4877 F120.00
G01 X2.2758 Y20.5191 F120.00
G01 X2.1853 Y20.5417 F120.00
G01 X2.0931 Y20.5554 F120.00
G01 X2.0000 Y20.5600 F120.00
G01 X1.9069 Y20.5554 F120.00
G01 X1.8147 Y20.5417 F120.00
G01 X1.7242 Y20.5191 F120.00
G01 X1.6365 Y20.4877 F120.00
G01 X1.5522 Y20.4478 F120.00
G01 X1.4722 Y20.3999 F120.00
G01 X1.3973 Y20.3444 F120.00
G01 X1.3282 Y20.2818 F120.00
G01 X1.2656 Y20.2127 F120.00
G01 X1.2101 Y20.1378 F120.00
G01 X1.1622 Y20.0578 F120.00
G01 X1.1223 Y19.9735 F120.00
G01 X1.0909 Y19.8858 F120.00
G01 X1.0683 Y19.7953 F120.00
G01 X1.0546 Y19.7031 F120.00
G01 X1.0500 Y19.6100 F120.00
G01 X1.0546 Y19.5169 F120.00
G01 X1.0683 Y19.4247 F120.00
G01 X1.0909 Y19.3342 F120.00
G01 X1.1223 Y19.2465 F120.00
G01 X1.1622 Y19.1622 F120.00
G01 X1.2101 Y19.0822 F120.00
G01 X1.2656 Y19.0073 F120.00
G01 X1.3282 Y18.9382 F120.00
G01 X1.3973 Y18.8756 F120.00
G01 X1.4722 Y18.8201 F120.00
G01 X1.5522 Y18.7722 F120.00
G01 X1.6365 Y18.7323 F120.00
G01 X1.7242 Y18.7009 F120.00
G01 X1.8147 Y18.6783 F120.00
G01 X1.9069 Y18.6646 F120.00
G01 X1.9951 Y18.6601 F120.00
G01 X2.0049 Y18.6601 F120.00
G00 Z2.0000
G00 X1.6184 Y20.6938
G01 F60.00
G01 Z-0.0500
G01 F120.00
G01 X1.6592 Y20.7083 F120.00
G01 X1.6732 Y20.7125 F120.00
G01 X1.7613 Y20.7347 F120.00
G01 X1.7829 Y20.7393 F120.00
G01 X1.8727 Y20.7527 F120.00
G01 X1.8873 Y20.7545 F120.00
G01 X1.9020 Y20.7555 F120.00
G01 X1.9853 Y20.7596 F120.00
G01 X2.0000 Y20.7600 F120.00
G01 X2.0147 Y20.7596 F120.00
G01 X2.0980 Y20.7555 F120.00
G01 X2.1127 Y20.7545 F120.00
G01 X2.1273 Y20.7527 F120.00
G01 X2.2171 Y20.7393 F120.00
G01 X2.2387 Y20.7347 F120.00
G01 X2.3268 Y20.7125 F120.00
G01 X2.3408 Y20.7083 F120.00
G01 X2.3753 Y20.6960 F120.00
G01 X2.3660 Y20.7159 F120.00
G01 X2.3581 Y20.7367 F120.00
G01 X2.3517 Y20.7582 F120.00
G01 X2.3469 Y20.7800 F120.00
G01 X2.3438 Y20.8021 F120.00
G01 X2.3366 Y20.8716 F120.00
G01 X2.3351 Y20.8939 F120.00
G01 X2.3351 Y20.9088 F120.00
G01 X2.3358 Y20.9237 F120.00
G01 X2.3382 Y20.9459 F120.00
G01 X2.3422 Y20.9679 F120.00
G01 X2.3479 Y20.9895 F120.00
G01 X2.3552 Y21.0106 F120.00
G01 X2.3609 Y21.0244 F120.00
G01 X2.3673 Y21.0378 F120.00
G01 X2.3816 Y21.0662 F120.00
G01 X2.3408 Y21.0517 F120.00
G01 X2.3268 Y21.0475 F120.00
G01 X2.2387 Y21.0253 F120.00
G01 X2.2171 Y21.0207 F120.00
G01 X2.1273 Y21.0073 F120.00
G01 X2.1127 Y21.0055 F120.00
G01 X2.0980 Y21.0045 F120.00
G01 X2.0147 Y21.0004 F120.00
G01 X2.0000 Y21.0000 F120.00
G01 X1.9853 Y21.0004 F120.00
G01 X1.9020 Y21.0045 F120.00
G01 X1.8873 Y21.0055 F120.00
G01 X1.8727 Y21.0073 F120.00
G01 X1.7829 Y21.0207 F120.00
G01 X1.7613 Y21.0253 F120.00
G01 X1.6732 Y21.0475 F120.00
G01 X1.6592 Y21.0517 F120.00
G01 X1.6247 Y21.0640 F120.00
G01 X1.6340 Y21.0441 F120.00
G01 X1.6419 Y21.0233 F120.00
G01 X1.6483 Y21.0018 F120.00
G01 X1.6531 Y20.9800 F120.00
G01 X1.6562 Y20.9579 F120.00
G01 X1.6634 Y20.8884 F120.00
G01 X1.6649 Y20.8661 F120.00
G01 X1.6649 Y20.8512 F120.00
G01 X1.6636 Y20.8289 F120.00
G01 X1.6607 Y20.8067 F120.00
G01 X1.6578 Y20.7921 F120.00
G01 X1.6521 Y20.7705 F120.00
G01 X1.6448 Y20.7494 F120.00
G01 X1.6391 Y20.7356 F120.00
G01 X1.6327 Y20.7222 F120.00
G01 X1.6184 Y20.6938 F120.00
G00 Z2.0000
G00 X2.0098 Y21.1002
G01 F60.00
G01 Z-0.0500
G01 F120.00
G01 X2.1029 Y21.1051 F120.00
G01 X2.2048 Y21.1202 F120.00
G01 X2.3048 Y21.1452 F120.00
G01 X2.4018 Y21.1799 F120.00
G01 X2.4950 Y21.2240 F120.00
G01 X2.5833 Y21.2770 F120.00
G01 X2.6661 Y21.3383 F120.00
G01 X2.7425 Y21.4075 F120.00
G01 X2.8117 Y21.4839 F120.00
G01 X2.8730 Y21.5667 F120.00
G01 X2.9260 Y21.6550 F120.00
G01 X2.9701 Y21.7482 F120.00
G01 X3.0048 Y21.8452 F120.00
G01 X3.0298 Y21.9452 F120.00
G01 X3.0449 Y22.0471 F120.00
G01 X3.0500 Y22.1500 F120.00
G01 X3.0449 Y22.2529 F120.00
G01 X3.0298 Y22.3548 F120.00
G01 X3.0048 Y22.4548 F120.00
G01 X2.9701 Y22.5518 F120.00
G01 X2.9260 Y22.6450 F120.00
G01 X2.8730 Y22.7333 F120.00
G01 X2.8117 Y22.8161 F120.00
G01 X2.7425 Y22.8925 F120.00
G01 X2.6661 Y22.9617 F120.00
G01 X2.5833 Y23.0230 F120.00
G01 X2.4950 Y23.0760 F120.00
G01 X2.4018 Y23.1201 F120.00
G01 X2.3048 Y23.1548 F120.00
G01 X2.2048 Y23.1798 F120.00
G01 X2.1029 Y23.1949 F120.00
G01 X2.0000 Y23.2000 F120.00
G01 X1.8971 Y23.1949 F120.00
G01 X1.7952 Y23.1798 F120.00
G01 X1.6952 Y23.1548 F120.00
G01 X1.5982 Y23.1201 F120.00
G01 X1.5050 Y23.0760 F120.00
G01 X1.4167 Y23.0230 F120.00
G01 X1.3339 Y22.9617 F120.00
G01 X1.2575 Y22.8925 F120.00
G01 X1.1883 Y22.8161 F120.00
G01 X1.1270 Y22.7333 F120.00
G01 X1.0740 Y22.6450 F120.00
G01 X1.0299 Y22.5518 F120.00
G01 X0.9952 Y22.4548 F120.00
G01 X0.9702 Y22.3548 F120.00
G01 X0.9551 Y22.2529 F120.00
G01 X0.9500 Y22.1500 F120.00
G01 X0.9551 Y22.0471 F120.00
G01 X0.9702 Y21.9452 F120.00
G01 X0.9952 Y21.8452 F120.00
G01 X1.0299 Y21.7482 F120.00
G01 X1.0740 Y21.6550 F120.00
G01 X1.1270 Y21.5667 F120.00
G01 X1.1883 Y21.4839 F120.00
G01 X1.2575 Y21.4075 F120.00
G01 X1.3339 Y21.3383 F120.00
G01 X1.4167 Y21.2770 F120.00
G01 X1.5050 Y21.2240 F120.00
G01 X1.5982 Y21.1799 F120.00
G01 X1.6952 Y21.1452 F120.00
G01 X1.7952 Y21.1202 F120.00
G01 X1.8971 Y21.1051 F120.00
G01 X1.9902 Y21.1002 F120.00
G01 X2.0098 Y21.1002 F120.00
G00 Z2.0000
G00 X2.0049 Y21.2001
G01 F60.00
G01 Z-0.0500
G01 F120.00
G01 X2.0931 Y21.2046 F120.00
G01 X2.1853 Y21.2183 F120.00
G01 X2.2758 Y21.2409 F120.00
G01 X2.3635 Y21.2723 F120.00
G01 X2.4478 Y21.3122 F120.00
G01 X2.5278 Y21.3601 F120.00
G01 X2.6027 Y21.4156 F120.00
G01 X2.6718 Y21.4782 F120.00
G01 X2.7344 Y21.5473 F120.00
G01 X2.7899 Y21.6222 F120.00
G01 X2.8378 Y21.7022 F120.00
G01 X2.8777 Y21.7865 F120.00
G01 X2.9091 Y21.8742 F120.00
G01 X2.9317 Y21.9647 F120.00
G01 X2.9454 Y22.0569 F120.00
G01 X2.9500 Y22.1500 F120.00
G01 X2.9454 Y22.2431 F120.00
G01 X2.9317 Y22.3353 F120.00
G01 X2.9091 Y22.4258 F120.00
G01 X2.8777 Y22.5135 F120.00
G01 X2.8378 Y22.5978 F120.00
G01 X2.7899 Y22.6778 F120.00
G01 X2.7344 Y22.7527 F120.00
G01 X2.6718 Y22.8218 F120.00
G01 X2.6027 Y22.8844 F120.00
G01 X2.5278 Y22.9399 F120.00
G01 X2.4478 Y22.9878 F120.00
G01 X2.3635 Y23.0277 F120.00
G01 X2.2758 Y23.0591 F120.00
G01 X2.1853 Y23.0817 F120.00
G01 X2.0931 Y23.0954 F120.00
G01 X2.0000 Y23.1000 F120.00
G01 X1.9069 Y23.0954 F120.00
G01 X1.8147 Y23.0817 F120.00
G01 X1.7242 Y23.0591 F120.00
G01 X1.6365 Y23.0277 F120.00
G01 X1.5522 Y22.9878 F120.00
G01 X1.4722 Y22.9399 F120.00
G01 X1.3973 Y22.8844 F120.00
G01 X1.3282 Y22.8218 F120.00
G01 X1.2656 Y22.7527 F120.00
G01 X1.2101 Y22.6778 F120.00
G01 X1.1622 Y22.5978 F120.00
G01 X1.1223 Y22.5135 F120.00
G01 X1.0909 Y22.4258 F120.00
G01 X1.0683 Y22.3353 F120.00
G01 X1.0546 Y22.2431 F120.00
G01 X1.0500 Y22.1500 F120.00
G01 X1.0546 Y22.0569 F120.00
G01 X1.0683 Y21.9647 F120.00
G01 X1.0909 Y21.8742 F120.00
G01 X1.1223 Y21.7865 F120.00
G01 X1.1622 Y21.7022 F120.00
G01 X1.2101 Y21.6222 F120.00
G01 X1.2656 Y21.5473 F120.00
G01 X1.3282 Y21.4782 F120.00
G01 X1.3973 Y21.4156 F120.00
G01 X1.4722 Y21.3601 F120.00
G01 X1.5522 Y21.3122 F120.00
G01 X1.6365 Y21.2723 F120.00
G01 X1.7242 Y21.2409 F120.00
G01 X1.8147 Y21.2183 F120.00
G01 X1.9069 Y21.2046 F120.00
G01 X1.9951 Y21.2001 F120.00
G01 X2.0049 Y21.2001 F120.00
G00 Z2.0000
G00 X1.6184 Y23.2338
G01 F60.00
G01 Z-0.0500
G01 F120.00
G01 X1.6592 Y23.2483 F120.00
G01 X1.6732 Y23.2525 F120.00
G01 X1.7613 Y23.2747 F120.00
G01 X1.7829 Y23.2793 F120.00
G01 X1.8727 Y23.2927 F120.00
G01 X1.8873 Y23.2945 F120.00
G01 X1.9020 Y23.2955 F120.00
G01 X1.9853 Y23.2996 F120.00
G01 X2.0000 Y23.3000 F120.00
G01 X2.0147 Y23.2996 F120.00
G01 X2.0980 Y23.2955 F120.00
G01 X2.1127 Y23.2945 F120.00
G01 X2.1273 Y23.2927 F120.00
G01 X2.2171 Y23.2793 F120.00
G01 X2.2387 Y23.2747 F120.00
G01 X2.3268 Y23.2525 F120.00
G01 X2.3408 Y23.2483 F120.00
G01 X2.3753 Y23.2360 F120.00
G01 X2.3660 Y23.2559 F120.00
G01 X2.3581 Y23.2767 F120.00
G01 X2.3517 Y23.2982 F120.00
G01 X2.3469 Y23.3200 F120.00
G01 X2.3438 Y23.3421 F120.00
G01 X2.3366 Y23.4116 F120.00
G01 X2.3351 Y23.4339 F120.00
G01 X2.3351 Y23.4488 F120.00
G01 X2.3364 Y23.4711 F120.00
G01 X2.3382 Y23.4859 F120.00
G01 X2.3422 Y23.5079 F120.00
G01 X2.3479 Y23.5295 F120.00
G01 X2.3552 Y23.5506 F120.00
G01 X2.3609 Y23.5644 F120.00
G01 X2.3673 Y23.5779 F120.00
G01 X2.3816 Y23.6062 F120.00
G01 X2.3408 Y23.5917 F120.00
G01 X2.3268 Y23.5875 F120.00
G01 X2.2387 Y23.5653 F120.00
G01 X2.2171 Y23.5607 F120.00
G01 X2.1273 Y23.5473 F120.00
G01 X2.1127 Y23.5455 F120.00
G01 X2.0980 Y23.5445 F120.00
G01 X2.0147 Y23.5404 F120.00
G01 X2.0000 Y23.5400 F120.00
G01 X1.9853 Y23.5404 F120.00
G01 X1.9020 Y23.5445 F120.00
G01 X1.8873 Y23.5455 F120.00
G01 X1.8727 Y23.5473 F120.00
G01 X1.7829 Y23.5607 F120.00
G01 X1.7613 Y23.5653 F120.00
G01 X1.6732 Y23.5875 F120.00
G01 X1.6592 Y23.5917 F120.00
G01 X1.6247 Y23.6040 F120.00
G01 X1.6340 Y23.5841 F120.00
G01 X1.6419 Y23.5633 F120.00
G01 X1.6483 Y23.5418 F120.00
G01 X1.6531 Y23.5200 F120.00
G01 X1.6562 Y23.4979 F120.00
G01 X1.6634 Y23.4284 F120.00
G01 X1.6645 Y23.4135 F120.00
G01 X1.6649 Y23.3912 F120.00
G01 X1.6636 Y23.3689 F120.00
G01 X1.6607 Y23.3467 F120.00
G01 X1.6561 Y23.3249 F120.00
G01 X1.6521 Y23.3105 F120.00
G01 X1.6448 Y23.2894 F120.00
G01 X1.6391 Y23.2756 F120.00
G01 X1.6327 Y23.2622 F120.00
G01 X1.6184 Y23.2338 F120.00
G00 Z2.0000
G00 X2.0098 Y23.6402
G01 F60.00
G01 Z-0.0500
G01 F120.00
G01 X2.1029 Y23.6451 F120.00
G01 X2.2048 Y23.6602 F120.00
G01 X2.3048 Y23.6852 F120.00
G01 X2.4018 Y23.7199 F120.00
G01 X2.4950 Y23.7640 F120.00
G01 X2.5833 Y23.8170 F120.00
G01 X2.6661 Y23.8783 F120.00
G01 X2.7425 Y23.9475 F120.00
G01 X2.8117 Y24.0239 F120.00
G01 X2.8730 Y24.1067 F120.00
G01 X2.9260 Y24.1950 F120.00
G01 X2.9701 Y24.2882 F120.00
G01 X3.0048 Y24.3852 F120.00
G01 X3.0298 Y24.4852 F120.00
G01 X3.0449 Y24.5871 F120.00
G01 X3.0500 Y24.6900 F120.00
G01 X3.0449 Y24.7929 F120.00
G01 X3.0298 Y24.8948 F120.00
G01 X3.0048 Y24.9948 F120.00
G01 X2.9701 Y25.0918 F120.00
G01 X2.9260 Y25.1850 F120.00
G01 X2.8730 Y25.2733 F120.00
G01 X2.8117 Y25.3561 F120.00
G01 X2.7425 Y25.4325 F120.00
G01 X2.6661 Y25.5017 F120.00
G01 X2.5833 Y25.5630 F120.00
G01 X2.4950 Y25.6160 F120.00
G01 X2.4018 Y25.6601 F120.00
G01 X2.3048 Y25.6948 F120.00
G01 X2.2048 Y25.7198 F120.00
G01 X2.1029 Y25.7349 F120.00
G01 X2.0000 Y25.7400 F120.00
G01 X1.8971 Y25.7349 F120.00
G01 X1.7952 Y25.7198 F120.00
G01 X1.6952 Y25.6948 F120.00
G01 X1.5982 Y25.6601 F120.00
G01 X1.5050 Y25.6160 F120.00
G01 X1.4167 Y25.5630 F120.00
G01 X1.3339 Y25.5017 F120.00
G01 X1.2575 Y25.4325 F120.00
G01 X1.1883 Y25.3561 F120.00
G01 X1.1270 Y25.2733 F120.00
G01 X1.0740 Y25.1850 F120.00
G01 X1.0299 Y25.0918 F120.00
G01 X0.9952 Y24.9948 F120.00
G01 X0.9702 Y24.8948 F120.00
G01 X0.9551 Y24.7929 F120.00
G01 X0.9500 Y24.6900 F120.00
G01 X0.9551 Y24.5871 F120.00
G01 X0.9702 Y24.4852 F120.00
G01 X0.9952 Y24.3852 F120.00
G01 X1.0299 Y24.2882 F120.00
G01 X1.0740 Y24.1950 F120.00
G01 X1.1270 Y24.1067 F120.00
G01 X1.1883 Y24.0239 F120.00
G01 X1.2575 Y23.9475 F120.00
G01 X1.3339 Y23.8783 F120.00
G01 X1.4167 Y23.8170 F120.00
G01 X1.5050 Y23.7640 F120.00
G01 X1.5982 Y23.7199 F120.00
G01 X1.6952 Y23.6852 F120.00
G01 X1.7952 Y23.6602 F120.00
G01 X1.8971 Y23.6451 F120.00
G01 X1.9902 Y23.6402 F120.00
G01 X2.0098 Y23.6402 F120.00
G00 Z2.0000
G00 X2.0049 Y23.7401
G01 F60.00
G01 Z-0.0500
G01 F120.00
G01 X2.0931 Y23.7446 F120.00
G01 X2.1853 Y23.7583 F120.00
G01 X2.2758 Y23.7809 F120.00
G01 X2.3635 Y23.8123 F120.00
G01 X2.4478 Y23.8522 F120.00
G01 X2.5278 Y23.9001 F120.00
G01 X2.6027 Y23.9556 F120.00
G01 X2.6718 Y24.0182 F120.00
G01 X2.7344 Y24.0873 F120.00
G01 X2.7899 Y24.1622 F120.00
G01 X2.8378 Y24.2422 F120.00
G01 X2.8777 Y24.3265 F120.00
G01 X2.9091 Y24.4142 F120.00
G01 X2.9317 Y24.5047 F120.00
G01 X2.9454 Y24.5969 F120.00
G01 X2.9500 Y24.6900 F120.00
G01 X2.9454 Y24.7831 F120.00
G01 X2.9317 Y24.8753 F120.00
G01 X2.9091 Y24.9658 F120.00
G01 X2.8777 Y25.0535 F120.00
G01 X2.8378 Y25.1378 F120.00
G01 X2.7899 Y25.2178 F120.00
G01 X2.7344 Y25.2927 F120.00
G01 X2.6718 Y25.3618 F120.00
G01 X2.6027 Y25.4244 F120.00
G01 X2.5278 Y25.4799 F120.00
G01 X2.4478 Y25.5278 F120.00
G01 X2.3635 Y25.5677 F120.00
G01 X2.2758 Y25.5991 F120.00
G01 X2.1853 Y25.6217 F120.00
G01 X2.0931 Y25.6354 F120.00
G01 X2.0000 Y25.6400 F120.00
G01 X1.9069 Y25.6354 F120.00
G01 X1.8147 Y25.6217 F120.00
G01 X1.7242 Y25.5991 F120.00
G01 X1.6365 Y25.5677 F120.00
G01 X1.5522 Y25.5278 F120.00
G01 X1.4722 Y25.4799 F120.00
G01 X1.3973 Y25.4244 F120.00
G01 X1.3282 Y25.3618 F120.00
G01 X1.2656 Y25.2927 F120.00
G01 X1.2101 Y25.2178 F120.00
G01 X1.1622 Y25.1378 F120.00
G01 X1.1223 Y25.0535 F120.00
G01 X1.0909 Y24.9658 F120.00
G01 X1.0683 Y24.8753 F120.00
G01 X1.0546 Y24.7831 F120.00
G01 X1.0500 Y24.6900 F120.00
G01 X1.0546 Y24.5969 F120.00
G01 X1.0683 Y24.5047 F120.00
G01 X1.0909 Y24.4142 F120.00
G01 X1.1223 Y24.3265 F120.00
G01 X1.1622 Y24.2422 F120.00
G01 X1.2101 Y24.1622 F120.00
G01 X1.2656 Y24.0873 F120.00
G01 X1.3282 Y24.0182 F120.00
G01 X1.3973 Y23.9556 F120.00
G01 X1.4722 Y23.9001 F120.00
G01 X1.5522 Y23.8522 F120.00
G01 X1.6365 Y23.8123 F120.00
G01 X1.7242 Y23.7809 F120.00
G01 X1.8147 Y23.7583 F120.00
G01 X1.9069 Y23.7446 F120.00
G01 X1.9951 Y23.7401 F120.00
G01 X2.0049 Y23.7401 F120.00
G00 Z2.0000
G00 X1.6184 Y25.7738
G01 F60.00
G01 Z-0.0500
G01 F120.00
G01 X1.6592 Y25.7883 F120.00
G01 X1.6732 Y25.7925 F120.00
G01 X1.7613 Y25.8147 F120.00
G01 X1.7829 Y25.8193 F120.00
G01 X1.8727 Y25.8327 F120.00
G01 X1.8873 Y25.8345 F120.00
G01 X1.9020 Y25.8355 F120.00
G01 X1.9853 Y25.8396 F120.00
G01 X2.0000 Y25.8400 F120.00
G01 X2.0147 Y25.8396 F120.00
G01 X2.0980 Y25.8355 F120.00
G01 X2.1127 Y25.8345 F120.00
G01 X2.1273 Y25.8327 F120.00
G01 X2.2171 Y25.8193 F120.00
G01 X2.2387 Y25.8147 F120.00
G01 X2.3268 Y25.7925 F120.00
G01 X2.3408 Y25.7883 F120.00
G01 X2.3753 Y25.7760 F120.00
G01 X2.3660 Y25.7959 F120.00
G01 X2.3581 Y25.8167 F120.00
G01 X2.3517 Y25.8382 F120.00
G01 X2.3469 Y25.8600 F120.00
G01 X2.3438 Y25.8821 F120.00
G01 X2.3366 Y25.9516 F120.00
G01 X2.3351 Y25.9739 F120.00
G01 X2.3351 Y25.9888 F120.00
G01 X2.3358 Y26.0037 F120.00
G01 X2.3382 Y26.0259 F120.00
G01 X2.3422 Y26.0479 F120.00
G01 X2.3479 Y26.0695 F120.00
G01 X2.3552 Y26.0906 F120.00
G01 X2.3609 Y26.1044 F120.00
G01 X2.3673 Y26.1178 F120.00
G01 X2.3816 Y26.1462 F120.00
G01 X2.3408 Y26.1317 F120.00
G01 X2.3268 Y26.1275 F120.00
G01 X2.2387 Y26.1053 F120.00
G01 X2.2171 Y26.1007 F120.00
G01 X2.1273 Y26.0873 F120.00
G01 X2.1127 Y26.0855 F120.00
G01 X2.0980 Y26.0845 F120.00
G01 X2.0147 Y26.0804 F120.00
G01 X2.0000 Y26.0800 F120.00
G01 X1.9853 Y26.0804 F120.00
G01 X1.9020 Y26.0845 F120.00
G01 X1.8873 Y26.0855 F120.00
G01 X1.8727 Y26.0873 F120.00
G01 X1.7829 Y26.1007 F120.00
G01 X1.7613 Y26.1053 F120.00
G01 X1.6732 Y26.1275 F120.00
G01 X1.6592 Y26.1317 F120.00
G01 X1.6247 Y26.1440 F120.00
G01 X1.6340 Y26.1241 F120.00
G01 X1.6419 Y26.1033 F120.00
G01 X1.6483 Y26.0818 F120.00
G01 X1.6531 Y26.0600 F120.00
G01 X1.6562 Y26.0379 F120.00
G01 X1.6634 Y25.9684 F120.00
G01 X1.6649 Y25.9461 F120.00
G01 X1.6649 Y25.9312 F120.00
G01 X1.6636 Y25.9089 F120.00
G01 X1.6607 Y25.8867 F120.00
G01 X1.6578 Y25.8721 F120.00
G01 X1.6521 Y25.8505 F120.00
G01 X1.6448 Y25.8294 F120.00
G01 X1.6391 Y25.8156 F120.00
G01 X1.6327 Y25.8022 F120.00
G01 X1.6184 Y25.7738 F120.00
G00 Z2.0000
G00 X2.0098 Y26.1802
G01 F60.00
G01 Z-0.0500
G01 F120.00
G01 X2.1029 Y26.1851 F120.00
G01 X2.2048 Y26.2002 F120.00
G01 X2.3048 Y26.2252 F120.00
G01 X2.4018 Y26.2599 F120.00
G01 X2.4950 Y26.3040 F120.00
G01 X2.5833 Y26.3570 F120.00
G01 X2.6661 Y26.4183 F120.00
G01 X2.7425 Y26.4875 F120.00
G01 X2.8117 Y26.5639 F120.00
G01 X2.8730 Y26.6467 F120.00
G01 X2.9260 Y26.7350 F120.00
G01 X2.9701 Y26.8282 F120.00
G01 X3.0048 Y26.9252 F120.00
G01 X3.0298 Y27.0252 F120.00
G01 X3.0449 Y27.1271 F120.00
G01 X3.0500 Y27.2300 F120.00
G01 X3.0449 Y27.3329 F120.00
G01 X3.0298 Y27.4348 F120.00
G01 X3.0048 Y27.5348 F120.00
G01 X2.9701 Y27.6318 F120.00
G01 X2.9260 Y27.7250 F120.00
G01 X2.8730 Y27.8133 F120.00
G01 X2.8117 Y27.8961 F120.00
G01 X2.7425 Y27.9725 F120.00
G01 X2.6661 Y28.0417 F120.00
G01 X2.5833 Y28.1030 F120.00
G01 X2.4950 Y28.1560 F120.00
G01 X2.4018 Y28.2001 F120.00
G01 X2.3048 Y28.2348 F120.00
G01 X2.2048 Y28.2598 F120.00
G01 X2.1029 Y28.2749 F120.00
G01 X2.0000 Y28.2800 F120.00
G01 X1.8971 Y28.2749 F120.00
G01 X1.7952 Y28.2598 F120.00
G01 X1.6952 Y28.2348 F120.00
G01 X1.5982 Y28.2001 F120.00
G01 X1.5050 Y28.1560 F120.00
G01 X1.4167 Y28.1030 F120.00
G01 X1.3339 Y28.0417 F120.00
G01 X1.2575 Y27.9725 F120.00
G01 X1.1883 Y27.8961 F120.00
G01 X1.1270 Y27.8133 F120.00
G01 X1.0740 Y27.7250 F120.00
G01 X1.0299 Y27.6318 F120.00
G01 X0.9952 Y27.5348 F120.00
G01 X0.9702 Y27.4348 F120.00
G01 X0.9551 Y27.3329 F120.00
G01 X0.9500 Y27.2300 F120.00
G01 X0.9551 Y27.1271 F120.00
G01 X0.9702 Y27.0252 F120.00
G01 X0.9952 Y26.9252 F120.00
G01 X1.0299 Y26.8282 F120.00
G01 X1.0740 Y26.7350 F120.00
G01 X1.1270 Y26.6467 F120.00
G01 X1.1883 Y26.5639 F120.00
G01 X1.2575 Y26.4875 F120.00
G01 X1.3339 Y26.4183 F120.00
G01 X1.4167 Y26.3570 F120.00
G01 X1.5050 Y26.3040 F120.00
G01 X1.5982 Y26.2599 F120.00
G01 X1.6952 Y26.2252 F120.00
G01 X1.7952 Y26.2002 F120.00
G01 X1.8971 Y26.1851 F120.00
G01 X1.9902 Y26.1802 F120.00
G01 X2.0098 Y26.1802 F120.00
G00 Z2.0000
G00 X2.0049 Y26.2801
G01 F60.00
G01 Z-0.0500
G01 F120.00
G01 X2.0931 Y26.2846 F120.00
G01 X2.1853 Y26.2983 F120.00
G01 X2.2758 Y26.3209 F120.00
G01 X2.3635 Y26.3523 F120.00
G01 X2.4478 Y26.3922 F120.00
G01 X2.5278 Y26.4401 F120.00
G01 X2.6027 Y26.4956 F120.00
G01 X2.6718 Y26.5582 F120.00
G01 X2.7344 Y26.6273 F120.00
G01 X2.7899 Y26.7022 F120.00
G01 X2.8378 Y26.7822 F120.00
G01 X2.8777 Y26.8665 F120.00
G01 X2.9091 Y26.9542 F120.00
G01 X2.9317 Y27.0447 F120.00
G01 X2.9454 Y27.1369 F120.00
G01 X2.9500 Y27.2300 F120.00
G01 X2.9454 Y27.3231 F120.00
G01 X2.9317 Y27.4153 F120.00
G01 X2.9091 Y27.5058 F120.00
G01 X2.8777 Y27.5935 F120.00
G01 X2.8378 Y27.6778 F120.00
G01 X2.7899 Y27.7578 F120.00
G01 X2.7344 Y27.8327 F120.00
G01 X2.6718 Y27.9018 F120.00
G01 X2.6027 Y27.9644 F120.00
G01 X2.5278 Y28.0199 F120.00
G01 X2.4478 Y28.0678 F120.00
G01 X2.3635 Y28.1077 F120.00
G01 X2.2758 Y28.1391 F120.00
G01 X2.1853 Y28.1617 F120.00
G01 X2.0931 Y28.1754 F120.00
G01 X2.0000 Y28.1800 F120.00
G01 X1.9069 Y28.1754 F120.00
G01 X1.8147 Y28.1617 F120.00
G01 X1.7242 Y28.1391 F120.00
G01 X1.6365 Y28.1077 F120.00
G01 X1.5522 Y28.0678 F120.00
G01 X1.4722 Y28.0199 F120.00
G01 X1.3973 Y27.9644 F120.00
G01 X1.3282 Y27.9018 F120.00
G01 X1.2656 Y27.8327 F120.00
G01 X1.2101 Y27.7578 F120.00
G01 X1.1622 Y27.6778 F120.00
G01 X1.1223 Y27.5935 F120.00
G01 X1.0909 Y27.5058 F120.00
G01 X1.0683 Y27.4153 F120.00
G01 X1.0546 Y27.3231 F120.00
G01 X1.0500 Y27.2300 F120.00
G01 X1.0546 Y27.1369 F120.00
G01 X1.0683 Y27.0447 F120.00
G01 X1.0909 Y26.9542 F120.00
G01 X1.1223 Y26.8665 F120.00
G01 X1.1622 Y26.7822 F120.00
G01 X1.2101 Y26.7022 F120.00
G01 X1.2656 Y26.6273 F120.00
G01 X1.3282 Y26.5582 F120.00
G01 X1.3973 Y26.4956 F120.00
G01 X1.4722 Y26.4401 F120.00
G01 X1.5522 Y26.3922 F120.00
G01 X1.6365 Y26.3523 F120.00
G01 X1.7242 Y26.3209 F120.00
G01 X1.8147 Y26.2983 F120.00
G01 X1.9069 Y26.2846 F120.00
G01 X1.9951 Y26.2801 F120.00
G01 X2.0049 Y26.2801 F120.00
G00 Z2.0000
G00 X1.6184 Y28.3138
G01 F60.00
G01 Z-0.0500
G01 F120.00
G01 X1.6592 Y28.3283 F120.00
G01 X1.6732 Y28.3325 F120.00
G01 X1.7613 Y28.3547 F120.00
G01 X1.7829 Y28.3593 F120.00
G01 X1.8727 Y28.3727 F120.00
G01 X1.8873 Y28.3745 F120.00
G01 X1.9020 Y28.3755 F120.00
G01 X1.9853 Y28.3796 F120.00
G01 X2.0000 Y28.3800 F120.00
G01 X2.0147 Y28.3796 F120.00
G01 X2.0980 Y28.3755 F120.00
G01 X2.1127 Y28.3745 F120.00
G01 X2.1273 Y28.3727 F120.00
G01 X2.2171 Y28.3593 F120.00
G01 X2.2387 Y28.3547 F120.00
G01 X2.3268 Y28.3325 F120.00
G01 X2.3408 Y28.3283 F120.00
G01 X2.3753 Y28.3160 F120.00
G01 X2.3660 Y28.3359 F120.00
G01 X2.3581 Y28.3567 F120.00
G01 X2.3517 Y28.3782 F120.00
G01 X2.3469 Y28.4000 F120.00
G01 X2.3438 Y28.4221 F120.00
G01 X2.3366 Y28.4916 F120.00
G01 X2.3351 Y28.5139 F120.00
G01 X2.3351 Y28.5288 F120.00
G01 X2.3358 Y28.5437 F120.00
G01 X2.3382 Y28.5659 F120.00
G01 X2.3422 Y28.5879 F120.00
G01 X2.3479 Y28.6095 F120.00
G01 X2.3552 Y28.6306 F120.00
G01 X2.3609 Y28.6444 F120.00
G01 X2.3673 Y28.6578 F120.00
G01 X2.3816 Y28.6862 F120.00
G01 X2.3408 Y28.6717 F120.00
G01 X2.3268 Y28.6675 F120.00
G01 X2.2387 Y28.6453 F120.00
G01 X2.2171 Y28.6407 F120.00
G01 X2.1273 Y28.6273 F120.00
G01 X2.1127 Y28.6255 F120.00
G01 X2.0980 Y28.6245 F120.00
G01 X2.0147 Y28.6204 F120.00
G01 X2.0000 Y28.6200 F120.00
G01 X1.9853 Y28.6204 F120.00
G01 X1.9020 Y28.6245 F120.00
G01 X1.8873 Y28.6255 F120.00
