(Exported by FreeCAD)
(Post Processor: grbl_post)
(Output Time:2024-05-26 21:47:53.723335)
(Begin preamble)
G17 G90
G21
(Begin operation: Fixture)
(Path: Fixture)
G54
(Finish operation: Fixture)
(Begin operation: 2mm Endmill001)
(Path: 2mm Endmill001)
(2mm Endmill001)
(Begin toolchange)
( M6 T2 )
(Finish operation: 2mm Endmill001)
(Begin operation: Pocket_Shape001)
(Path: Pocket_Shape001)
(Pocket_Shape001)
G0 Z5.000
G0 X-44.000 Y-18.800
G0 Z3.000
G1 X-44.000 Y-18.800 Z-0.500
G1 X-44.000 Y-23.099 Z-0.500
G3 X-48.038 Y-23.140 Z-0.500 I-2.002 J-1.647 K0.000
G3 X-44.000 Y-26.401 Z-0.500 I2.033 J-1.612 K0.000
G1 X-44.000 Y-27.500 Z-0.500
G1 X-48.934 Y-27.500 Z-0.500
G2 X-49.000 Y-27.434 Z-0.500 I-0.024 J0.042 K0.000
G1 X-49.000 Y-18.800 Z-0.500
G1 X-44.000 Y-18.800 Z-0.500
G0 Z5.000
G0 Y-18.800 Z5.000
G0 Y-18.800 Z3.000
G1 X-44.000 Y-18.800 Z-0.500
G1 X-46.828 Y-18.800 Z-0.500
G1 X-44.000 Y-21.628 Z-0.500
G1 X-44.000 Y-23.099 Z-0.500
G3 X-46.290 Y-22.167 Z-0.500 I-1.999 J-1.632 K0.000
G1 X-49.000 Y-19.457 Z-0.500
G1 X-49.000 Y-22.285 Z-0.500
G1 X-48.086 Y-23.199 Z-0.500
G3 X-48.417 Y-25.697 Z-0.500 I2.076 J-1.546 K0.000
G1 X-49.000 Y-25.114 Z-0.500
G0 Z5.000
G0 X-46.614 Y-27.500 Z5.000
G0 X-46.614 Y-27.500 Z3.000
G1 X-46.614 Y-27.500 Z-0.500
G1 X-48.934 Y-27.500 Z-0.500
G2 X-49.000 Y-27.434 Z-0.500 I-0.024 J0.042 K0.000
G1 X-49.000 Y-25.114 Z-0.500
G1 X-48.417 Y-25.697 Z-0.500
G3 X-46.950 Y-27.163 Z-0.500 I2.401 J0.934 K0.000
G1 X-46.614 Y-27.500 Z-0.500
G1 X-44.000 Y-27.500 Z-0.500
G1 X-44.000 Y-27.285 Z-0.500
G1 X-44.455 Y-26.830 Z-0.500
G3 X-44.000 Y-26.401 Z-0.500 I-1.002 J1.518 K0.000
G1 X-44.000 Y-27.285 Z-0.500
G1 X-44.000 Y-27.285 Z-1.000
G1 X-44.000 Y-26.401 Z-1.000
G2 X-44.455 Y-26.830 Z-1.000 I-1.457 J1.089 K0.000
G1 X-44.000 Y-27.285 Z-1.000
G1 X-44.000 Y-27.500 Z-1.000
G1 X-46.614 Y-27.500 Z-1.000
G1 X-46.950 Y-27.163 Z-1.000
G2 X-48.417 Y-25.697 Z-1.000 I0.934 J2.401 K0.000
G1 X-49.000 Y-25.114 Z-1.000
G1 X-49.000 Y-27.434 Z-1.000
G3 X-48.934 Y-27.500 Z-1.000 I0.042 J-0.024 K0.000
G1 X-46.614 Y-27.500 Z-1.000
G1 X-46.614 Y-27.500 Z-1.000
G1 X-48.934 Y-27.500 Z-1.000
G2 X-49.000 Y-27.434 Z-1.000 I-0.024 J0.042 K0.000
G1 X-49.000 Y-18.800 Z-1.000
G1 X-44.000 Y-18.800 Z-1.000
G1 X-44.000 Y-23.099 Z-1.000
G3 X-48.038 Y-23.140 Z-1.000 I-2.002 J-1.647 K0.000
G3 X-44.000 Y-26.401 Z-1.000 I2.033 J-1.612 K0.000
G1 X-44.000 Y-27.500 Z-1.000
G1 X-46.614 Y-27.500 Z-1.000
G0 Z5.000
G0 X-49.000 Y-25.114 Z5.000
G0 X-49.000 Y-25.114 Z3.000
G1 X-49.000 Y-25.114 Z-1.000
G1 X-48.417 Y-25.697 Z-1.000
G2 X-48.086 Y-23.199 Z-1.000 I2.407 J0.952 K0.000
G1 X-49.000 Y-22.285 Z-1.000
G1 X-49.000 Y-19.457 Z-1.000
G1 X-46.290 Y-22.167 Z-1.000
G2 X-44.000 Y-23.099 Z-1.000 I0.291 J-2.564 K0.000
G1 X-44.000 Y-21.628 Z-1.000
G1 X-46.828 Y-18.800 Z-1.000
G1 X-44.000 Y-18.800 Z-1.000
G1 X-44.000 Y-18.800 Z-1.500
G1 X-46.828 Y-18.800 Z-1.500
G1 X-44.000 Y-21.628 Z-1.500
G1 X-44.000 Y-23.099 Z-1.500
G3 X-46.290 Y-22.167 Z-1.500 I-1.999 J-1.632 K0.000
G1 X-49.000 Y-19.457 Z-1.500
G1 X-49.000 Y-22.285 Z-1.500
G1 X-48.086 Y-23.199 Z-1.500
G3 X-48.417 Y-25.697 Z-1.500 I2.076 J-1.546 K0.000
G1 X-49.000 Y-25.114 Z-1.500
G1 X-49.000 Y-25.114 Z-1.500
G1 X-49.000 Y-18.800 Z-1.500
G1 X-44.000 Y-18.800 Z-1.500
G1 X-44.000 Y-23.099 Z-1.500
G3 X-48.038 Y-23.140 Z-1.500 I-2.002 J-1.647 K0.000
G3 X-44.000 Y-26.401 Z-1.500 I2.033 J-1.612 K0.000
G1 X-44.000 Y-27.500 Z-1.500
G1 X-48.934 Y-27.500 Z-1.500
G2 X-49.000 Y-27.434 Z-1.500 I-0.024 J0.042 K0.000
G1 X-49.000 Y-25.114 Z-1.500
G0 Z5.000
G0 X-46.614 Y-27.500 Z5.000
G0 X-46.614 Y-27.500 Z3.000
G1 X-46.614 Y-27.500 Z-1.500
G1 X-48.934 Y-27.500 Z-1.500
G2 X-49.000 Y-27.434 Z-1.500 I-0.024 J0.042 K0.000
G1 X-49.000 Y-25.114 Z-1.500
G1 X-48.417 Y-25.697 Z-1.500
G3 X-46.950 Y-27.163 Z-1.500 I2.401 J0.934 K0.000
G1 X-46.614 Y-27.500 Z-1.500
G1 X-44.000 Y-27.500 Z-1.500
G1 X-44.000 Y-27.285 Z-1.500
G1 X-44.455 Y-26.830 Z-1.500
G3 X-44.000 Y-26.401 Z-1.500 I-1.002 J1.518 K0.000
G1 X-44.000 Y-27.285 Z-1.500
G1 X-44.000 Y-27.285 Z-2.000
G1 X-44.000 Y-26.401 Z-2.000
G2 X-44.455 Y-26.830 Z-2.000 I-1.457 J1.089 K0.000
G1 X-44.000 Y-27.285 Z-2.000
G1 X-44.000 Y-27.500 Z-2.000
G1 X-46.614 Y-27.500 Z-2.000
G1 X-46.950 Y-27.163 Z-2.000
G2 X-48.417 Y-25.697 Z-2.000 I0.934 J2.401 K0.000
G1 X-49.000 Y-25.114 Z-2.000
G1 X-49.000 Y-27.434 Z-2.000
G3 X-48.934 Y-27.500 Z-2.000 I0.042 J-0.024 K0.000
G1 X-46.614 Y-27.500 Z-2.000
G1 X-46.614 Y-27.500 Z-2.000
G1 X-48.934 Y-27.500 Z-2.000
G2 X-49.000 Y-27.434 Z-2.000 I-0.024 J0.042 K0.000
G1 X-49.000 Y-18.800 Z-2.000
G1 X-44.000 Y-18.800 Z-2.000
G1 X-44.000 Y-23.099 Z-2.000
G3 X-48.038 Y-23.140 Z-2.000 I-2.002 J-1.647 K0.000
G3 X-44.000 Y-26.401 Z-2.000 I2.033 J-1.612 K0.000
G1 X-44.000 Y-27.500 Z-2.000
G1 X-46.614 Y-27.500 Z-2.000
G0 Z5.000
G0 X-49.000 Y-25.114 Z5.000
G0 X-49.000 Y-25.114 Z3.000
G1 X-49.000 Y-25.114 Z-2.000
G1 X-48.417 Y-25.697 Z-2.000
G2 X-48.086 Y-23.199 Z-2.000 I2.407 J0.952 K0.000
G1 X-49.000 Y-22.285 Z-2.000
G1 X-49.000 Y-19.457 Z-2.000
G1 X-46.290 Y-22.167 Z-2.000
G2 X-44.000 Y-23.099 Z-2.000 I0.291 J-2.564 K0.000
G1 X-44.000 Y-21.628 Z-2.000
G1 X-46.828 Y-18.800 Z-2.000
G1 X-44.000 Y-18.800 Z-2.000
G1 X-44.000 Y-18.800 Z-2.500
G1 X-46.828 Y-18.800 Z-2.500
G1 X-44.000 Y-21.628 Z-2.500
G1 X-44.000 Y-23.099 Z-2.500
G3 X-46.290 Y-22.167 Z-2.500 I-1.999 J-1.632 K0.000
G1 X-49.000 Y-19.457 Z-2.500
G1 X-49.000 Y-22.285 Z-2.500
G1 X-48.086 Y-23.199 Z-2.500
G3 X-48.417 Y-25.697 Z-2.500 I2.076 J-1.546 K0.000
G1 X-49.000 Y-25.114 Z-2.500
G1 X-49.000 Y-25.114 Z-2.500
G1 X-49.000 Y-18.800 Z-2.500
G1 X-44.000 Y-18.800 Z-2.500
G1 X-44.000 Y-23.099 Z-2.500
G3 X-48.038 Y-23.140 Z-2.500 I-2.002 J-1.647 K0.000
G3 X-44.000 Y-26.401 Z-2.500 I2.033 J-1.612 K0.000
G1 X-44.000 Y-27.500 Z-2.500
G1 X-48.934 Y-27.500 Z-2.500
G2 X-49.000 Y-27.434 Z-2.500 I-0.024 J0.042 K0.000
G1 X-49.000 Y-25.114 Z-2.500
G0 Z5.000
G0 X-46.614 Y-27.500 Z5.000
G0 X-46.614 Y-27.500 Z3.000
G1 X-46.614 Y-27.500 Z-2.500
G1 X-48.934 Y-27.500 Z-2.500
G2 X-49.000 Y-27.434 Z-2.500 I-0.024 J0.042 K0.000
G1 X-49.000 Y-25.114 Z-2.500
G1 X-48.417 Y-25.697 Z-2.500
G3 X-46.950 Y-27.163 Z-2.500 I2.401 J0.934 K0.000
G1 X-46.614 Y-27.500 Z-2.500
G1 X-44.000 Y-27.500 Z-2.500
G1 X-44.000 Y-27.285 Z-2.500
G1 X-44.455 Y-26.830 Z-2.500
G3 X-44.000 Y-26.401 Z-2.500 I-1.002 J1.518 K0.000
G1 X-44.000 Y-27.285 Z-2.500
G1 X-44.000 Y-27.285 Z-3.000
G1 X-44.000 Y-26.401 Z-3.000
G2 X-44.455 Y-26.830 Z-3.000 I-1.457 J1.089 K0.000
G1 X-44.000 Y-27.285 Z-3.000
G1 X-44.000 Y-27.500 Z-3.000
G1 X-46.614 Y-27.500 Z-3.000
G1 X-46.950 Y-27.163 Z-3.000
G2 X-48.417 Y-25.697 Z-3.000 I0.934 J2.401 K0.000
G1 X-49.000 Y-25.114 Z-3.000
G1 X-49.000 Y-27.434 Z-3.000
G3 X-48.934 Y-27.500 Z-3.000 I0.042 J-0.024 K0.000
G1 X-46.614 Y-27.500 Z-3.000
G1 X-46.614 Y-27.500 Z-3.000
G1 X-48.934 Y-27.500 Z-3.000
G2 X-49.000 Y-27.434 Z-3.000 I-0.024 J0.042 K0.000
G1 X-49.000 Y-18.800 Z-3.000
G1 X-44.000 Y-18.800 Z-3.000
G1 X-44.000 Y-23.099 Z-3.000
G3 X-48.038 Y-23.140 Z-3.000 I-2.002 J-1.647 K0.000
G3 X-44.000 Y-26.401 Z-3.000 I2.033 J-1.612 K0.000
G1 X-44.000 Y-27.500 Z-3.000
G1 X-46.614 Y-27.500 Z-3.000
G0 Z5.000
G0 X-49.000 Y-25.114 Z5.000
G0 X-49.000 Y-25.114 Z3.000
G1 X-49.000 Y-25.114 Z-3.000
G1 X-48.417 Y-25.697 Z-3.000
G2 X-48.086 Y-23.199 Z-3.000 I2.407 J0.952 K0.000
G1 X-49.000 Y-22.285 Z-3.000
G1 X-49.000 Y-19.457 Z-3.000
G1 X-46.290 Y-22.167 Z-3.000
G2 X-44.000 Y-23.099 Z-3.000 I0.291 J-2.564 K0.000
G1 X-44.000 Y-21.628 Z-3.000
G1 X-46.828 Y-18.800 Z-3.000
G1 X-44.000 Y-18.800 Z-3.000
G1 X-44.000 Y-18.800 Z-3.500
G1 X-46.828 Y-18.800 Z-3.500
G1 X-44.000 Y-21.628 Z-3.500
G1 X-44.000 Y-23.099 Z-3.500
G3 X-46.290 Y-22.167 Z-3.500 I-1.999 J-1.632 K0.000
G1 X-49.000 Y-19.457 Z-3.500
G1 X-49.000 Y-22.285 Z-3.500
G1 X-48.086 Y-23.199 Z-3.500
G3 X-48.417 Y-25.697 Z-3.500 I2.076 J-1.546 K0.000
G1 X-49.000 Y-25.114 Z-3.500
G1 X-49.000 Y-25.114 Z-3.500
G1 X-49.000 Y-18.800 Z-3.500
G1 X-44.000 Y-18.800 Z-3.500
G1 X-44.000 Y-23.099 Z-3.500
G3 X-48.038 Y-23.140 Z-3.500 I-2.002 J-1.647 K0.000
G3 X-44.000 Y-26.401 Z-3.500 I2.033 J-1.612 K0.000
G1 X-44.000 Y-27.500 Z-3.500
G1 X-48.934 Y-27.500 Z-3.500
G2 X-49.000 Y-27.434 Z-3.500 I-0.024 J0.042 K0.000
G1 X-49.000 Y-25.114 Z-3.500
G0 Z5.000
G0 X-46.614 Y-27.500 Z5.000
G0 X-46.614 Y-27.500 Z3.000
G1 X-46.614 Y-27.500 Z-3.500
G1 X-48.934 Y-27.500 Z-3.500
G2 X-49.000 Y-27.434 Z-3.500 I-0.024 J0.042 K0.000
G1 X-49.000 Y-25.114 Z-3.500
G1 X-48.417 Y-25.697 Z-3.500
G3 X-46.950 Y-27.163 Z-3.500 I2.401 J0.934 K0.000
G1 X-46.614 Y-27.500 Z-3.500
G1 X-44.000 Y-27.500 Z-3.500
G1 X-44.000 Y-27.285 Z-3.500
G1 X-44.455 Y-26.830 Z-3.500
G3 X-44.000 Y-26.401 Z-3.500 I-1.002 J1.518 K0.000
G1 X-44.000 Y-27.285 Z-3.500
G1 X-44.000 Y-27.285 Z-4.000
G1 X-44.000 Y-26.401 Z-4.000
G2 X-44.455 Y-26.830 Z-4.000 I-1.457 J1.089 K0.000
G1 X-44.000 Y-27.285 Z-4.000
G1 X-44.000 Y-27.500 Z-4.000
G1 X-46.614 Y-27.500 Z-4.000
G1 X-46.950 Y-27.163 Z-4.000
G2 X-48.417 Y-25.697 Z-4.000 I0.934 J2.401 K0.000
G1 X-49.000 Y-25.114 Z-4.000
G1 X-49.000 Y-27.434 Z-4.000
G3 X-48.934 Y-27.500 Z-4.000 I0.042 J-0.024 K0.000
G1 X-46.614 Y-27.500 Z-4.000
G1 X-46.614 Y-27.500 Z-4.000
G1 X-48.934 Y-27.500 Z-4.000
G2 X-49.000 Y-27.434 Z-4.000 I-0.024 J0.042 K0.000
G1 X-49.000 Y-18.800 Z-4.000
G1 X-44.000 Y-18.800 Z-4.000
G1 X-44.000 Y-23.099 Z-4.000
G3 X-48.038 Y-23.140 Z-4.000 I-2.002 J-1.647 K0.000
G3 X-44.000 Y-26.401 Z-4.000 I2.033 J-1.612 K0.000
G1 X-44.000 Y-27.500 Z-4.000
G1 X-46.614 Y-27.500 Z-4.000
G0 Z5.000
G0 X-49.000 Y-25.114 Z5.000
G0 X-49.000 Y-25.114 Z3.000
G1 X-49.000 Y-25.114 Z-4.000
G1 X-48.417 Y-25.697 Z-4.000
G2 X-48.086 Y-23.199 Z-4.000 I2.407 J0.952 K0.000
G1 X-49.000 Y-22.285 Z-4.000
G1 X-49.000 Y-19.457 Z-4.000
G1 X-46.290 Y-22.167 Z-4.000
G2 X-44.000 Y-23.099 Z-4.000 I0.291 J-2.564 K0.000
G1 X-44.000 Y-21.628 Z-4.000
G1 X-46.828 Y-18.800 Z-4.000
G1 X-44.000 Y-18.800 Z-4.000
G1 X-44.000 Y-18.800 Z-4.500
G1 X-46.828 Y-18.800 Z-4.500
G1 X-44.000 Y-21.628 Z-4.500
G1 X-44.000 Y-23.099 Z-4.500
G3 X-46.290 Y-22.167 Z-4.500 I-1.999 J-1.632 K0.000
G1 X-49.000 Y-19.457 Z-4.500
G1 X-49.000 Y-22.285 Z-4.500
G1 X-48.086 Y-23.199 Z-4.500
G3 X-48.417 Y-25.697 Z-4.500 I2.076 J-1.546 K0.000
G1 X-49.000 Y-25.114 Z-4.500
G1 X-49.000 Y-25.114 Z-4.500
G1 X-49.000 Y-18.800 Z-4.500
G1 X-44.000 Y-18.800 Z-4.500
G1 X-44.000 Y-23.099 Z-4.500
G3 X-48.038 Y-23.140 Z-4.500 I-2.002 J-1.647 K0.000
G3 X-44.000 Y-26.401 Z-4.500 I2.033 J-1.612 K0.000
G1 X-44.000 Y-27.500 Z-4.500
G1 X-48.934 Y-27.500 Z-4.500
G2 X-49.000 Y-27.434 Z-4.500 I-0.024 J0.042 K0.000
G1 X-49.000 Y-25.114 Z-4.500
G0 Z5.000
G0 X-46.614 Y-27.500 Z5.000
G0 X-46.614 Y-27.500 Z3.000
G1 X-46.614 Y-27.500 Z-4.500
G1 X-48.934 Y-27.500 Z-4.500
G2 X-49.000 Y-27.434 Z-4.500 I-0.024 J0.042 K0.000
G1 X-49.000 Y-25.114 Z-4.500
G1 X-48.417 Y-25.697 Z-4.500
G3 X-46.950 Y-27.163 Z-4.500 I2.401 J0.934 K0.000
G1 X-46.614 Y-27.500 Z-4.500
G1 X-44.000 Y-27.500 Z-4.500
G1 X-44.000 Y-27.285 Z-4.500
G1 X-44.455 Y-26.830 Z-4.500
G3 X-44.000 Y-26.401 Z-4.500 I-1.002 J1.518 K0.000
G1 X-44.000 Y-27.285 Z-4.500
G1 X-44.000 Y-27.285 Z-5.000
G1 X-44.000 Y-26.401 Z-5.000
G2 X-44.455 Y-26.830 Z-5.000 I-1.457 J1.089 K0.000
G1 X-44.000 Y-27.285 Z-5.000
G1 X-44.000 Y-27.500 Z-5.000
G1 X-46.614 Y-27.500 Z-5.000
G1 X-46.950 Y-27.163 Z-5.000
G2 X-48.417 Y-25.697 Z-5.000 I0.934 J2.401 K0.000
G1 X-49.000 Y-25.114 Z-5.000
G1 X-49.000 Y-27.434 Z-5.000
G3 X-48.934 Y-27.500 Z-5.000 I0.042 J-0.024 K0.000
G1 X-46.614 Y-27.500 Z-5.000
G1 X-46.614 Y-27.500 Z-5.000
G1 X-48.934 Y-27.500 Z-5.000
G2 X-49.000 Y-27.434 Z-5.000 I-0.024 J0.042 K0.000
G1 X-49.000 Y-18.800 Z-5.000
G1 X-44.000 Y-18.800 Z-5.000
G1 X-44.000 Y-23.099 Z-5.000
G3 X-48.038 Y-23.140 Z-5.000 I-2.002 J-1.647 K0.000
G3 X-44.000 Y-26.401 Z-5.000 I2.033 J-1.612 K0.000
G1 X-44.000 Y-27.500 Z-5.000
G1 X-46.614 Y-27.500 Z-5.000
G0 Z5.000
G0 X-49.000 Y-25.114 Z5.000
G0 X-49.000 Y-25.114 Z3.000
G1 X-49.000 Y-25.114 Z-5.000
G1 X-48.417 Y-25.697 Z-5.000
G2 X-48.086 Y-23.199 Z-5.000 I2.407 J0.952 K0.000
G1 X-49.000 Y-22.285 Z-5.000
G1 X-49.000 Y-19.457 Z-5.000
G1 X-46.290 Y-22.167 Z-5.000
G2 X-44.000 Y-23.099 Z-5.000 I0.291 J-2.564 K0.000
G1 X-44.000 Y-21.628 Z-5.000
G1 X-46.828 Y-18.800 Z-5.000
G1 X-44.000 Y-18.800 Z-5.000
G1 X-44.000 Y-18.800 Z-5.500
G1 X-46.828 Y-18.800 Z-5.500
G1 X-44.000 Y-21.628 Z-5.500
G1 X-44.000 Y-23.099 Z-5.500
G3 X-46.290 Y-22.167 Z-5.500 I-1.999 J-1.632 K0.000
G1 X-49.000 Y-19.457 Z-5.500
G1 X-49.000 Y-22.285 Z-5.500
G1 X-48.086 Y-23.199 Z-5.500
G3 X-48.417 Y-25.697 Z-5.500 I2.076 J-1.546 K0.000
G1 X-49.000 Y-25.114 Z-5.500
G1 X-49.000 Y-25.114 Z-5.500
G1 X-49.000 Y-18.800 Z-5.500
G1 X-44.000 Y-18.800 Z-5.500
G1 X-44.000 Y-23.099 Z-5.500
G3 X-48.038 Y-23.140 Z-5.500 I-2.002 J-1.647 K0.000
G3 X-44.000 Y-26.401 Z-5.500 I2.033 J-1.612 K0.000
G1 X-44.000 Y-27.500 Z-5.500
G1 X-48.934 Y-27.500 Z-5.500
G2 X-49.000 Y-27.434 Z-5.500 I-0.024 J0.042 K0.000
G1 X-49.000 Y-25.114 Z-5.500
G0 Z5.000
G0 X-46.614 Y-27.500 Z5.000
G0 X-46.614 Y-27.500 Z3.000
G1 X-46.614 Y-27.500 Z-5.500
G1 X-48.934 Y-27.500 Z-5.500
G2 X-49.000 Y-27.434 Z-5.500 I-0.024 J0.042 K0.000
G1 X-49.000 Y-25.114 Z-5.500
G1 X-48.417 Y-25.697 Z-5.500
G3 X-46.950 Y-27.163 Z-5.500 I2.401 J0.934 K0.000
G1 X-46.614 Y-27.500 Z-5.500
G1 X-44.000 Y-27.500 Z-5.500
G1 X-44.000 Y-27.285 Z-5.500
G1 X-44.455 Y-26.830 Z-5.500
G3 X-44.000 Y-26.401 Z-5.500 I-1.002 J1.518 K0.000
G1 X-44.000 Y-27.285 Z-5.500
G1 X-44.000 Y-27.285 Z-6.000
G1 X-44.000 Y-26.401 Z-6.000
G2 X-44.455 Y-26.830 Z-6.000 I-1.457 J1.089 K0.000
G1 X-44.000 Y-27.285 Z-6.000
G1 X-44.000 Y-27.500 Z-6.000
G1 X-46.614 Y-27.500 Z-6.000
G1 X-46.950 Y-27.163 Z-6.000
G2 X-48.417 Y-25.697 Z-6.000 I0.934 J2.401 K0.000
G1 X-49.000 Y-25.114 Z-6.000
G1 X-49.000 Y-27.434 Z-6.000
G3 X-48.934 Y-27.500 Z-6.000 I0.042 J-0.024 K0.000
G1 X-46.614 Y-27.500 Z-6.000
G1 X-46.614 Y-27.500 Z-6.000
G1 X-48.934 Y-27.500 Z-6.000
G2 X-49.000 Y-27.434 Z-6.000 I-0.024 J0.042 K0.000
G1 X-49.000 Y-18.800 Z-6.000
G1 X-44.000 Y-18.800 Z-6.000
G1 X-44.000 Y-23.099 Z-6.000
G3 X-48.038 Y-23.140 Z-6.000 I-2.002 J-1.647 K0.000
G3 X-44.000 Y-26.401 Z-6.000 I2.033 J-1.612 K0.000
G1 X-44.000 Y-27.500 Z-6.000
G1 X-46.614 Y-27.500 Z-6.000
G0 Z5.000
G0 X-49.000 Y-25.114 Z5.000
G0 X-49.000 Y-25.114 Z3.000
G1 X-49.000 Y-25.114 Z-6.000
G1 X-48.417 Y-25.697 Z-6.000
G2 X-48.086 Y-23.199 Z-6.000 I2.407 J0.952 K0.000
G1 X-49.000 Y-22.285 Z-6.000
G1 X-49.000 Y-19.457 Z-6.000
G1 X-46.290 Y-22.167 Z-6.000
G2 X-44.000 Y-23.099 Z-6.000 I0.291 J-2.564 K0.000
G1 X-44.000 Y-21.628 Z-6.000
G1 X-46.828 Y-18.800 Z-6.000
G1 X-44.000 Y-18.800 Z-6.000
G1 X-44.000 Y-18.800 Z-6.500
G1 X-46.828 Y-18.800 Z-6.500
G1 X-44.000 Y-21.628 Z-6.500
G1 X-44.000 Y-23.099 Z-6.500
G3 X-46.290 Y-22.167 Z-6.500 I-1.999 J-1.632 K0.000
G1 X-49.000 Y-19.457 Z-6.500
G1 X-49.000 Y-22.285 Z-6.500
G1 X-48.086 Y-23.199 Z-6.500
G3 X-48.417 Y-25.697 Z-6.500 I2.076 J-1.546 K0.000
G1 X-49.000 Y-25.114 Z-6.500
G1 X-49.000 Y-25.114 Z-6.500
G1 X-49.000 Y-18.800 Z-6.500
G1 X-44.000 Y-18.800 Z-6.500
G1 X-44.000 Y-23.099 Z-6.500
G3 X-48.038 Y-23.140 Z-6.500 I-2.002 J-1.647 K0.000
G3 X-44.000 Y-26.401 Z-6.500 I2.033 J-1.612 K0.000
G1 X-44.000 Y-27.500 Z-6.500
G1 X-48.934 Y-27.500 Z-6.500
G2 X-49.000 Y-27.434 Z-6.500 I-0.024 J0.042 K0.000
G1 X-49.000 Y-25.114 Z-6.500
G0 Z5.000
G0 X-46.614 Y-27.500 Z5.000
G0 X-46.614 Y-27.500 Z3.000
G1 X-46.614 Y-27.500 Z-6.500
G1 X-48.934 Y-27.500 Z-6.500
G2 X-49.000 Y-27.434 Z-6.500 I-0.024 J0.042 K0.000
G1 X-49.000 Y-25.114 Z-6.500
G1 X-48.417 Y-25.697 Z-6.500
G3 X-46.950 Y-27.163 Z-6.500 I2.401 J0.934 K0.000
G1 X-46.614 Y-27.500 Z-6.500
G1 X-44.000 Y-27.500 Z-6.500
G1 X-44.000 Y-27.285 Z-6.500
G1 X-44.455 Y-26.830 Z-6.500
G3 X-44.000 Y-26.401 Z-6.500 I-1.002 J1.518 K0.000
G1 X-44.000 Y-27.285 Z-6.500
G1 X-44.000 Y-27.285 Z-6.700
G1 X-44.000 Y-26.401 Z-6.700
G2 X-44.455 Y-26.830 Z-6.700 I-1.457 J1.089 K0.000
G1 X-44.000 Y-27.285 Z-6.700
G1 X-44.000 Y-27.500 Z-6.700
G1 X-46.614 Y-27.500 Z-6.700
G1 X-46.950 Y-27.163 Z-6.700
G2 X-48.417 Y-25.697 Z-6.700 I0.934 J2.401 K0.000
G1 X-49.000 Y-25.114 Z-6.700
G1 X-49.000 Y-27.434 Z-6.700
G3 X-48.934 Y-27.500 Z-6.700 I0.042 J-0.024 K0.000
G1 X-46.614 Y-27.500 Z-6.700
G1 X-46.614 Y-27.500 Z-6.700
G1 X-48.934 Y-27.500 Z-6.700
G2 X-49.000 Y-27.434 Z-6.700 I-0.024 J0.042 K0.000
G1 X-49.000 Y-18.800 Z-6.700
G1 X-44.000 Y-18.800 Z-6.700
G1 X-44.000 Y-23.099 Z-6.700
G3 X-48.038 Y-23.140 Z-6.700 I-2.002 J-1.647 K0.000
G3 X-44.000 Y-26.401 Z-6.700 I2.033 J-1.612 K0.000
G1 X-44.000 Y-27.500 Z-6.700
G1 X-46.614 Y-27.500 Z-6.700
G0 Z5.000
G0 X-49.000 Y-25.114 Z5.000
G0 X-49.000 Y-25.114 Z3.000
G1 X-49.000 Y-25.114 Z-6.700
G1 X-48.417 Y-25.697 Z-6.700
G2 X-48.086 Y-23.199 Z-6.700 I2.407 J0.952 K0.000
G1 X-49.000 Y-22.285 Z-6.700
G1 X-49.000 Y-19.457 Z-6.700
G1 X-46.290 Y-22.167 Z-6.700
G2 X-44.000 Y-23.099 Z-6.700 I0.291 J-2.564 K0.000
G1 X-44.000 Y-21.628 Z-6.700
G1 X-46.828 Y-18.800 Z-6.700
G1 X-44.000 Y-18.800 Z-6.700
G0 Z5.000
G0 Z5.000
G0 X-44.000 Y-18.800
G0 Y18.800
G0 Y18.800 Z3.000
G1 X-44.000 Y18.800 Z-0.500
G1 X-49.000 Y18.800 Z-0.500
G1 X-49.000 Y27.434 Z-0.500
G2 X-48.934 Y27.500 Z-0.500 I0.042 J0.024 K0.000
G1 X-44.000 Y27.500 Z-0.500
G1 X-44.000 Y26.401 Z-0.500
G3 X-48.038 Y26.360 Z-0.500 I-2.002 J-1.647 K0.000
G3 X-44.000 Y23.099 Z-0.500 I2.033 J-1.612 K0.000
G1 X-44.000 Y18.800 Z-0.500
G1 X-44.000 Y18.800 Z-0.500
G1 X-44.000 Y21.628 Z-0.500
G1 X-46.828 Y18.800 Z-0.500
G1 X-49.000 Y18.800 Z-0.500
G1 X-49.000 Y19.457 Z-0.500
G1 X-46.290 Y22.167 Z-0.500
G2 X-48.086 Y23.199 Z-0.500 I0.287 J2.578 K0.000
G1 X-49.000 Y22.285 Z-0.500
G1 X-49.000 Y25.114 Z-0.500
G1 X-48.417 Y25.697 Z-0.500
G2 X-46.950 Y27.163 Z-0.500 I2.399 J-0.932 K0.000
G1 X-46.614 Y27.500 Z-0.500
G1 X-48.934 Y27.500 Z-0.500
G3 X-49.000 Y27.434 Z-0.500 I-0.024 J-0.042 K0.000
G1 X-49.000 Y25.114 Z-0.500
G0 Z5.000
G0 X-46.614 Y27.500 Z5.000
G0 X-46.614 Y27.500 Z3.000
G1 X-46.614 Y27.500 Z-0.500
G1 X-46.950 Y27.163 Z-0.500
G2 X-44.455 Y26.830 Z-0.500 I0.956 J-2.356 K0.000
G1 X-44.000 Y27.285 Z-0.500
G1 X-44.000 Y26.401 Z-0.500
G3 X-44.455 Y26.830 Z-0.500 I-1.457 J-1.089 K0.000
G1 X-44.455 Y26.830 Z-1.000
G2 X-44.000 Y26.401 Z-1.000 I-1.002 J-1.518 K0.000
G1 X-44.000 Y27.285 Z-1.000
G1 X-44.455 Y26.830 Z-1.000
G3 X-46.950 Y27.163 Z-1.000 I-1.540 J-2.023 K0.000
G1 X-46.614 Y27.500 Z-1.000
G1 X-46.614 Y27.500 Z-1.000
G1 X-44.000 Y27.500 Z-1.000
G1 X-44.000 Y26.401 Z-1.000
G3 X-48.038 Y26.360 Z-1.000 I-2.002 J-1.647 K0.000
G3 X-44.000 Y23.099 Z-1.000 I2.033 J-1.612 K0.000
G1 X-44.000 Y18.800 Z-1.000
G1 X-49.000 Y18.800 Z-1.000
G1 X-49.000 Y27.434 Z-1.000
G2 X-48.934 Y27.500 Z-1.000 I0.042 J0.024 K0.000
G1 X-46.614 Y27.500 Z-1.000
G0 Z5.000
G0 X-49.000 Y25.114 Z5.000
G0 X-49.000 Y25.114 Z3.000
G1 X-49.000 Y25.114 Z-1.000
G1 X-49.000 Y27.434 Z-1.000
G2 X-48.934 Y27.500 Z-1.000 I0.042 J0.024 K0.000
G1 X-46.614 Y27.500 Z-1.000
G1 X-46.950 Y27.163 Z-1.000
G3 X-48.417 Y25.697 Z-1.000 I0.932 J-2.399 K0.000
G1 X-49.000 Y25.114 Z-1.000
G1 X-49.000 Y22.285 Z-1.000
G1 X-48.086 Y23.199 Z-1.000
G3 X-46.290 Y22.167 Z-1.000 I2.083 J1.545 K0.000
G1 X-49.000 Y19.457 Z-1.000
G1 X-49.000 Y18.800 Z-1.000
G1 X-46.828 Y18.800 Z-1.000
G1 X-44.000 Y21.628 Z-1.000
G1 X-44.000 Y18.800 Z-1.000
G1 X-44.000 Y18.800 Z-1.500
G1 X-44.000 Y21.628 Z-1.500
G1 X-46.828 Y18.800 Z-1.500
G1 X-49.000 Y18.800 Z-1.500
G1 X-49.000 Y19.457 Z-1.500
G1 X-46.290 Y22.167 Z-1.500
G2 X-48.086 Y23.199 Z-1.500 I0.287 J2.578 K0.000
G1 X-49.000 Y22.285 Z-1.500
G1 X-49.000 Y25.114 Z-1.500
G1 X-48.417 Y25.697 Z-1.500
G2 X-46.950 Y27.163 Z-1.500 I2.399 J-0.932 K0.000
G1 X-46.614 Y27.500 Z-1.500
G1 X-48.934 Y27.500 Z-1.500
G3 X-49.000 Y27.434 Z-1.500 I-0.024 J-0.042 K0.000
G1 X-49.000 Y25.114 Z-1.500
G1 X-49.000 Y25.114 Z-1.500
G1 X-49.000 Y27.434 Z-1.500
G2 X-48.934 Y27.500 Z-1.500 I0.042 J0.024 K0.000
G1 X-44.000 Y27.500 Z-1.500
G1 X-44.000 Y26.401 Z-1.500
G3 X-48.038 Y26.360 Z-1.500 I-2.002 J-1.647 K0.000
G3 X-44.000 Y23.099 Z-1.500 I2.033 J-1.612 K0.000
G1 X-44.000 Y18.800 Z-1.500
G1 X-49.000 Y18.800 Z-1.500
G1 X-49.000 Y25.114 Z-1.500
G0 Z5.000
G0 X-46.614 Y27.500 Z5.000
G0 X-46.614 Y27.500 Z3.000
G1 X-46.614 Y27.500 Z-1.500
G1 X-46.950 Y27.163 Z-1.500
G2 X-44.455 Y26.830 Z-1.500 I0.956 J-2.356 K0.000
G1 X-44.000 Y27.285 Z-1.500
G1 X-44.000 Y26.401 Z-1.500
G3 X-44.455 Y26.830 Z-1.500 I-1.457 J-1.089 K0.000
G1 X-44.455 Y26.830 Z-2.000
G2 X-44.000 Y26.401 Z-2.000 I-1.002 J-1.518 K0.000
G1 X-44.000 Y27.285 Z-2.000
G1 X-44.455 Y26.830 Z-2.000
G3 X-46.950 Y27.163 Z-2.000 I-1.540 J-2.023 K0.000
G1 X-46.614 Y27.500 Z-2.000
G1 X-46.614 Y27.500 Z-2.000
G1 X-44.000 Y27.500 Z-2.000
G1 X-44.000 Y26.401 Z-2.000
G3 X-48.038 Y26.360 Z-2.000 I-2.002 J-1.647 K0.000
G3 X-44.000 Y23.099 Z-2.000 I2.033 J-1.612 K0.000
G1 X-44.000 Y18.800 Z-2.000
G1 X-49.000 Y18.800 Z-2.000
G1 X-49.000 Y27.434 Z-2.000
G2 X-48.934 Y27.500 Z-2.000 I0.042 J0.024 K0.000
G1 X-46.614 Y27.500 Z-2.000
G0 Z5.000
G0 X-49.000 Y25.114 Z5.000
G0 X-49.000 Y25.114 Z3.000
G1 X-49.000 Y25.114 Z-2.000
G1 X-49.000 Y27.434 Z-2.000
G2 X-48.934 Y27.500 Z-2.000 I0.042 J0.024 K0.000
G1 X-46.614 Y27.500 Z-2.000
G1 X-46.950 Y27.163 Z-2.000
G3 X-48.417 Y25.697 Z-2.000 I0.932 J-2.399 K0.000
G1 X-49.000 Y25.114 Z-2.000
G1 X-49.000 Y22.285 Z-2.000
G1 X-48.086 Y23.199 Z-2.000
G3 X-46.290 Y22.167 Z-2.000 I2.083 J1.545 K0.000
G1 X-49.000 Y19.457 Z-2.000
G1 X-49.000 Y18.800 Z-2.000
G1 X-46.828 Y18.800 Z-2.000
G1 X-44.000 Y21.628 Z-2.000
G1 X-44.000 Y18.800 Z-2.000
G1 X-44.000 Y18.800 Z-2.500
G1 X-44.000 Y21.628 Z-2.500
G1 X-46.828 Y18.800 Z-2.500
G1 X-49.000 Y18.800 Z-2.500
G1 X-49.000 Y19.457 Z-2.500
G1 X-46.290 Y22.167 Z-2.500
G2 X-48.086 Y23.199 Z-2.500 I0.287 J2.578 K0.000
G1 X-49.000 Y22.285 Z-2.500
G1 X-49.000 Y25.114 Z-2.500
G1 X-48.417 Y25.697 Z-2.500
G2 X-46.950 Y27.163 Z-2.500 I2.399 J-0.932 K0.000
G1 X-46.614 Y27.500 Z-2.500
G1 X-48.934 Y27.500 Z-2.500
G3 X-49.000 Y27.434 Z-2.500 I-0.024 J-0.042 K0.000
G1 X-49.000 Y25.114 Z-2.500
G1 X-49.000 Y25.114 Z-2.500
G1 X-49.000 Y27.434 Z-2.500
G2 X-48.934 Y27.500 Z-2.500 I0.042 J0.024 K0.000
G1 X-44.000 Y27.500 Z-2.500
G1 X-44.000 Y26.401 Z-2.500
G3 X-48.038 Y26.360 Z-2.500 I-2.002 J-1.647 K0.000
G3 X-44.000 Y23.099 Z-2.500 I2.033 J-1.612 K0.000
G1 X-44.000 Y18.800 Z-2.500
G1 X-49.000 Y18.800 Z-2.500
G1 X-49.000 Y25.114 Z-2.500
G0 Z5.000
G0 X-46.614 Y27.500 Z5.000
G0 X-46.614 Y27.500 Z3.000
G1 X-46.614 Y27.500 Z-2.500
G1 X-46.950 Y27.163 Z-2.500
G2 X-44.455 Y26.830 Z-2.500 I0.956 J-2.356 K0.000
G1 X-44.000 Y27.285 Z-2.500
G1 X-44.000 Y26.401 Z-2.500
G3 X-44.455 Y26.830 Z-2.500 I-1.457 J-1.089 K0.000
G1 X-44.455 Y26.830 Z-3.000
G2 X-44.000 Y26.401 Z-3.000 I-1.002 J-1.518 K0.000
G1 X-44.000 Y27.285 Z-3.000
G1 X-44.455 Y26.830 Z-3.000
G3 X-46.950 Y27.163 Z-3.000 I-1.540 J-2.023 K0.000
G1 X-46.614 Y27.500 Z-3.000
G1 X-46.614 Y27.500 Z-3.000
G1 X-44.000 Y27.500 Z-3.000
G1 X-44.000 Y26.401 Z-3.000
G3 X-48.038 Y26.360 Z-3.000 I-2.002 J-1.647 K0.000
G3 X-44.000 Y23.099 Z-3.000 I2.033 J-1.612 K0.000
G1 X-44.000 Y18.800 Z-3.000
G1 X-49.000 Y18.800 Z-3.000
G1 X-49.000 Y27.434 Z-3.000
G2 X-48.934 Y27.500 Z-3.000 I0.042 J0.024 K0.000
G1 X-46.614 Y27.500 Z-3.000
G0 Z5.000
G0 X-49.000 Y25.114 Z5.000
G0 X-49.000 Y25.114 Z3.000
G1 X-49.000 Y25.114 Z-3.000
G1 X-49.000 Y27.434 Z-3.000
G2 X-48.934 Y27.500 Z-3.000 I0.042 J0.024 K0.000
G1 X-46.614 Y27.500 Z-3.000
G1 X-46.950 Y27.163 Z-3.000
G3 X-48.417 Y25.697 Z-3.000 I0.932 J-2.399 K0.000
G1 X-49.000 Y25.114 Z-3.000
G1 X-49.000 Y22.285 Z-3.000
G1 X-48.086 Y23.199 Z-3.000
G3 X-46.290 Y22.167 Z-3.000 I2.083 J1.545 K0.000
G1 X-49.000 Y19.457 Z-3.000
G1 X-49.000 Y18.800 Z-3.000
G1 X-46.828 Y18.800 Z-3.000
G1 X-44.000 Y21.628 Z-3.000
G1 X-44.000 Y18.800 Z-3.000
G1 X-44.000 Y18.800 Z-3.500
G1 X-44.000 Y21.628 Z-3.500
G1 X-46.828 Y18.800 Z-3.500
G1 X-49.000 Y18.800 Z-3.500
G1 X-49.000 Y19.457 Z-3.500
G1 X-46.290 Y22.167 Z-3.500
G2 X-48.086 Y23.199 Z-3.500 I0.287 J2.578 K0.000
G1 X-49.000 Y22.285 Z-3.500
G1 X-49.000 Y25.114 Z-3.500
G1 X-48.417 Y25.697 Z-3.500
G2 X-46.950 Y27.163 Z-3.500 I2.399 J-0.932 K0.000
G1 X-46.614 Y27.500 Z-3.500
G1 X-48.934 Y27.500 Z-3.500
G3 X-49.000 Y27.434 Z-3.500 I-0.024 J-0.042 K0.000
G1 X-49.000 Y25.114 Z-3.500
G1 X-49.000 Y25.114 Z-3.500
G1 X-49.000 Y27.434 Z-3.500
G2 X-48.934 Y27.500 Z-3.500 I0.042 J0.024 K0.000
G1 X-44.000 Y27.500 Z-3.500
G1 X-44.000 Y26.401 Z-3.500
G3 X-48.038 Y26.360 Z-3.500 I-2.002 J-1.647 K0.000
G3 X-44.000 Y23.099 Z-3.500 I2.033 J-1.612 K0.000
G1 X-44.000 Y18.800 Z-3.500
G1 X-49.000 Y18.800 Z-3.500
G1 X-49.000 Y25.114 Z-3.500
G0 Z5.000
G0 X-46.614 Y27.500 Z5.000
G0 X-46.614 Y27.500 Z3.000
G1 X-46.614 Y27.500 Z-3.500
G1 X-46.950 Y27.163 Z-3.500
G2 X-44.455 Y26.830 Z-3.500 I0.956 J-2.356 K0.000
G1 X-44.000 Y27.285 Z-3.500
G1 X-44.000 Y26.401 Z-3.500
G3 X-44.455 Y26.830 Z-3.500 I-1.457 J-1.089 K0.000
G1 X-44.455 Y26.830 Z-4.000
G2 X-44.000 Y26.401 Z-4.000 I-1.002 J-1.518 K0.000
G1 X-44.000 Y27.285 Z-4.000
G1 X-44.455 Y26.830 Z-4.000
G3 X-46.950 Y27.163 Z-4.000 I-1.540 J-2.023 K0.000
G1 X-46.614 Y27.500 Z-4.000
G1 X-46.614 Y27.500 Z-4.000
G1 X-44.000 Y27.500 Z-4.000
G1 X-44.000 Y26.401 Z-4.000
G3 X-48.038 Y26.360 Z-4.000 I-2.002 J-1.647 K0.000
G3 X-44.000 Y23.099 Z-4.000 I2.033 J-1.612 K0.000
G1 X-44.000 Y18.800 Z-4.000
G1 X-49.000 Y18.800 Z-4.000
G1 X-49.000 Y27.434 Z-4.000
G2 X-48.934 Y27.500 Z-4.000 I0.042 J0.024 K0.000
G1 X-46.614 Y27.500 Z-4.000
G0 Z5.000
G0 X-49.000 Y25.114 Z5.000
G0 X-49.000 Y25.114 Z3.000
G1 X-49.000 Y25.114 Z-4.000
G1 X-49.000 Y27.434 Z-4.000
G2 X-48.934 Y27.500 Z-4.000 I0.042 J0.024 K0.000
G1 X-46.614 Y27.500 Z-4.000
G1 X-46.950 Y27.163 Z-4.000
G3 X-48.417 Y25.697 Z-4.000 I0.932 J-2.399 K0.000
G1 X-49.000 Y25.114 Z-4.000
G1 X-49.000 Y22.285 Z-4.000
G1 X-48.086 Y23.199 Z-4.000
G3 X-46.290 Y22.167 Z-4.000 I2.083 J1.545 K0.000
G1 X-49.000 Y19.457 Z-4.000
G1 X-49.000 Y18.800 Z-4.000
G1 X-46.828 Y18.800 Z-4.000
G1 X-44.000 Y21.628 Z-4.000
G1 X-44.000 Y18.800 Z-4.000
G1 X-44.000 Y18.800 Z-4.500
G1 X-44.000 Y21.628 Z-4.500
G1 X-46.828 Y18.800 Z-4.500
G1 X-49.000 Y18.800 Z-4.500
G1 X-49.000 Y19.457 Z-4.500
G1 X-46.290 Y22.167 Z-4.500
G2 X-48.086 Y23.199 Z-4.500 I0.287 J2.578 K0.000
G1 X-49.000 Y22.285 Z-4.500
G1 X-49.000 Y25.114 Z-4.500
G1 X-48.417 Y25.697 Z-4.500
G2 X-46.950 Y27.163 Z-4.500 I2.399 J-0.932 K0.000
G1 X-46.614 Y27.500 Z-4.500
G1 X-48.934 Y27.500 Z-4.500
G3 X-49.000 Y27.434 Z-4.500 I-0.024 J-0.042 K0.000
G1 X-49.000 Y25.114 Z-4.500
G1 X-49.000 Y25.114 Z-4.500
G1 X-49.000 Y27.434 Z-4.500
G2 X-48.934 Y27.500 Z-4.500 I0.042 J0.024 K0.000
G1 X-44.000 Y27.500 Z-4.500
G1 X-44.000 Y26.401 Z-4.500
G3 X-48.038 Y26.360 Z-4.500 I-2.002 J-1.647 K0.000
G3 X-44.000 Y23.099 Z-4.500 I2.033 J-1.612 K0.000
G1 X-44.000 Y18.800 Z-4.500
G1 X-49.000 Y18.800 Z-4.500
G1 X-49.000 Y25.114 Z-4.500
G0 Z5.000
G0 X-46.614 Y27.500 Z5.000
G0 X-46.614 Y27.500 Z3.000
G1 X-46.614 Y27.500 Z-4.500
G1 X-46.950 Y27.163 Z-4.500
G2 X-44.455 Y26.830 Z-4.500 I0.956 J-2.356 K0.000
G1 X-44.000 Y27.285 Z-4.500
G1 X-44.000 Y26.401 Z-4.500
G3 X-44.455 Y26.830 Z-4.500 I-1.457 J-1.089 K0.000
G1 X-44.455 Y26.830 Z-5.000
G2 X-44.000 Y26.401 Z-5.000 I-1.002 J-1.518 K0.000
G1 X-44.000 Y27.285 Z-5.000
G1 X-44.455 Y26.830 Z-5.000
G3 X-46.950 Y27.163 Z-5.000 I-1.540 J-2.023 K0.000
G1 X-46.614 Y27.500 Z-5.000
G1 X-46.614 Y27.500 Z-5.000
G1 X-44.000 Y27.500 Z-5.000
G1 X-44.000 Y26.401 Z-5.000
G3 X-48.038 Y26.360 Z-5.000 I-2.002 J-1.647 K0.000
G3 X-44.000 Y23.099 Z-5.000 I2.033 J-1.612 K0.000
G1 X-44.000 Y18.800 Z-5.000
G1 X-49.000 Y18.800 Z-5.000
G1 X-49.000 Y27.434 Z-5.000
G2 X-48.934 Y27.500 Z-5.000 I0.042 J0.024 K0.000
G1 X-46.614 Y27.500 Z-5.000
G0 Z5.000
G0 X-49.000 Y25.114 Z5.000
G0 X-49.000 Y25.114 Z3.000
G1 X-49.000 Y25.114 Z-5.000
G1 X-49.000 Y27.434 Z-5.000
G2 X-48.934 Y27.500 Z-5.000 I0.042 J0.024 K0.000
G1 X-46.614 Y27.500 Z-5.000
G1 X-46.950 Y27.163 Z-5.000
G3 X-48.417 Y25.697 Z-5.000 I0.932 J-2.399 K0.000
G1 X-49.000 Y25.114 Z-5.000
G1 X-49.000 Y22.285 Z-5.000
G1 X-48.086 Y23.199 Z-5.000
G3 X-46.290 Y22.167 Z-5.000 I2.083 J1.545 K0.000
G1 X-49.000 Y19.457 Z-5.000
G1 X-49.000 Y18.800 Z-5.000
G1 X-46.828 Y18.800 Z-5.000
G1 X-44.000 Y21.628 Z-5.000
G1 X-44.000 Y18.800 Z-5.000
G1 X-44.000 Y18.800 Z-5.500
G1 X-44.000 Y21.628 Z-5.500
G1 X-46.828 Y18.800 Z-5.500
G1 X-49.000 Y18.800 Z-5.500
G1 X-49.000 Y19.457 Z-5.500
G1 X-46.290 Y22.167 Z-5.500
G2 X-48.086 Y23.199 Z-5.500 I0.287 J2.578 K0.000
G1 X-49.000 Y22.285 Z-5.500
G1 X-49.000 Y25.114 Z-5.500
G1 X-48.417 Y25.697 Z-5.500
G2 X-46.950 Y27.163 Z-5.500 I2.399 J-0.932 K0.000
G1 X-46.614 Y27.500 Z-5.500
G1 X-48.934 Y27.500 Z-5.500
G3 X-49.000 Y27.434 Z-5.500 I-0.024 J-0.042 K0.000
G1 X-49.000 Y25.114 Z-5.500
G1 X-49.000 Y25.114 Z-5.500
G1 X-49.000 Y27.434 Z-5.500
G2 X-48.934 Y27.500 Z-5.500 I0.042 J0.024 K0.000
G1 X-44.000 Y27.500 Z-5.500
G1 X-44.000 Y26.401 Z-5.500
G3 X-48.038 Y26.360 Z-5.500 I-2.002 J-1.647 K0.000
G3 X-44.000 Y23.099 Z-5.500 I2.033 J-1.612 K0.000
G1 X-44.000 Y18.800 Z-5.500
G1 X-49.000 Y18.800 Z-5.500
G1 X-49.000 Y25.114 Z-5.500
G0 Z5.000
G0 X-46.614 Y27.500 Z5.000
G0 X-46.614 Y27.500 Z3.000
G1 X-46.614 Y27.500 Z-5.500
G1 X-46.950 Y27.163 Z-5.500
G2 X-44.455 Y26.830 Z-5.500 I0.956 J-2.356 K0.000
G1 X-44.000 Y27.285 Z-5.500
G1 X-44.000 Y26.401 Z-5.500
G3 X-44.455 Y26.830 Z-5.500 I-1.457 J-1.089 K0.000
G1 X-44.455 Y26.830 Z-6.000
G2 X-44.000 Y26.401 Z-6.000 I-1.002 J-1.518 K0.000
G1 X-44.000 Y27.285 Z-6.000
G1 X-44.455 Y26.830 Z-6.000
G3 X-46.950 Y27.163 Z-6.000 I-1.540 J-2.023 K0.000
G1 X-46.614 Y27.500 Z-6.000
G1 X-46.614 Y27.500 Z-6.000
G1 X-44.000 Y27.500 Z-6.000
G1 X-44.000 Y26.401 Z-6.000
G3 X-48.038 Y26.360 Z-6.000 I-2.002 J-1.647 K0.000
G3 X-44.000 Y23.099 Z-6.000 I2.033 J-1.612 K0.000
G1 X-44.000 Y18.800 Z-6.000
G1 X-49.000 Y18.800 Z-6.000
G1 X-49.000 Y27.434 Z-6.000
G2 X-48.934 Y27.500 Z-6.000 I0.042 J0.024 K0.000
G1 X-46.614 Y27.500 Z-6.000
G0 Z5.000
G0 X-49.000 Y25.114 Z5.000
G0 X-49.000 Y25.114 Z3.000
G1 X-49.000 Y25.114 Z-6.000
G1 X-49.000 Y27.434 Z-6.000
G2 X-48.934 Y27.500 Z-6.000 I0.042 J0.024 K0.000
G1 X-46.614 Y27.500 Z-6.000
G1 X-46.950 Y27.163 Z-6.000
G3 X-48.417 Y25.697 Z-6.000 I0.932 J-2.399 K0.000
G1 X-49.000 Y25.114 Z-6.000
G1 X-49.000 Y22.285 Z-6.000
G1 X-48.086 Y23.199 Z-6.000
G3 X-46.290 Y22.167 Z-6.000 I2.083 J1.545 K0.000
G1 X-49.000 Y19.457 Z-6.000
G1 X-49.000 Y18.800 Z-6.000
G1 X-46.828 Y18.800 Z-6.000
G1 X-44.000 Y21.628 Z-6.000
G1 X-44.000 Y18.800 Z-6.000
G1 X-44.000 Y18.800 Z-6.500
G1 X-44.000 Y21.628 Z-6.500
G1 X-46.828 Y18.800 Z-6.500
G1 X-49.000 Y18.800 Z-6.500
G1 X-49.000 Y19.457 Z-6.500
G1 X-46.290 Y22.167 Z-6.500
G2 X-48.086 Y23.199 Z-6.500 I0.287 J2.578 K0.000
G1 X-49.000 Y22.285 Z-6.500
G1 X-49.000 Y25.114 Z-6.500
G1 X-48.417 Y25.697 Z-6.500
G2 X-46.950 Y27.163 Z-6.500 I2.399 J-0.932 K0.000
G1 X-46.614 Y27.500 Z-6.500
G1 X-48.934 Y27.500 Z-6.500
G3 X-49.000 Y27.434 Z-6.500 I-0.024 J-0.042 K0.000
G1 X-49.000 Y25.114 Z-6.500
G1 X-49.000 Y25.114 Z-6.500
G1 X-49.000 Y27.434 Z-6.500
G2 X-48.934 Y27.500 Z-6.500 I0.042 J0.024 K0.000
G1 X-44.000 Y27.500 Z-6.500
G1 X-44.000 Y26.401 Z-6.500
G3 X-48.038 Y26.360 Z-6.500 I-2.002 J-1.647 K0.000
G3 X-44.000 Y23.099 Z-6.500 I2.033 J-1.612 K0.000
G1 X-44.000 Y18.800 Z-6.500
G1 X-49.000 Y18.800 Z-6.500
G1 X-49.000 Y25.114 Z-6.500
G0 Z5.000
G0 X-46.614 Y27.500 Z5.000
G0 X-46.614 Y27.500 Z3.000
G1 X-46.614 Y27.500 Z-6.500
G1 X-46.950 Y27.163 Z-6.500
G2 X-44.455 Y26.830 Z-6.500 I0.956 J-2.356 K0.000
G1 X-44.000 Y27.285 Z-6.500
G1 X-44.000 Y26.401 Z-6.500
G3 X-44.455 Y26.830 Z-6.500 I-1.457 J-1.089 K0.000
G1 X-44.455 Y26.830 Z-6.700
G2 X-44.000 Y26.401 Z-6.700 I-1.002 J-1.518 K0.000
G1 X-44.000 Y27.285 Z-6.700
G1 X-44.455 Y26.830 Z-6.700
G3 X-46.950 Y27.163 Z-6.700 I-1.540 J-2.023 K0.000
G1 X-46.614 Y27.500 Z-6.700
G1 X-46.614 Y27.500 Z-6.700
G1 X-44.000 Y27.500 Z-6.700
G1 X-44.000 Y26.401 Z-6.700
G3 X-48.038 Y26.360 Z-6.700 I-2.002 J-1.647 K0.000
G3 X-44.000 Y23.099 Z-6.700 I2.033 J-1.612 K0.000
G1 X-44.000 Y18.800 Z-6.700
G1 X-49.000 Y18.800 Z-6.700
G1 X-49.000 Y27.434 Z-6.700
G2 X-48.934 Y27.500 Z-6.700 I0.042 J0.024 K0.000
G1 X-46.614 Y27.500 Z-6.700
G0 Z5.000
G0 X-49.000 Y25.114 Z5.000
G0 X-49.000 Y25.114 Z3.000
G1 X-49.000 Y25.114 Z-6.700
G1 X-49.000 Y27.434 Z-6.700
G2 X-48.934 Y27.500 Z-6.700 I0.042 J0.024 K0.000
G1 X-46.614 Y27.500 Z-6.700
G1 X-46.950 Y27.163 Z-6.700
G3 X-48.417 Y25.697 Z-6.700 I0.932 J-2.399 K0.000
G1 X-49.000 Y25.114 Z-6.700
G1 X-49.000 Y22.285 Z-6.700
G1 X-48.086 Y23.199 Z-6.700
G3 X-46.290 Y22.167 Z-6.700 I2.083 J1.545 K0.000
G1 X-49.000 Y19.457 Z-6.700
G1 X-49.000 Y18.800 Z-6.700
G1 X-46.828 Y18.800 Z-6.700
G1 X-44.000 Y21.628 Z-6.700
G1 X-44.000 Y18.800 Z-6.700
G0 Z5.000
G0 Z5.000
G0 X-44.000 Y18.800
G0 X44.000
G0 X44.000 Z3.000
G1 X44.000 Y18.800 Z-0.500
G1 X44.000 Y23.099 Z-0.500
G3 X48.038 Y23.140 Z-0.500 I2.002 J1.647 K0.000
G3 X44.000 Y26.401 Z-0.500 I-2.033 J1.612 K0.000
G1 X44.000 Y27.500 Z-0.500
G1 X48.934 Y27.500 Z-0.500
G2 X49.000 Y27.434 Z-0.500 I0.024 J-0.042 K0.000
G1 X49.000 Y18.800 Z-0.500
G1 X44.000 Y18.800 Z-0.500
G0 Z5.000
G0 X44.414 Y22.699 Z5.000
G0 X44.414 Y22.699 Z3.000
G1 X44.414 Y22.699 Z-0.500
G2 X44.000 Y23.099 Z-0.500 I0.978 J1.428 K0.000
G1 X44.000 Y22.285 Z-0.500
G1 X44.414 Y22.699 Z-0.500
G3 X46.830 Y22.287 Z-0.500 I1.589 J2.025 K0.000
G1 X44.000 Y19.457 Z-0.500
G1 X44.000 Y18.800 Z-0.500
G1 X46.172 Y18.800 Z-0.500
G1 X49.000 Y21.628 Z-0.500
G1 X49.000 Y18.800 Z-0.500
G0 Z5.000
G0 X48.451 Y23.908 Z5.000
G0 X48.451 Y23.908 Z3.000
G1 X48.451 Y23.908 Z-0.500
G1 X49.000 Y24.457 Z-0.500
G1 X49.000 Y27.285 Z-0.500
G1 X48.054 Y26.340 Z-0.500
G3 X46.226 Y27.339 Z-0.500 I-2.052 J-1.582 K0.000
G1 X46.386 Y27.500 Z-0.500
G1 X44.000 Y27.500 Z-0.500
G1 X44.000 Y26.401 Z-0.500
G2 X46.226 Y27.339 Z-0.500 I1.997 J-1.630 K0.000
G1 X46.226 Y27.339 Z-1.000
G3 X44.000 Y26.401 Z-1.000 I-0.228 J-2.568 K0.000
G1 X44.000 Y27.500 Z-1.000
G1 X46.386 Y27.500 Z-1.000
G1 X46.226 Y27.339 Z-1.000
G2 X48.054 Y26.340 Z-1.000 I-0.223 J-2.581 K0.000
G1 X49.000 Y27.285 Z-1.000
G1 X49.000 Y24.457 Z-1.000
G1 X48.451 Y23.908 Z-1.000
G0 Z5.000
G0 X48.457 Y23.906 Z5.000
G0 X48.457 Y23.906 Z3.000
G1 X48.457 Y23.906 Z-1.000
G3 X44.000 Y26.401 Z-1.000 I-2.453 J0.847 K0.000
G1 X44.000 Y27.500 Z-1.000
G1 X48.934 Y27.500 Z-1.000
G2 X49.000 Y27.434 Z-1.000 I0.024 J-0.042 K0.000
G1 X49.000 Y18.800 Z-1.000
G1 X44.000 Y18.800 Z-1.000
G1 X44.000 Y23.099 Z-1.000
G3 X48.038 Y23.140 Z-1.000 I2.002 J1.647 K0.000
G3 X48.457 Y23.906 Z-1.000 I-2.033 J1.612 K0.000
G0 Z5.000
G0 X44.414 Y22.699 Z5.000
G0 X44.414 Y22.699 Z3.000
G1 X44.414 Y22.699 Z-1.000
G2 X44.000 Y23.099 Z-1.000 I0.978 J1.428 K0.000
G1 X44.000 Y22.285 Z-1.000
G1 X44.414 Y22.699 Z-1.000
G3 X46.830 Y22.287 Z-1.000 I1.589 J2.025 K0.000
G1 X44.000 Y19.457 Z-1.000
G1 X44.000 Y18.800 Z-1.000
G1 X46.172 Y18.800 Z-1.000
G1 X49.000 Y21.628 Z-1.000
G1 X49.000 Y18.800 Z-1.000
G1 X49.000 Y18.800 Z-1.500
G1 X49.000 Y21.628 Z-1.500
G1 X46.172 Y18.800 Z-1.500
G1 X44.000 Y18.800 Z-1.500
G1 X44.000 Y19.457 Z-1.500
G1 X46.830 Y22.287 Z-1.500
G2 X44.414 Y22.699 Z-1.500 I-0.827 J2.438 K0.000
G1 X44.000 Y22.285 Z-1.500
G1 X44.000 Y23.099 Z-1.500
G3 X44.414 Y22.699 Z-1.500 I1.392 J1.029 K0.000
G0 Z5.000
G0 X44.413 Y22.698 Z5.000
G0 X44.413 Y22.698 Z3.000
G1 X44.413 Y22.698 Z-1.500
G3 X48.038 Y23.140 Z-1.500 I1.589 J2.048 K0.000
G3 X44.000 Y26.401 Z-1.500 I-2.033 J1.612 K0.000
G1 X44.000 Y27.500 Z-1.500
G1 X48.934 Y27.500 Z-1.500
G2 X49.000 Y27.434 Z-1.500 I0.024 J-0.042 K0.000
G1 X49.000 Y18.800 Z-1.500
G1 X44.000 Y18.800 Z-1.500
G1 X44.000 Y23.099 Z-1.500
G3 X44.413 Y22.698 Z-1.500 I2.002 J1.647 K0.000
G0 Z5.000
G0 X48.451 Y23.908 Z5.000
G0 X48.451 Y23.908 Z3.000
G1 X48.451 Y23.908 Z-1.500
G1 X49.000 Y24.457 Z-1.500
G1 X49.000 Y27.285 Z-1.500
G1 X48.054 Y26.340 Z-1.500
G3 X46.226 Y27.339 Z-1.500 I-2.052 J-1.582 K0.000
G1 X46.386 Y27.500 Z-1.500
G1 X44.000 Y27.500 Z-1.500
G1 X44.000 Y26.401 Z-1.500
G2 X46.226 Y27.339 Z-1.500 I1.997 J-1.630 K0.000
G1 X46.226 Y27.339 Z-2.000
G3 X44.000 Y26.401 Z-2.000 I-0.228 J-2.568 K0.000
G1 X44.000 Y27.500 Z-2.000
G1 X46.386 Y27.500 Z-2.000
G1 X46.226 Y27.339 Z-2.000
G2 X48.054 Y26.340 Z-2.000 I-0.223 J-2.581 K0.000
G1 X49.000 Y27.285 Z-2.000
G1 X49.000 Y24.457 Z-2.000
G1 X48.451 Y23.908 Z-2.000
G0 Z5.000
G0 X48.457 Y23.906 Z5.000
G0 X48.457 Y23.906 Z3.000
G1 X48.457 Y23.906 Z-2.000
G3 X44.000 Y26.401 Z-2.000 I-2.453 J0.847 K0.000
G1 X44.000 Y27.500 Z-2.000
G1 X48.934 Y27.500 Z-2.000
G2 X49.000 Y27.434 Z-2.000 I0.024 J-0.042 K0.000
G1 X49.000 Y18.800 Z-2.000
G1 X44.000 Y18.800 Z-2.000
G1 X44.000 Y23.099 Z-2.000
G3 X48.038 Y23.140 Z-2.000 I2.002 J1.647 K0.000
G3 X48.457 Y23.906 Z-2.000 I-2.033 J1.612 K0.000
G0 Z5.000
G0 X44.414 Y22.699 Z5.000
G0 X44.414 Y22.699 Z3.000
G1 X44.414 Y22.699 Z-2.000
G2 X44.000 Y23.099 Z-2.000 I0.978 J1.428 K0.000
G1 X44.000 Y22.285 Z-2.000
G1 X44.414 Y22.699 Z-2.000
G3 X46.830 Y22.287 Z-2.000 I1.589 J2.025 K0.000
G1 X44.000 Y19.457 Z-2.000
G1 X44.000 Y18.800 Z-2.000
G1 X46.172 Y18.800 Z-2.000
G1 X49.000 Y21.628 Z-2.000
G1 X49.000 Y18.800 Z-2.000
G1 X49.000 Y18.800 Z-2.500
G1 X49.000 Y21.628 Z-2.500
G1 X46.172 Y18.800 Z-2.500
G1 X44.000 Y18.800 Z-2.500
G1 X44.000 Y19.457 Z-2.500
G1 X46.830 Y22.287 Z-2.500
G2 X44.414 Y22.699 Z-2.500 I-0.827 J2.438 K0.000
G1 X44.000 Y22.285 Z-2.500
G1 X44.000 Y23.099 Z-2.500
G3 X44.414 Y22.699 Z-2.500 I1.392 J1.029 K0.000
G0 Z5.000
G0 X44.413 Y22.698 Z5.000
G0 X44.413 Y22.698 Z3.000
G1 X44.413 Y22.698 Z-2.500
G3 X48.038 Y23.140 Z-2.500 I1.589 J2.048 K0.000
G3 X44.000 Y26.401 Z-2.500 I-2.033 J1.612 K0.000
G1 X44.000 Y27.500 Z-2.500
G1 X48.934 Y27.500 Z-2.500
G2 X49.000 Y27.434 Z-2.500 I0.024 J-0.042 K0.000
G1 X49.000 Y18.800 Z-2.500
G1 X44.000 Y18.800 Z-2.500
G1 X44.000 Y23.099 Z-2.500
G3 X44.413 Y22.698 Z-2.500 I2.002 J1.647 K0.000
G0 Z5.000
G0 X48.451 Y23.908 Z5.000
G0 X48.451 Y23.908 Z3.000
G1 X48.451 Y23.908 Z-2.500
G1 X49.000 Y24.457 Z-2.500
G1 X49.000 Y27.285 Z-2.500
G1 X48.054 Y26.340 Z-2.500
G3 X46.226 Y27.339 Z-2.500 I-2.052 J-1.582 K0.000
G1 X46.386 Y27.500 Z-2.500
G1 X44.000 Y27.500 Z-2.500
G1 X44.000 Y26.401 Z-2.500
G2 X46.226 Y27.339 Z-2.500 I1.997 J-1.630 K0.000
G1 X46.226 Y27.339 Z-3.000
G3 X44.000 Y26.401 Z-3.000 I-0.228 J-2.568 K0.000
G1 X44.000 Y27.500 Z-3.000
G1 X46.386 Y27.500 Z-3.000
G1 X46.226 Y27.339 Z-3.000
G2 X48.054 Y26.340 Z-3.000 I-0.223 J-2.581 K0.000
G1 X49.000 Y27.285 Z-3.000
G1 X49.000 Y24.457 Z-3.000
G1 X48.451 Y23.908 Z-3.000
G0 Z5.000
G0 X48.457 Y23.906 Z5.000
G0 X48.457 Y23.906 Z3.000
G1 X48.457 Y23.906 Z-3.000
G3 X44.000 Y26.401 Z-3.000 I-2.453 J0.847 K0.000
G1 X44.000 Y27.500 Z-3.000
G1 X48.934 Y27.500 Z-3.000
G2 X49.000 Y27.434 Z-3.000 I0.024 J-0.042 K0.000
G1 X49.000 Y18.800 Z-3.000
G1 X44.000 Y18.800 Z-3.000
G1 X44.000 Y23.099 Z-3.000
G3 X48.038 Y23.140 Z-3.000 I2.002 J1.647 K0.000
G3 X48.457 Y23.906 Z-3.000 I-2.033 J1.612 K0.000
G0 Z5.000
G0 X44.414 Y22.699 Z5.000
G0 X44.414 Y22.699 Z3.000
G1 X44.414 Y22.699 Z-3.000
G2 X44.000 Y23.099 Z-3.000 I0.978 J1.428 K0.000
G1 X44.000 Y22.285 Z-3.000
G1 X44.414 Y22.699 Z-3.000
G3 X46.830 Y22.287 Z-3.000 I1.589 J2.025 K0.000
G1 X44.000 Y19.457 Z-3.000
G1 X44.000 Y18.800 Z-3.000
G1 X46.172 Y18.800 Z-3.000
G1 X49.000 Y21.628 Z-3.000
G1 X49.000 Y18.800 Z-3.000
G1 X49.000 Y18.800 Z-3.500
G1 X49.000 Y21.628 Z-3.500
G1 X46.172 Y18.800 Z-3.500
G1 X44.000 Y18.800 Z-3.500
G1 X44.000 Y19.457 Z-3.500
G1 X46.830 Y22.287 Z-3.500
G2 X44.414 Y22.699 Z-3.500 I-0.827 J2.438 K0.000
G1 X44.000 Y22.285 Z-3.500
G1 X44.000 Y23.099 Z-3.500
G3 X44.414 Y22.699 Z-3.500 I1.392 J1.029 K0.000
G0 Z5.000
G0 X44.413 Y22.698 Z5.000
G0 X44.413 Y22.698 Z3.000
G1 X44.413 Y22.698 Z-3.500
G3 X48.038 Y23.140 Z-3.500 I1.589 J2.048 K0.000
G3 X44.000 Y26.401 Z-3.500 I-2.033 J1.612 K0.000
G1 X44.000 Y27.500 Z-3.500
G1 X48.934 Y27.500 Z-3.500
G2 X49.000 Y27.434 Z-3.500 I0.024 J-0.042 K0.000
G1 X49.000 Y18.800 Z-3.500
G1 X44.000 Y18.800 Z-3.500
G1 X44.000 Y23.099 Z-3.500
G3 X44.413 Y22.698 Z-3.500 I2.002 J1.647 K0.000
G0 Z5.000
G0 X48.451 Y23.908 Z5.000
G0 X48.451 Y23.908 Z3.000
G1 X48.451 Y23.908 Z-3.500
G1 X49.000 Y24.457 Z-3.500
G1 X49.000 Y27.285 Z-3.500
G1 X48.054 Y26.340 Z-3.500
G3 X46.226 Y27.339 Z-3.500 I-2.052 J-1.582 K0.000
G1 X46.386 Y27.500 Z-3.500
G1 X44.000 Y27.500 Z-3.500
G1 X44.000 Y26.401 Z-3.500
G2 X46.226 Y27.339 Z-3.500 I1.997 J-1.630 K0.000
G1 X46.226 Y27.339 Z-4.000
G3 X44.000 Y26.401 Z-4.000 I-0.228 J-2.568 K0.000
G1 X44.000 Y27.500 Z-4.000
G1 X46.386 Y27.500 Z-4.000
G1 X46.226 Y27.339 Z-4.000
G2 X48.054 Y26.340 Z-4.000 I-0.223 J-2.581 K0.000
G1 X49.000 Y27.285 Z-4.000
G1 X49.000 Y24.457 Z-4.000
G1 X48.451 Y23.908 Z-4.000
G0 Z5.000
G0 X48.457 Y23.906 Z5.000
G0 X48.457 Y23.906 Z3.000
G1 X48.457 Y23.906 Z-4.000
G3 X44.000 Y26.401 Z-4.000 I-2.453 J0.847 K0.000
G1 X44.000 Y27.500 Z-4.000
G1 X48.934 Y27.500 Z-4.000
G2 X49.000 Y27.434 Z-4.000 I0.024 J-0.042 K0.000
G1 X49.000 Y18.800 Z-4.000
G1 X44.000 Y18.800 Z-4.000
G1 X44.000 Y23.099 Z-4.000
G3 X48.038 Y23.140 Z-4.000 I2.002 J1.647 K0.000
G3 X48.457 Y23.906 Z-4.000 I-2.033 J1.612 K0.000
G0 Z5.000
G0 X44.414 Y22.699 Z5.000
G0 X44.414 Y22.699 Z3.000
G1 X44.414 Y22.699 Z-4.000
G2 X44.000 Y23.099 Z-4.000 I0.978 J1.428 K0.000
G1 X44.000 Y22.285 Z-4.000
G1 X44.414 Y22.699 Z-4.000
G3 X46.830 Y22.287 Z-4.000 I1.589 J2.025 K0.000
G1 X44.000 Y19.457 Z-4.000
G1 X44.000 Y18.800 Z-4.000
G1 X46.172 Y18.800 Z-4.000
G1 X49.000 Y21.628 Z-4.000
G1 X49.000 Y18.800 Z-4.000
G0 Z5.000
G0 Y18.800 Z5.000
G0 Y18.800 Z3.000
G1 X49.000 Y18.800 Z-4.500
G1 X44.000 Y18.800 Z-4.500
G1 X44.000 Y23.099 Z-4.500
G3 X48.038 Y23.140 Z-4.500 I2.002 J1.647 K0.000
G3 X44.000 Y26.401 Z-4.500 I-2.033 J1.612 K0.000
G1 X44.000 Y27.500 Z-4.500
G1 X48.934 Y27.500 Z-4.500
G2 X49.000 Y27.434 Z-4.500 I0.024 J-0.042 K0.000
G1 X49.000 Y18.800 Z-4.500
G0 Z5.000
G0 Y18.800 Z5.000
G0 Y18.800 Z3.000
G1 X49.000 Y18.800 Z-4.500
G1 X49.000 Y21.628 Z-4.500
G1 X46.172 Y18.800 Z-4.500
G1 X44.000 Y18.800 Z-4.500
G1 X44.000 Y19.457 Z-4.500
G1 X46.830 Y22.287 Z-4.500
G2 X44.414 Y22.699 Z-4.500 I-0.827 J2.438 K0.000
G1 X44.000 Y22.285 Z-4.500
G1 X44.000 Y23.099 Z-4.500
G3 X44.414 Y22.699 Z-4.500 I1.392 J1.029 K0.000
G0 Z5.000
G0 X48.451 Y23.908 Z5.000
G0 X48.451 Y23.908 Z3.000
G1 X48.451 Y23.908 Z-4.500
G1 X49.000 Y24.457 Z-4.500
G1 X49.000 Y27.285 Z-4.500
G1 X48.054 Y26.340 Z-4.500
G3 X46.226 Y27.339 Z-4.500 I-2.052 J-1.582 K0.000
G1 X46.386 Y27.500 Z-4.500
G1 X44.000 Y27.500 Z-4.500
G1 X44.000 Y26.401 Z-4.500
G2 X46.226 Y27.339 Z-4.500 I1.997 J-1.630 K0.000
G1 X46.226 Y27.339 Z-5.000
G3 X44.000 Y26.401 Z-5.000 I-0.228 J-2.568 K0.000
G1 X44.000 Y27.500 Z-5.000
G1 X46.386 Y27.500 Z-5.000
G1 X46.226 Y27.339 Z-5.000
G2 X48.054 Y26.340 Z-5.000 I-0.223 J-2.581 K0.000
G1 X49.000 Y27.285 Z-5.000
G1 X49.000 Y24.457 Z-5.000
G1 X48.451 Y23.908 Z-5.000
G0 Z5.000
G0 X48.457 Y23.906 Z5.000
G0 X48.457 Y23.906 Z3.000
G1 X48.457 Y23.906 Z-5.000
G3 X44.000 Y26.401 Z-5.000 I-2.453 J0.847 K0.000
G1 X44.000 Y27.500 Z-5.000
G1 X48.934 Y27.500 Z-5.000
G2 X49.000 Y27.434 Z-5.000 I0.024 J-0.042 K0.000
G1 X49.000 Y18.800 Z-5.000
G1 X44.000 Y18.800 Z-5.000
G1 X44.000 Y23.099 Z-5.000
G3 X48.038 Y23.140 Z-5.000 I2.002 J1.647 K0.000
G3 X48.457 Y23.906 Z-5.000 I-2.033 J1.612 K0.000
G0 Z5.000
G0 X44.414 Y22.699 Z5.000
G0 X44.414 Y22.699 Z3.000
G1 X44.414 Y22.699 Z-5.000
G2 X44.000 Y23.099 Z-5.000 I0.978 J1.428 K0.000
G1 X44.000 Y22.285 Z-5.000
G1 X44.414 Y22.699 Z-5.000
G3 X46.830 Y22.287 Z-5.000 I1.589 J2.025 K0.000
G1 X44.000 Y19.457 Z-5.000
G1 X44.000 Y18.800 Z-5.000
G1 X46.172 Y18.800 Z-5.000
G1 X49.000 Y21.628 Z-5.000
G1 X49.000 Y18.800 Z-5.000
G1 X49.000 Y18.800 Z-5.500
G1 X49.000 Y21.628 Z-5.500
G1 X46.172 Y18.800 Z-5.500
G1 X44.000 Y18.800 Z-5.500
G1 X44.000 Y19.457 Z-5.500
G1 X46.830 Y22.287 Z-5.500
G2 X44.414 Y22.699 Z-5.500 I-0.827 J2.438 K0.000
G1 X44.000 Y22.285 Z-5.500
G1 X44.000 Y23.099 Z-5.500
G3 X44.414 Y22.699 Z-5.500 I1.392 J1.029 K0.000
G0 Z5.000
G0 X44.413 Y22.698 Z5.000
G0 X44.413 Y22.698 Z3.000
G1 X44.413 Y22.698 Z-5.500
G3 X48.038 Y23.140 Z-5.500 I1.589 J2.048 K0.000
G3 X44.000 Y26.401 Z-5.500 I-2.033 J1.612 K0.000
G1 X44.000 Y27.500 Z-5.500
G1 X48.934 Y27.500 Z-5.500
G2 X49.000 Y27.434 Z-5.500 I0.024 J-0.042 K0.000
G1 X49.000 Y18.800 Z-5.500
G1 X44.000 Y18.800 Z-5.500
G1 X44.000 Y23.099 Z-5.500
G3 X44.413 Y22.698 Z-5.500 I2.002 J1.647 K0.000
G0 Z5.000
G0 X48.451 Y23.908 Z5.000
G0 X48.451 Y23.908 Z3.000
G1 X48.451 Y23.908 Z-5.500
G1 X49.000 Y24.457 Z-5.500
G1 X49.000 Y27.285 Z-5.500
G1 X48.054 Y26.340 Z-5.500
G3 X46.226 Y27.339 Z-5.500 I-2.052 J-1.582 K0.000
G1 X46.386 Y27.500 Z-5.500
G1 X44.000 Y27.500 Z-5.500
G1 X44.000 Y26.401 Z-5.500
G2 X46.226 Y27.339 Z-5.500 I1.997 J-1.630 K0.000
G1 X46.226 Y27.339 Z-6.000
G3 X44.000 Y26.401 Z-6.000 I-0.228 J-2.568 K0.000
G1 X44.000 Y27.500 Z-6.000
G1 X46.386 Y27.500 Z-6.000
G1 X46.226 Y27.339 Z-6.000
G2 X48.054 Y26.340 Z-6.000 I-0.223 J-2.581 K0.000
G1 X49.000 Y27.285 Z-6.000
G1 X49.000 Y24.457 Z-6.000
G1 X48.451 Y23.908 Z-6.000
G0 Z5.000
G0 X48.457 Y23.906 Z5.000
G0 X48.457 Y23.906 Z3.000
G1 X48.457 Y23.906 Z-6.000
G3 X44.000 Y26.401 Z-6.000 I-2.453 J0.847 K0.000
G1 X44.000 Y27.500 Z-6.000
G1 X48.934 Y27.500 Z-6.000
G2 X49.000 Y27.434 Z-6.000 I0.024 J-0.042 K0.000
G1 X49.000 Y18.800 Z-6.000
G1 X44.000 Y18.800 Z-6.000
G1 X44.000 Y23.099 Z-6.000
G3 X48.038 Y23.140 Z-6.000 I2.002 J1.647 K0.000
G3 X48.457 Y23.906 Z-6.000 I-2.033 J1.612 K0.000
G0 Z5.000
G0 X44.414 Y22.699 Z5.000
G0 X44.414 Y22.699 Z3.000
G1 X44.414 Y22.699 Z-6.000
G2 X44.000 Y23.099 Z-6.000 I0.978 J1.428 K0.000
G1 X44.000 Y22.285 Z-6.000
G1 X44.414 Y22.699 Z-6.000
G3 X46.830 Y22.287 Z-6.000 I1.589 J2.025 K0.000
G1 X44.000 Y19.457 Z-6.000
G1 X44.000 Y18.800 Z-6.000
G1 X46.172 Y18.800 Z-6.000
G1 X49.000 Y21.628 Z-6.000
G1 X49.000 Y18.800 Z-6.000
G1 X49.000 Y18.800 Z-6.500
G1 X49.000 Y21.628 Z-6.500
G1 X46.172 Y18.800 Z-6.500
G1 X44.000 Y18.800 Z-6.500
G1 X44.000 Y19.457 Z-6.500
G1 X46.830 Y22.287 Z-6.500
G2 X44.414 Y22.699 Z-6.500 I-0.827 J2.438 K0.000
G1 X44.000 Y22.285 Z-6.500
G1 X44.000 Y23.099 Z-6.500
G3 X44.414 Y22.699 Z-6.500 I1.392 J1.029 K0.000
G0 Z5.000
G0 X44.413 Y22.698 Z5.000
G0 X44.413 Y22.698 Z3.000
G1 X44.413 Y22.698 Z-6.500
G3 X48.038 Y23.140 Z-6.500 I1.589 J2.048 K0.000
G3 X44.000 Y26.401 Z-6.500 I-2.033 J1.612 K0.000
G1 X44.000 Y27.500 Z-6.500
G1 X48.934 Y27.500 Z-6.500
G2 X49.000 Y27.434 Z-6.500 I0.024 J-0.042 K0.000
G1 X49.000 Y18.800 Z-6.500
G1 X44.000 Y18.800 Z-6.500
G1 X44.000 Y23.099 Z-6.500
G3 X44.413 Y22.698 Z-6.500 I2.002 J1.647 K0.000
G0 Z5.000
G0 X48.451 Y23.908 Z5.000
G0 X48.451 Y23.908 Z3.000
G1 X48.451 Y23.908 Z-6.500
G1 X49.000 Y24.457 Z-6.500
G1 X49.000 Y27.285 Z-6.500
G1 X48.054 Y26.340 Z-6.500
G3 X46.226 Y27.339 Z-6.500 I-2.052 J-1.582 K0.000
G1 X46.386 Y27.500 Z-6.500
G1 X44.000 Y27.500 Z-6.500
G1 X44.000 Y26.401 Z-6.500
G2 X46.226 Y27.339 Z-6.500 I1.997 J-1.630 K0.000
G1 X46.226 Y27.339 Z-6.700
G3 X44.000 Y26.401 Z-6.700 I-0.228 J-2.568 K0.000
G1 X44.000 Y27.500 Z-6.700
G1 X46.386 Y27.500 Z-6.700
G1 X46.226 Y27.339 Z-6.700
G2 X48.054 Y26.340 Z-6.700 I-0.223 J-2.581 K0.000
G1 X49.000 Y27.285 Z-6.700
G1 X49.000 Y24.457 Z-6.700
G1 X48.451 Y23.908 Z-6.700
G0 Z5.000
G0 X48.457 Y23.906 Z5.000
G0 X48.457 Y23.906 Z3.000
G1 X48.457 Y23.906 Z-6.700
G3 X44.000 Y26.401 Z-6.700 I-2.453 J0.847 K0.000
G1 X44.000 Y27.500 Z-6.700
G1 X48.934 Y27.500 Z-6.700
G2 X49.000 Y27.434 Z-6.700 I0.024 J-0.042 K0.000
G1 X49.000 Y18.800 Z-6.700
G1 X44.000 Y18.800 Z-6.700
G1 X44.000 Y23.099 Z-6.700
G3 X48.038 Y23.140 Z-6.700 I2.002 J1.647 K0.000
G3 X48.457 Y23.906 Z-6.700 I-2.033 J1.612 K0.000
G0 Z5.000
G0 X44.414 Y22.699 Z5.000
G0 X44.414 Y22.699 Z3.000
G1 X44.414 Y22.699 Z-6.700
G2 X44.000 Y23.099 Z-6.700 I0.978 J1.428 K0.000
G1 X44.000 Y22.285 Z-6.700
G1 X44.414 Y22.699 Z-6.700
G3 X46.830 Y22.287 Z-6.700 I1.589 J2.025 K0.000
G1 X44.000 Y19.457 Z-6.700
G1 X44.000 Y18.800 Z-6.700
G1 X46.172 Y18.800 Z-6.700
G1 X49.000 Y21.628 Z-6.700
G1 X49.000 Y18.800 Z-6.700
G0 Z5.000
G0 Z5.000
G0 X49.000 Y18.800
G0 Y-18.800
G0 Y-18.800 Z3.000
G1 X49.000 Y-18.800 Z-0.500
G1 X49.000 Y-27.434 Z-0.500
G2 X48.934 Y-27.500 Z-0.500 I-0.042 J-0.024 K0.000
G1 X44.000 Y-27.500 Z-0.500
G1 X44.000 Y-26.401 Z-0.500
G3 X48.038 Y-26.360 Z-0.500 I2.002 J1.647 K0.000
G3 X44.000 Y-23.099 Z-0.500 I-2.033 J1.612 K0.000
G1 X44.000 Y-18.800 Z-0.500
G1 X49.000 Y-18.800 Z-0.500
G0 Z5.000
G0 X44.000 Y-21.171 Z5.000
G0 X44.000 Y-21.171 Z3.000
G1 X44.000 Y-21.171 Z-0.500
G1 X46.371 Y-18.800 Z-0.500
G1 X44.000 Y-18.800 Z-0.500
G1 X44.000 Y-21.171 Z-0.500
G1 X44.000 Y-23.099 Z-0.500
G2 X45.841 Y-22.159 Z-0.500 I1.993 J-1.631 K0.000
G1 X49.000 Y-18.999 Z-0.500
G1 X49.000 Y-21.828 Z-0.500
G1 X47.872 Y-22.956 Z-0.500
G2 X48.570 Y-25.086 Z-0.500 I-1.830 J-1.780 K0.000
G1 X49.000 Y-24.656 Z-0.500
G1 X49.000 Y-27.434 Z-0.500
G1 X48.992 Y-27.492 Z-0.500
G0 Z5.000
G0 X46.328 Y-27.328 Z5.000
G0 X46.328 Y-27.328 Z3.000
G1 X46.328 Y-27.328 Z-0.500
G1 X46.156 Y-27.500 Z-0.500
G1 X44.000 Y-27.500 Z-0.500
G1 X44.000 Y-26.828 Z-0.500
G1 X44.203 Y-26.625 Z-0.500
G2 X44.000 Y-26.401 Z-0.500 I4.177 J3.980 K0.000
G1 X44.000 Y-26.828 Z-0.500
G1 X44.000 Y-26.828 Z-1.000
G1 X44.000 Y-26.401 Z-1.000
G3 X44.203 Y-26.625 Z-1.000 I4.379 J3.756 K0.000
G1 X44.000 Y-26.828 Z-1.000
G1 X44.000 Y-27.500 Z-1.000
G1 X46.156 Y-27.500 Z-1.000
G1 X46.328 Y-27.328 Z-1.000
G0 Z5.000
G0 X46.328 Y-27.326 Z5.000
G0 X46.328 Y-27.326 Z3.000
G1 X46.328 Y-27.326 Z-1.000
G3 X48.038 Y-26.360 Z-1.000 I-0.326 J2.572 K0.000
G3 X44.000 Y-23.099 Z-1.000 I-2.033 J1.612 K0.000
G1 X44.000 Y-18.800 Z-1.000
G1 X49.000 Y-18.800 Z-1.000
G1 X49.000 Y-27.434 Z-1.000
G2 X48.934 Y-27.500 Z-1.000 I-0.042 J-0.024 K0.000
G1 X44.000 Y-27.500 Z-1.000
G1 X44.000 Y-26.401 Z-1.000
G3 X46.328 Y-27.326 Z-1.000 I2.002 J1.647 K0.000
G0 Z5.000
G0 X48.992 Y-27.492 Z5.000
G0 X48.992 Y-27.492 Z3.000
G1 X48.992 Y-27.492 Z-1.000
G1 X49.000 Y-27.434 Z-1.000
G1 X49.000 Y-24.656 Z-1.000
G1 X48.570 Y-25.086 Z-1.000
G3 X47.872 Y-22.956 Z-1.000 I-2.528 J0.350 K0.000
G1 X49.000 Y-21.828 Z-1.000
G1 X49.000 Y-18.999 Z-1.000
G1 X45.841 Y-22.159 Z-1.000
G3 X44.000 Y-23.099 Z-1.000 I0.152 J-2.571 K0.000
G1 X44.000 Y-21.171 Z-1.000
G1 X44.000 Y-18.800 Z-1.000
G1 X46.371 Y-18.800 Z-1.000
G1 X44.000 Y-21.171 Z-1.000
G1 X44.000 Y-21.171 Z-1.500
G1 X46.371 Y-18.800 Z-1.500
G1 X44.000 Y-18.800 Z-1.500
G1 X44.000 Y-21.171 Z-1.500
G1 X44.000 Y-23.099 Z-1.500
G2 X45.841 Y-22.159 Z-1.500 I1.993 J-1.631 K0.000
G1 X49.000 Y-18.999 Z-1.500
G1 X49.000 Y-21.828 Z-1.500
G1 X47.872 Y-22.956 Z-1.500
G2 X48.570 Y-25.086 Z-1.500 I-1.830 J-1.780 K0.000
G1 X49.000 Y-24.656 Z-1.500
G1 X49.000 Y-27.434 Z-1.500
G1 X48.992 Y-27.492 Z-1.500
G1 X48.992 Y-27.492 Z-1.500
G2 X48.934 Y-27.500 Z-1.500 I-0.034 J0.034 K0.000
G1 X44.000 Y-27.500 Z-1.500
G1 X44.000 Y-26.401 Z-1.500
G3 X48.038 Y-26.360 Z-1.500 I2.002 J1.647 K0.000
G3 X44.000 Y-23.099 Z-1.500 I-2.033 J1.612 K0.000
G1 X44.000 Y-18.800 Z-1.500
G1 X49.000 Y-18.800 Z-1.500
G1 X49.000 Y-27.434 Z-1.500
G2 X48.992 Y-27.492 Z-1.500 I-0.042 J-0.024 K0.000
G0 Z5.000
G0 X46.328 Y-27.328 Z5.000
G0 X46.328 Y-27.328 Z3.000
G1 X46.328 Y-27.328 Z-1.500
G1 X46.156 Y-27.500 Z-1.500
G1 X44.000 Y-27.500 Z-1.500
G1 X44.000 Y-26.828 Z-1.500
G1 X44.203 Y-26.625 Z-1.500
G2 X44.000 Y-26.401 Z-1.500 I4.177 J3.980 K0.000
G1 X44.000 Y-26.828 Z-1.500
G1 X44.000 Y-26.828 Z-2.000
G1 X44.000 Y-26.401 Z-2.000
G3 X44.203 Y-26.625 Z-2.000 I4.379 J3.756 K0.000
G1 X44.000 Y-26.828 Z-2.000
G1 X44.000 Y-27.500 Z-2.000
G1 X46.156 Y-27.500 Z-2.000
G1 X46.328 Y-27.328 Z-2.000
G0 Z5.000
G0 X46.328 Y-27.326 Z5.000
G0 X46.328 Y-27.326 Z3.000
G1 X46.328 Y-27.326 Z-2.000
G3 X48.038 Y-26.360 Z-2.000 I-0.326 J2.572 K0.000
G3 X44.000 Y-23.099 Z-2.000 I-2.033 J1.612 K0.000
G1 X44.000 Y-18.800 Z-2.000
G1 X49.000 Y-18.800 Z-2.000
G1 X49.000 Y-27.434 Z-2.000
G2 X48.934 Y-27.500 Z-2.000 I-0.042 J-0.024 K0.000
G1 X44.000 Y-27.500 Z-2.000
G1 X44.000 Y-26.401 Z-2.000
G3 X46.328 Y-27.326 Z-2.000 I2.002 J1.647 K0.000
G0 Z5.000
G0 X48.992 Y-27.492 Z5.000
G0 X48.992 Y-27.492 Z3.000
G1 X48.992 Y-27.492 Z-2.000
G1 X49.000 Y-27.434 Z-2.000
G1 X49.000 Y-24.656 Z-2.000
G1 X48.570 Y-25.086 Z-2.000
G3 X47.872 Y-22.956 Z-2.000 I-2.528 J0.350 K0.000
G1 X49.000 Y-21.828 Z-2.000
G1 X49.000 Y-18.999 Z-2.000
G1 X45.841 Y-22.159 Z-2.000
G3 X44.000 Y-23.099 Z-2.000 I0.152 J-2.571 K0.000
G1 X44.000 Y-21.171 Z-2.000
G1 X44.000 Y-18.800 Z-2.000
G1 X46.371 Y-18.800 Z-2.000
G1 X44.000 Y-21.171 Z-2.000
G1 X44.000 Y-21.171 Z-2.500
G1 X46.371 Y-18.800 Z-2.500
G1 X44.000 Y-18.800 Z-2.500
G1 X44.000 Y-21.171 Z-2.500
G1 X44.000 Y-23.099 Z-2.500
G2 X45.841 Y-22.159 Z-2.500 I1.993 J-1.631 K0.000
G1 X49.000 Y-18.999 Z-2.500
G1 X49.000 Y-21.828 Z-2.500
G1 X47.872 Y-22.956 Z-2.500
G2 X48.570 Y-25.086 Z-2.500 I-1.830 J-1.780 K0.000
G1 X49.000 Y-24.656 Z-2.500
G1 X49.000 Y-27.434 Z-2.500
G1 X48.992 Y-27.492 Z-2.500
G1 X48.992 Y-27.492 Z-2.500
G2 X48.934 Y-27.500 Z-2.500 I-0.034 J0.034 K0.000
G1 X44.000 Y-27.500 Z-2.500
G1 X44.000 Y-26.401 Z-2.500
G3 X48.038 Y-26.360 Z-2.500 I2.002 J1.647 K0.000
G3 X44.000 Y-23.099 Z-2.500 I-2.033 J1.612 K0.000
G1 X44.000 Y-18.800 Z-2.500
G1 X49.000 Y-18.800 Z-2.500
G1 X49.000 Y-27.434 Z-2.500
G2 X48.992 Y-27.492 Z-2.500 I-0.042 J-0.024 K0.000
G0 Z5.000
G0 X46.328 Y-27.328 Z5.000
G0 X46.328 Y-27.328 Z3.000
G1 X46.328 Y-27.328 Z-2.500
G1 X46.156 Y-27.500 Z-2.500
G1 X44.000 Y-27.500 Z-2.500
G1 X44.000 Y-26.828 Z-2.500
G1 X44.203 Y-26.625 Z-2.500
G2 X44.000 Y-26.401 Z-2.500 I4.177 J3.980 K0.000
G1 X44.000 Y-26.828 Z-2.500
G1 X44.000 Y-26.828 Z-3.000
G1 X44.000 Y-26.401 Z-3.000
G3 X44.203 Y-26.625 Z-3.000 I4.379 J3.756 K0.000
G1 X44.000 Y-26.828 Z-3.000
G1 X44.000 Y-27.500 Z-3.000
G1 X46.156 Y-27.500 Z-3.000
G1 X46.328 Y-27.328 Z-3.000
G0 Z5.000
G0 X46.328 Y-27.326 Z5.000
G0 X46.328 Y-27.326 Z3.000
G1 X46.328 Y-27.326 Z-3.000
G3 X48.038 Y-26.360 Z-3.000 I-0.326 J2.572 K0.000
G3 X44.000 Y-23.099 Z-3.000 I-2.033 J1.612 K0.000
G1 X44.000 Y-18.800 Z-3.000
G1 X49.000 Y-18.800 Z-3.000
G1 X49.000 Y-27.434 Z-3.000
G2 X48.934 Y-27.500 Z-3.000 I-0.042 J-0.024 K0.000
G1 X44.000 Y-27.500 Z-3.000
G1 X44.000 Y-26.401 Z-3.000
G3 X46.328 Y-27.326 Z-3.000 I2.002 J1.647 K0.000
G0 Z5.000
G0 X48.992 Y-27.492 Z5.000
G0 X48.992 Y-27.492 Z3.000
G1 X48.992 Y-27.492 Z-3.000
G1 X49.000 Y-27.434 Z-3.000
G1 X49.000 Y-24.656 Z-3.000
G1 X48.570 Y-25.086 Z-3.000
G3 X47.872 Y-22.956 Z-3.000 I-2.528 J0.350 K0.000
G1 X49.000 Y-21.828 Z-3.000
G1 X49.000 Y-18.999 Z-3.000
G1 X45.841 Y-22.159 Z-3.000
G3 X44.000 Y-23.099 Z-3.000 I0.152 J-2.571 K0.000
G1 X44.000 Y-21.171 Z-3.000
G1 X44.000 Y-18.800 Z-3.000
G1 X46.371 Y-18.800 Z-3.000
G1 X44.000 Y-21.171 Z-3.000
G1 X44.000 Y-21.171 Z-3.500
G1 X46.371 Y-18.800 Z-3.500
G1 X44.000 Y-18.800 Z-3.500
G1 X44.000 Y-21.171 Z-3.500
G1 X44.000 Y-23.099 Z-3.500
G2 X45.841 Y-22.159 Z-3.500 I1.993 J-1.631 K0.000
G1 X49.000 Y-18.999 Z-3.500
G1 X49.000 Y-21.828 Z-3.500
G1 X47.872 Y-22.956 Z-3.500
G2 X48.570 Y-25.086 Z-3.500 I-1.830 J-1.780 K0.000
G1 X49.000 Y-24.656 Z-3.500
G1 X49.000 Y-27.434 Z-3.500
G1 X48.992 Y-27.492 Z-3.500
G1 X48.992 Y-27.492 Z-3.500
G2 X48.934 Y-27.500 Z-3.500 I-0.034 J0.034 K0.000
G1 X44.000 Y-27.500 Z-3.500
G1 X44.000 Y-26.401 Z-3.500
G3 X48.038 Y-26.360 Z-3.500 I2.002 J1.647 K0.000
G3 X44.000 Y-23.099 Z-3.500 I-2.033 J1.612 K0.000
G1 X44.000 Y-18.800 Z-3.500
G1 X49.000 Y-18.800 Z-3.500
G1 X49.000 Y-27.434 Z-3.500
G2 X48.992 Y-27.492 Z-3.500 I-0.042 J-0.024 K0.000
G0 Z5.000
G0 X46.328 Y-27.328 Z5.000
G0 X46.328 Y-27.328 Z3.000
G1 X46.328 Y-27.328 Z-3.500
G1 X46.156 Y-27.500 Z-3.500
G1 X44.000 Y-27.500 Z-3.500
G1 X44.000 Y-26.828 Z-3.500
G1 X44.203 Y-26.625 Z-3.500
G2 X44.000 Y-26.401 Z-3.500 I4.177 J3.980 K0.000
G1 X44.000 Y-26.828 Z-3.500
G1 X44.000 Y-26.828 Z-4.000
G1 X44.000 Y-26.401 Z-4.000
G3 X44.203 Y-26.625 Z-4.000 I4.379 J3.756 K0.000
G1 X44.000 Y-26.828 Z-4.000
G1 X44.000 Y-27.500 Z-4.000
G1 X46.156 Y-27.500 Z-4.000
G1 X46.328 Y-27.328 Z-4.000
G0 Z5.000
G0 X46.328 Y-27.326 Z5.000
G0 X46.328 Y-27.326 Z3.000
G1 X46.328 Y-27.326 Z-4.000
G3 X48.038 Y-26.360 Z-4.000 I-0.326 J2.572 K0.000
G3 X44.000 Y-23.099 Z-4.000 I-2.033 J1.612 K0.000
G1 X44.000 Y-18.800 Z-4.000
G1 X49.000 Y-18.800 Z-4.000
G1 X49.000 Y-27.434 Z-4.000
G2 X48.934 Y-27.500 Z-4.000 I-0.042 J-0.024 K0.000
G1 X44.000 Y-27.500 Z-4.000
G1 X44.000 Y-26.401 Z-4.000
G3 X46.328 Y-27.326 Z-4.000 I2.002 J1.647 K0.000
G0 Z5.000
G0 X48.992 Y-27.492 Z5.000
G0 X48.992 Y-27.492 Z3.000
G1 X48.992 Y-27.492 Z-4.000
G1 X49.000 Y-27.434 Z-4.000
G1 X49.000 Y-24.656 Z-4.000
G1 X48.570 Y-25.086 Z-4.000
G3 X47.872 Y-22.956 Z-4.000 I-2.528 J0.350 K0.000
G1 X49.000 Y-21.828 Z-4.000
G1 X49.000 Y-18.999 Z-4.000
G1 X45.841 Y-22.159 Z-4.000
G3 X44.000 Y-23.099 Z-4.000 I0.152 J-2.571 K0.000
G1 X44.000 Y-21.171 Z-4.000
G1 X44.000 Y-18.800 Z-4.000
G1 X46.371 Y-18.800 Z-4.000
G1 X44.000 Y-21.171 Z-4.000
G1 X44.000 Y-21.171 Z-4.500
G1 X46.371 Y-18.800 Z-4.500
G1 X44.000 Y-18.800 Z-4.500
G1 X44.000 Y-21.171 Z-4.500
G1 X44.000 Y-23.099 Z-4.500
G2 X45.841 Y-22.159 Z-4.500 I1.993 J-1.631 K0.000
G1 X49.000 Y-18.999 Z-4.500
G1 X49.000 Y-21.828 Z-4.500
G1 X47.872 Y-22.956 Z-4.500
G2 X48.570 Y-25.086 Z-4.500 I-1.830 J-1.780 K0.000
G1 X49.000 Y-24.656 Z-4.500
G1 X49.000 Y-27.434 Z-4.500
G1 X48.992 Y-27.492 Z-4.500
G1 X48.992 Y-27.492 Z-4.500
G2 X48.934 Y-27.500 Z-4.500 I-0.034 J0.034 K0.000
G1 X44.000 Y-27.500 Z-4.500
G1 X44.000 Y-26.401 Z-4.500
G3 X48.038 Y-26.360 Z-4.500 I2.002 J1.647 K0.000
G3 X44.000 Y-23.099 Z-4.500 I-2.033 J1.612 K0.000
G1 X44.000 Y-18.800 Z-4.500
G1 X49.000 Y-18.800 Z-4.500
G1 X49.000 Y-27.434 Z-4.500
G2 X48.992 Y-27.492 Z-4.500 I-0.042 J-0.024 K0.000
G0 Z5.000
G0 X46.328 Y-27.328 Z5.000
G0 X46.328 Y-27.328 Z3.000
G1 X46.328 Y-27.328 Z-4.500
G1 X46.156 Y-27.500 Z-4.500
G1 X44.000 Y-27.500 Z-4.500
G1 X44.000 Y-26.828 Z-4.500
G1 X44.203 Y-26.625 Z-4.500
G2 X44.000 Y-26.401 Z-4.500 I4.177 J3.980 K0.000
G1 X44.000 Y-26.828 Z-4.500
G1 X44.000 Y-26.828 Z-5.000
G1 X44.000 Y-26.401 Z-5.000
G3 X44.203 Y-26.625 Z-5.000 I4.379 J3.756 K0.000
G1 X44.000 Y-26.828 Z-5.000
G1 X44.000 Y-27.500 Z-5.000
G1 X46.156 Y-27.500 Z-5.000
G1 X46.328 Y-27.328 Z-5.000
G0 Z5.000
G0 X46.328 Y-27.326 Z5.000
G0 X46.328 Y-27.326 Z3.000
G1 X46.328 Y-27.326 Z-5.000
G3 X48.038 Y-26.360 Z-5.000 I-0.326 J2.572 K0.000
G3 X44.000 Y-23.099 Z-5.000 I-2.033 J1.612 K0.000
G1 X44.000 Y-18.800 Z-5.000
G1 X49.000 Y-18.800 Z-5.000
G1 X49.000 Y-27.434 Z-5.000
G2 X48.934 Y-27.500 Z-5.000 I-0.042 J-0.024 K0.000
G1 X44.000 Y-27.500 Z-5.000
G1 X44.000 Y-26.401 Z-5.000
G3 X46.328 Y-27.326 Z-5.000 I2.002 J1.647 K0.000
G0 Z5.000
G0 X48.992 Y-27.492 Z5.000
G0 X48.992 Y-27.492 Z3.000
G1 X48.992 Y-27.492 Z-5.000
G1 X49.000 Y-27.434 Z-5.000
G1 X49.000 Y-24.656 Z-5.000
G1 X48.570 Y-25.086 Z-5.000
G3 X47.872 Y-22.956 Z-5.000 I-2.528 J0.350 K0.000
G1 X49.000 Y-21.828 Z-5.000
G1 X49.000 Y-18.999 Z-5.000
G1 X45.841 Y-22.159 Z-5.000
G3 X44.000 Y-23.099 Z-5.000 I0.152 J-2.571 K0.000
G1 X44.000 Y-21.171 Z-5.000
G1 X44.000 Y-18.800 Z-5.000
G1 X46.371 Y-18.800 Z-5.000
G1 X44.000 Y-21.171 Z-5.000
G1 X44.000 Y-21.171 Z-5.500
G1 X46.371 Y-18.800 Z-5.500
G1 X44.000 Y-18.800 Z-5.500
G1 X44.000 Y-21.171 Z-5.500
G1 X44.000 Y-23.099 Z-5.500
G2 X45.841 Y-22.159 Z-5.500 I1.993 J-1.631 K0.000
G1 X49.000 Y-18.999 Z-5.500
G1 X49.000 Y-21.828 Z-5.500
G1 X47.872 Y-22.956 Z-5.500
G2 X48.570 Y-25.086 Z-5.500 I-1.830 J-1.780 K0.000
G1 X49.000 Y-24.656 Z-5.500
G1 X49.000 Y-27.434 Z-5.500
G1 X48.992 Y-27.492 Z-5.500
G1 X48.992 Y-27.492 Z-5.500
G2 X48.934 Y-27.500 Z-5.500 I-0.034 J0.034 K0.000
G1 X44.000 Y-27.500 Z-5.500
G1 X44.000 Y-26.401 Z-5.500
G3 X48.038 Y-26.360 Z-5.500 I2.002 J1.647 K0.000
G3 X44.000 Y-23.099 Z-5.500 I-2.033 J1.612 K0.000
G1 X44.000 Y-18.800 Z-5.500
G1 X49.000 Y-18.800 Z-5.500
G1 X49.000 Y-27.434 Z-5.500
G2 X48.992 Y-27.492 Z-5.500 I-0.042 J-0.024 K0.000
G0 Z5.000
G0 X46.328 Y-27.328 Z5.000
G0 X46.328 Y-27.328 Z3.000
G1 X46.328 Y-27.328 Z-5.500
G1 X46.156 Y-27.500 Z-5.500
G1 X44.000 Y-27.500 Z-5.500
G1 X44.000 Y-26.828 Z-5.500
G1 X44.203 Y-26.625 Z-5.500
G2 X44.000 Y-26.401 Z-5.500 I4.177 J3.980 K0.000
G1 X44.000 Y-26.828 Z-5.500
G1 X44.000 Y-26.828 Z-6.000
G1 X44.000 Y-26.401 Z-6.000
G3 X44.203 Y-26.625 Z-6.000 I4.379 J3.756 K0.000
G1 X44.000 Y-26.828 Z-6.000
G1 X44.000 Y-27.500 Z-6.000
G1 X46.156 Y-27.500 Z-6.000
G1 X46.328 Y-27.328 Z-6.000
G0 Z5.000
G0 X46.328 Y-27.326 Z5.000
G0 X46.328 Y-27.326 Z3.000
G1 X46.328 Y-27.326 Z-6.000
G3 X48.038 Y-26.360 Z-6.000 I-0.326 J2.572 K0.000
G3 X44.000 Y-23.099 Z-6.000 I-2.033 J1.612 K0.000
G1 X44.000 Y-18.800 Z-6.000
G1 X49.000 Y-18.800 Z-6.000
G1 X49.000 Y-27.434 Z-6.000
G2 X48.934 Y-27.500 Z-6.000 I-0.042 J-0.024 K0.000
G1 X44.000 Y-27.500 Z-6.000
G1 X44.000 Y-26.401 Z-6.000
G3 X46.328 Y-27.326 Z-6.000 I2.002 J1.647 K0.000
G0 Z5.000
G0 X48.992 Y-27.492 Z5.000
G0 X48.992 Y-27.492 Z3.000
G1 X48.992 Y-27.492 Z-6.000
G1 X49.000 Y-27.434 Z-6.000
G1 X49.000 Y-24.656 Z-6.000
G1 X48.570 Y-25.086 Z-6.000
G3 X47.872 Y-22.956 Z-6.000 I-2.528 J0.350 K0.000
G1 X49.000 Y-21.828 Z-6.000
G1 X49.000 Y-18.999 Z-6.000
G1 X45.841 Y-22.159 Z-6.000
G3 X44.000 Y-23.099 Z-6.000 I0.152 J-2.571 K0.000
G1 X44.000 Y-21.171 Z-6.000
G1 X44.000 Y-18.800 Z-6.000
G1 X46.371 Y-18.800 Z-6.000
G1 X44.000 Y-21.171 Z-6.000
G1 X44.000 Y-21.171 Z-6.500
G1 X46.371 Y-18.800 Z-6.500
G1 X44.000 Y-18.800 Z-6.500
G1 X44.000 Y-21.171 Z-6.500
G1 X44.000 Y-23.099 Z-6.500
G2 X45.841 Y-22.159 Z-6.500 I1.993 J-1.631 K0.000
G1 X49.000 Y-18.999 Z-6.500
G1 X49.000 Y-21.828 Z-6.500
G1 X47.872 Y-22.956 Z-6.500
G2 X48.570 Y-25.086 Z-6.500 I-1.830 J-1.780 K0.000
G1 X49.000 Y-24.656 Z-6.500
G1 X49.000 Y-27.434 Z-6.500
G1 X48.992 Y-27.492 Z-6.500
G1 X48.992 Y-27.492 Z-6.500
G2 X48.934 Y-27.500 Z-6.500 I-0.034 J0.034 K0.000
G1 X44.000 Y-27.500 Z-6.500
G1 X44.000 Y-26.401 Z-6.500
G3 X48.038 Y-26.360 Z-6.500 I2.002 J1.647 K0.000
G3 X44.000 Y-23.099 Z-6.500 I-2.033 J1.612 K0.000
G1 X44.000 Y-18.800 Z-6.500
G1 X49.000 Y-18.800 Z-6.500
G1 X49.000 Y-27.434 Z-6.500
G2 X48.992 Y-27.492 Z-6.500 I-0.042 J-0.024 K0.000
G0 Z5.000
G0 X46.328 Y-27.328 Z5.000
G0 X46.328 Y-27.328 Z3.000
G1 X46.328 Y-27.328 Z-6.500
G1 X46.156 Y-27.500 Z-6.500
G1 X44.000 Y-27.500 Z-6.500
G1 X44.000 Y-26.828 Z-6.500
G1 X44.203 Y-26.625 Z-6.500
G2 X44.000 Y-26.401 Z-6.500 I4.177 J3.980 K0.000
G1 X44.000 Y-26.828 Z-6.500
G1 X44.000 Y-26.828 Z-6.700
G1 X44.000 Y-26.401 Z-6.700
G3 X44.203 Y-26.625 Z-6.700 I4.379 J3.756 K0.000
G1 X44.000 Y-26.828 Z-6.700
G1 X44.000 Y-27.500 Z-6.700
G1 X46.156 Y-27.500 Z-6.700
G1 X46.328 Y-27.328 Z-6.700
G0 Z5.000
G0 X46.328 Y-27.326 Z5.000
G0 X46.328 Y-27.326 Z3.000
G1 X46.328 Y-27.326 Z-6.700
G3 X48.038 Y-26.360 Z-6.700 I-0.326 J2.572 K0.000
G3 X44.000 Y-23.099 Z-6.700 I-2.033 J1.612 K0.000
G1 X44.000 Y-18.800 Z-6.700
G1 X49.000 Y-18.800 Z-6.700
G1 X49.000 Y-27.434 Z-6.700
G2 X48.934 Y-27.500 Z-6.700 I-0.042 J-0.024 K0.000
G1 X44.000 Y-27.500 Z-6.700
G1 X44.000 Y-26.401 Z-6.700
G3 X46.328 Y-27.326 Z-6.700 I2.002 J1.647 K0.000
G0 Z5.000
G0 X48.992 Y-27.492 Z5.000
G0 X48.992 Y-27.492 Z3.000
G1 X48.992 Y-27.492 Z-6.700
G1 X49.000 Y-27.434 Z-6.700
G1 X49.000 Y-24.656 Z-6.700
G1 X48.570 Y-25.086 Z-6.700
G3 X47.872 Y-22.956 Z-6.700 I-2.528 J0.350 K0.000
G1 X49.000 Y-21.828 Z-6.700
G1 X49.000 Y-18.999 Z-6.700
G1 X45.841 Y-22.159 Z-6.700
G3 X44.000 Y-23.099 Z-6.700 I0.152 J-2.571 K0.000
G1 X44.000 Y-21.171 Z-6.700
G1 X44.000 Y-18.800 Z-6.700
G1 X46.371 Y-18.800 Z-6.700
G1 X44.000 Y-21.171 Z-6.700
G0 Z5.000
G0 Z5.000
(Finish operation: Pocket_Shape001)
(Begin postamble)
M5
G17 G90
M2
