(Exported by FreeCAD)
(Post Processor: grbl_post)
(Output Time:2024-05-26 21:47:57.820837)
(Begin preamble)
G17 G90
G21
(Begin operation: Fixture)
(Path: Fixture)
G54
(Finish operation: Fixture)
(Begin operation: 2mm Endmill001)
(Path: 2mm Endmill001)
(2mm Endmill001)
(Begin toolchange)
( M6 T2 )
(Finish operation: 2mm Endmill001)
(Begin operation: Profile001)
(Path: Profile001)
(Profile001)
(Compensated Tool Path. Diameter: 2.0)
G0 Z5.000
G0 X53.241 Y31.742
G0 Z3.000
G1 X53.241 Y31.742 Z-0.500
G2 X54.998 Y27.560 Z-0.500 I-4.244 J-4.243 K0.000
G1 X55.000 Y-27.500 Z-0.500
G2 X49.060 Y-33.498 Z-0.500 I-6.001 J0.003 K0.000
G1 X-49.000 Y-33.500 Z-0.500
G2 X-54.998 Y-27.560 Z-0.500 I0.003 J6.001 K0.000
G1 X-55.000 Y27.500 Z-0.500
G2 X-49.060 Y33.498 Z-0.500 I6.001 J-0.003 K0.000
G1 X49.000 Y33.500 Z-0.500
G2 X53.241 Y31.742 Z-0.500 I-0.003 J-6.001 K0.000
G1 X53.241 Y31.742 Z-1.000
G2 X54.998 Y27.560 Z-1.000 I-4.244 J-4.243 K0.000
G1 X55.000 Y-27.500 Z-1.000
G2 X49.060 Y-33.498 Z-1.000 I-6.001 J0.003 K0.000
G1 X-49.000 Y-33.500 Z-1.000
G2 X-54.998 Y-27.560 Z-1.000 I0.003 J6.001 K0.000
G1 X-55.000 Y27.500 Z-1.000
G2 X-49.060 Y33.498 Z-1.000 I6.001 J-0.003 K0.000
G1 X49.000 Y33.500 Z-1.000
G2 X53.241 Y31.742 Z-1.000 I-0.003 J-6.001 K0.000
G1 X53.241 Y31.742 Z-1.500
G2 X54.998 Y27.560 Z-1.500 I-4.244 J-4.243 K0.000
G1 X55.000 Y-27.500 Z-1.500
G2 X49.060 Y-33.498 Z-1.500 I-6.001 J0.003 K0.000
G1 X-49.000 Y-33.500 Z-1.500
G2 X-54.998 Y-27.560 Z-1.500 I0.003 J6.001 K0.000
G1 X-55.000 Y27.500 Z-1.500
G2 X-49.060 Y33.498 Z-1.500 I6.001 J-0.003 K0.000
G1 X49.000 Y33.500 Z-1.500
G2 X53.241 Y31.742 Z-1.500 I-0.003 J-6.001 K0.000
G1 X53.241 Y31.742 Z-2.000
G2 X54.998 Y27.560 Z-2.000 I-4.244 J-4.243 K0.000
G1 X55.000 Y-27.500 Z-2.000
G2 X49.060 Y-33.498 Z-2.000 I-6.001 J0.003 K0.000
G1 X-49.000 Y-33.500 Z-2.000
G2 X-54.998 Y-27.560 Z-2.000 I0.003 J6.001 K0.000
G1 X-55.000 Y27.500 Z-2.000
G2 X-49.060 Y33.498 Z-2.000 I6.001 J-0.003 K0.000
G1 X49.000 Y33.500 Z-2.000
G2 X53.241 Y31.742 Z-2.000 I-0.003 J-6.001 K0.000
G1 X53.241 Y31.742 Z-2.500
G2 X54.998 Y27.560 Z-2.500 I-4.244 J-4.243 K0.000
G1 X55.000 Y-27.500 Z-2.500
G2 X49.060 Y-33.498 Z-2.500 I-6.001 J0.003 K0.000
G1 X-49.000 Y-33.500 Z-2.500
G2 X-54.998 Y-27.560 Z-2.500 I0.003 J6.001 K0.000
G1 X-55.000 Y27.500 Z-2.500
G2 X-49.060 Y33.498 Z-2.500 I6.001 J-0.003 K0.000
G1 X49.000 Y33.500 Z-2.500
G2 X53.241 Y31.742 Z-2.500 I-0.003 J-6.001 K0.000
G1 X53.241 Y31.742 Z-3.000
G2 X54.998 Y27.560 Z-3.000 I-4.244 J-4.243 K0.000
G1 X55.000 Y-27.500 Z-3.000
G2 X49.060 Y-33.498 Z-3.000 I-6.001 J0.003 K0.000
G1 X-49.000 Y-33.500 Z-3.000
G2 X-54.998 Y-27.560 Z-3.000 I0.003 J6.001 K0.000
G1 X-55.000 Y27.500 Z-3.000
G2 X-49.060 Y33.498 Z-3.000 I6.001 J-0.003 K0.000
G1 X49.000 Y33.500 Z-3.000
G2 X53.241 Y31.742 Z-3.000 I-0.003 J-6.001 K0.000
G1 X53.241 Y31.742 Z-3.500
G2 X54.998 Y27.560 Z-3.500 I-4.244 J-4.243 K0.000
G1 X55.000 Y-27.500 Z-3.500
G2 X49.060 Y-33.498 Z-3.500 I-6.001 J0.003 K0.000
G1 X-49.000 Y-33.500 Z-3.500
G2 X-54.998 Y-27.560 Z-3.500 I0.003 J6.001 K0.000
G1 X-55.000 Y27.500 Z-3.500
G2 X-49.060 Y33.498 Z-3.500 I6.001 J-0.003 K0.000
G1 X49.000 Y33.500 Z-3.500
G2 X53.241 Y31.742 Z-3.500 I-0.003 J-6.001 K0.000
G1 X53.241 Y31.742 Z-4.000
G2 X54.998 Y27.560 Z-4.000 I-4.244 J-4.243 K0.000
G1 X55.000 Y-27.500 Z-4.000
G2 X49.060 Y-33.498 Z-4.000 I-6.001 J0.003 K0.000
G1 X-49.000 Y-33.500 Z-4.000
G2 X-54.998 Y-27.560 Z-4.000 I0.003 J6.001 K0.000
G1 X-55.000 Y27.500 Z-4.000
G2 X-49.060 Y33.498 Z-4.000 I6.001 J-0.003 K0.000
G1 X49.000 Y33.500 Z-4.000
G2 X53.241 Y31.742 Z-4.000 I-0.003 J-6.001 K0.000
G1 X53.241 Y31.742 Z-4.500
G2 X54.998 Y27.560 Z-4.500 I-4.244 J-4.243 K0.000
G1 X55.000 Y-27.500 Z-4.500
G2 X49.060 Y-33.498 Z-4.500 I-6.001 J0.003 K0.000
G1 X-49.000 Y-33.500 Z-4.500
G2 X-54.998 Y-27.560 Z-4.500 I0.003 J6.001 K0.000
G1 X-55.000 Y27.500 Z-4.500
G2 X-49.060 Y33.498 Z-4.500 I6.001 J-0.003 K0.000
G1 X49.000 Y33.500 Z-4.500
G2 X53.241 Y31.742 Z-4.500 I-0.003 J-6.001 K0.000
G1 X53.241 Y31.742 Z-5.000
G2 X54.998 Y27.560 Z-5.000 I-4.244 J-4.243 K0.000
G1 X55.000 Y-27.500 Z-5.000
G2 X49.060 Y-33.498 Z-5.000 I-6.001 J0.003 K0.000
G1 X-49.000 Y-33.500 Z-5.000
G2 X-54.998 Y-27.560 Z-5.000 I0.003 J6.001 K0.000
G1 X-55.000 Y27.500 Z-5.000
G2 X-49.060 Y33.498 Z-5.000 I6.001 J-0.003 K0.000
G1 X49.000 Y33.500 Z-5.000
G2 X53.241 Y31.742 Z-5.000 I-0.003 J-6.001 K0.000
G1 X53.241 Y31.742 Z-5.500
G2 X54.998 Y27.560 Z-5.500 I-4.244 J-4.243 K0.000
G1 X55.000 Y-27.500 Z-5.500
G2 X49.060 Y-33.498 Z-5.500 I-6.001 J0.003 K0.000
G1 X-49.000 Y-33.500 Z-5.500
G2 X-54.998 Y-27.560 Z-5.500 I0.003 J6.001 K0.000
G1 X-55.000 Y27.500 Z-5.500
G2 X-49.060 Y33.498 Z-5.500 I6.001 J-0.003 K0.000
G1 X49.000 Y33.500 Z-5.500
G2 X53.241 Y31.742 Z-5.500 I-0.003 J-6.001 K0.000
G1 X53.241 Y31.742 Z-6.000
G2 X54.998 Y27.560 Z-6.000 I-4.244 J-4.243 K0.000
G1 X55.000 Y-27.500 Z-6.000
G2 X49.060 Y-33.498 Z-6.000 I-6.001 J0.003 K0.000
G1 X-49.000 Y-33.500 Z-6.000
G2 X-54.998 Y-27.560 Z-6.000 I0.003 J6.001 K0.000
G1 X-55.000 Y27.500 Z-6.000
G2 X-49.060 Y33.498 Z-6.000 I6.001 J-0.003 K0.000
G1 X49.000 Y33.500 Z-6.000
G2 X53.241 Y31.742 Z-6.000 I-0.003 J-6.001 K0.000
G1 X53.241 Y31.742 Z-6.500
G2 X54.998 Y27.560 Z-6.500 I-4.244 J-4.243 K0.000
G1 X55.000 Y-27.500 Z-6.500
G2 X49.060 Y-33.498 Z-6.500 I-6.001 J0.003 K0.000
G1 X-49.000 Y-33.500 Z-6.500
G2 X-54.998 Y-27.560 Z-6.500 I0.003 J6.001 K0.000
G1 X-55.000 Y27.500 Z-6.500
G2 X-49.060 Y33.498 Z-6.500 I6.001 J-0.003 K0.000
G1 X49.000 Y33.500 Z-6.500
G2 X53.241 Y31.742 Z-6.500 I-0.003 J-6.001 K0.000
G1 X53.241 Y31.742 Z-7.000
G2 X54.998 Y27.560 Z-7.000 I-4.244 J-4.243 K0.000
G1 X55.000 Y-27.500 Z-7.000
G2 X49.060 Y-33.498 Z-7.000 I-6.001 J0.003 K0.000
G1 X-49.000 Y-33.500 Z-7.000
G2 X-54.998 Y-27.560 Z-7.000 I0.003 J6.001 K0.000
G1 X-55.000 Y27.500 Z-7.000
G2 X-49.060 Y33.498 Z-7.000 I6.001 J-0.003 K0.000
G1 X49.000 Y33.500 Z-7.000
G2 X53.241 Y31.742 Z-7.000 I-0.003 J-6.001 K0.000
G1 X53.241 Y31.742 Z-7.500
G2 X54.998 Y27.560 Z-7.500 I-4.244 J-4.243 K0.000
G1 X55.000 Y-27.500 Z-7.500
G2 X49.060 Y-33.498 Z-7.500 I-6.001 J0.003 K0.000
G1 X-49.000 Y-33.500 Z-7.500
G2 X-54.998 Y-27.560 Z-7.500 I0.003 J6.001 K0.000
G1 X-55.000 Y27.500 Z-7.500
G2 X-49.060 Y33.498 Z-7.500 I6.001 J-0.003 K0.000
G1 X49.000 Y33.500 Z-7.500
G2 X53.241 Y31.742 Z-7.500 I-0.003 J-6.001 K0.000
G1 X53.241 Y31.742 Z-8.000
G2 X54.998 Y27.560 Z-8.000 I-4.244 J-4.243 K0.000
G1 X55.000 Y-27.500 Z-8.000
G2 X49.060 Y-33.498 Z-8.000 I-6.001 J0.003 K0.000
G1 X-49.000 Y-33.500 Z-8.000
G2 X-54.998 Y-27.560 Z-8.000 I0.003 J6.001 K0.000
G1 X-55.000 Y27.500 Z-8.000
G2 X-49.060 Y33.498 Z-8.000 I6.001 J-0.003 K0.000
G1 X49.000 Y33.500 Z-8.000
G2 X53.241 Y31.742 Z-8.000 I-0.003 J-6.001 K0.000
G1 X53.241 Y31.742 Z-8.500
G2 X54.998 Y27.560 Z-8.500 I-4.244 J-4.243 K0.000
G1 X55.000 Y-27.500 Z-8.500
G2 X49.060 Y-33.498 Z-8.500 I-6.001 J0.003 K0.000
G1 X-49.000 Y-33.500 Z-8.500
G2 X-54.998 Y-27.560 Z-8.500 I0.003 J6.001 K0.000
G1 X-55.000 Y27.500 Z-8.500
G2 X-49.060 Y33.498 Z-8.500 I6.001 J-0.003 K0.000
G1 X49.000 Y33.500 Z-8.500
G2 X53.241 Y31.742 Z-8.500 I-0.003 J-6.001 K0.000
G1 X53.241 Y31.742 Z-9.000
G2 X54.998 Y27.560 Z-9.000 I-4.244 J-4.243 K0.000
G1 X55.000 Y-27.500 Z-9.000
G2 X49.060 Y-33.498 Z-9.000 I-6.001 J0.003 K0.000
G1 X-49.000 Y-33.500 Z-9.000
G2 X-54.998 Y-27.560 Z-9.000 I0.003 J6.001 K0.000
G1 X-55.000 Y27.500 Z-9.000
G2 X-49.060 Y33.498 Z-9.000 I6.001 J-0.003 K0.000
G1 X49.000 Y33.500 Z-9.000
G2 X53.241 Y31.742 Z-9.000 I-0.003 J-6.001 K0.000
G1 X53.241 Y31.742 Z-9.500
G2 X54.998 Y27.560 Z-9.500 I-4.244 J-4.243 K0.000
G1 X55.000 Y-27.500 Z-9.500
G2 X49.060 Y-33.498 Z-9.500 I-6.001 J0.003 K0.000
G1 X-49.000 Y-33.500 Z-9.500
G2 X-54.998 Y-27.560 Z-9.500 I0.003 J6.001 K0.000
G1 X-55.000 Y27.500 Z-9.500
G2 X-49.060 Y33.498 Z-9.500 I6.001 J-0.003 K0.000
G1 X49.000 Y33.500 Z-9.500
G2 X53.241 Y31.742 Z-9.500 I-0.003 J-6.001 K0.000
G1 X53.241 Y31.742 Z-10.000
G2 X54.998 Y27.560 Z-10.000 I-4.244 J-4.243 K0.000
G1 X55.000 Y-27.500 Z-10.000
G2 X49.060 Y-33.498 Z-10.000 I-6.001 J0.003 K0.000
G1 X-49.000 Y-33.500 Z-10.000
G2 X-54.998 Y-27.560 Z-10.000 I0.003 J6.001 K0.000
G1 X-55.000 Y27.500 Z-10.000
G2 X-49.060 Y33.498 Z-10.000 I6.001 J-0.003 K0.000
G1 X49.000 Y33.500 Z-10.000
G2 X53.241 Y31.742 Z-10.000 I-0.003 J-6.001 K0.000
G0 Z5.000
G0 Z5.000
(Finish operation: Profile001)
(Begin postamble)
M5
G17 G90
M2
