; generated by PrusaSlicer 2.7.4 on 2024-06-03 at 22:22:08 UTC

; 

; external perimeters extrusion width = 0.42mm
; perimeters extrusion width = 0.44mm
; infill extrusion width = 0.44mm
; solid infill extrusion width = 0.44mm
; top infill extrusion width = 0.40mm
; first layer extrusion width = 0.42mm

; external perimeters extrusion width = 0.42mm
; perimeters extrusion width = 0.44mm
; infill extrusion width = 0.44mm
; solid infill extrusion width = 0.44mm
; top infill extrusion width = 0.40mm
; first layer extrusion width = 0.42mm

M201 X500 Y500 Z100 E5000 ; sets maximum accelerations, mm/sec^2
M203 X500 Y500 Z10 E60 ; sets maximum feedrates, mm / sec
M204 S500 T1000 ; sets acceleration (S) and retract acceleration (R), mm/sec^2
M205 X8.00 Y8.00 Z0.40 E5.00 ; sets the jerk limits, mm/sec
M205 S0 T0 ; sets the minimum extruding and travel feed rate, mm/sec

; printing object Front-Front_Part.stl id:1 copy 0
; stop printing object Front-Front_Part.stl id:1 copy 0
; printing object Back-Part.stl id:0 copy 0
; stop printing object Back-Part.stl id:0 copy 0

;TYPE:Custom
G90 ; use absolute coordinates
M83 ; extruder relative mode
M104 S150 ; set temporary nozzle temp to prevent oozing during homing
M140 S60 ; set final bed temp
G4 S30 ; allow partial nozzle warmup
G28 ; home all axis
G1 Z50 F240
G1 X2.0 Y10 F3000
M104 S215 ; set final nozzle temp
M190 S60 ; wait for bed temp to stabilize
M109 S215 ; wait for nozzle temp to stabilize
G1 Z0.28 F240
G92 E0
G1 X2.0 Y140 E10 F1500 ; prime the nozzle
G1 X2.3 Y140 F5000
G92 E0
G1 X2.3 Y10 E10 F1200 ; prime the nozzle
G92 E0
G21 ; set units to millimeters
G90 ; use absolute coordinates
M83 ; use relative distances for extrusion
; Filament gcode
M107
;LAYER_CHANGE
;Z:0.2
;HEIGHT:0.2
G1 E-5 F3600
G1 Z.2 F9000
G1 X58.346 Y41.913
G1 Z.2
G1 E5 F2400
M204 S500
;TYPE:Skirt/Brim
;WIDTH:0.42
G1 F1200
G1 X58.936 Y41.137 E.03056
G1 X59.773 Y40.257 E.03808
G1 X60.708 Y39.49 E.03792
G1 X61.735 Y38.84 E.03811
G1 X62.607 Y38.414 E.03043
G1 X63.746 Y38.007 E.03792
G1 X64.931 Y37.741 E.03808
G1 X66.135 Y37.622 E.03793
G1 X164.62 Y37.616 E3.08793
G1 X166.546 Y37.829 E.06076
G1 X168.172 Y38.323 E.05328
G1 X169.892 Y39.215 E.06075
G1 X171.227 Y40.257 E.0531
G1 X172.51 Y41.708 E.06073
G1 X173.384 Y43.166 E.0533
G1 X174.059 Y44.982 E.06075
G1 X174.366 Y46.895 E.06075
G1 X174.384 Y177.62 E4.09879
G1 X174.259 Y179.069 E.0456
G1 X173.924 Y180.484 E.04559
G1 X173.384 Y181.834 E.04559
G1 X172.652 Y183.091 E.04561
G1 X171.904 Y184.049 E.03811
G1 X171.049 Y184.904 E.03791
G1 X170.091 Y185.652 E.03811
G1 X169.054 Y186.273 E.0379
G1 X167.943 Y186.766 E.03811
G1 X167.018 Y187.059 E.03042
G1 X165.832 Y187.295 E.03792
G1 X164.62 Y187.384 E.0381
G1 X66.38 Y187.384 E3.08025
G1 X64.933 Y187.26 E.04554
G1 X63.519 Y186.924 E.04557
G1 X62.169 Y186.385 E.04558
G1 X60.914 Y185.655 E.04552
G1 X59.957 Y184.909 E.03805
G1 X59.103 Y184.057 E.03782
G1 X58.356 Y183.102 E.03802
G1 X57.734 Y182.067 E.03786
G1 X57.328 Y181.184 E.03047
G1 X56.946 Y180.034 E.03799
G1 X56.708 Y178.851 E.03784
G1 X56.617 Y177.642 E.03801
G1 X56.616 Y47.38 E4.08427
G1 X56.739 Y45.945 E.04516
G1 X57.072 Y44.53 E.04558
G1 X57.616 Y43.166 E.04604
G1 X58.316 Y41.965 E.04359
G1 X58.316 Y41.965 F9000
G1 X58.64 Y42.154
G1 F1200
G1 X58.654 Y42.13 E.00087
G1 X59.221 Y41.383 E.0294
G1 X60.034 Y40.53 E.03695
G1 X60.926 Y39.798 E.03618
G1 X61.921 Y39.168 E.03693
G1 X62.964 Y38.674 E.03619
G1 X63.846 Y38.37 E.02925
G1 X64.996 Y38.112 E.03695
G1 X66.144 Y37.999 E.03617
G1 X164.611 Y37.993 E3.08736
G1 X166.463 Y38.197 E.05842
G1 X168.036 Y38.674 E.05154
G1 X169.69 Y39.534 E.05845
G1 X170.967 Y40.53 E.05078
G1 X172.202 Y41.926 E.05844
G1 X173.047 Y43.335 E.05151
G1 X173.695 Y45.083 E.05845
G1 X173.99 Y46.923 E.05843
G1 X174.008 Y177.5 E4.09415
G1 X173.888 Y179.004 E.04731
G1 X173.565 Y180.366 E.04389
G1 X173.047 Y181.665 E.04385
G1 X172.343 Y182.874 E.04387
G1 X171.618 Y183.803 E.03695
G1 X170.803 Y184.618 E.03614
G1 X169.874 Y185.343 E.03695
G1 X168.884 Y185.937 E.0362
G1 X167.807 Y186.414 E.03693
G1 X166.917 Y186.695 E.02926
G1 X165.786 Y186.92 E.03616
G1 X164.611 Y187.007 E.03694
G1 X66.389 Y187.007 E3.07968
G1 X64.997 Y186.888 E.0438
G1 X63.637 Y186.566 E.04382
G1 X62.339 Y186.049 E.04381
G1 X61.13 Y185.346 E.04385
G1 X60.203 Y184.624 E.03684
G1 X59.389 Y183.81 E.03609
G1 X58.664 Y182.884 E.03687
G1 X58.07 Y181.897 E.03612
G1 X57.679 Y181.048 E.02931
G1 X57.309 Y179.933 E.03683
G1 X57.082 Y178.804 E.03611
G1 X56.994 Y177.632 E.03685
G1 X56.992 Y47.5 E4.0802
G1 X57.11 Y46.009 E.0469
G1 X57.431 Y44.648 E.04384
G1 X57.953 Y43.335 E.0443
G1 X58.61 Y42.206 E.04096
G1 X58.61 Y42.206 F9000
G1 X58.941 Y42.41
G1 F1200
G1 X59.105 Y42.144 E.0098
G1 X59.667 Y41.444 E.02815
G1 X60.444 Y40.667 E.03445
G1 X61.343 Y39.965 E.03576
G1 X62.107 Y39.496 E.02811
G1 X62.912 Y39.104 E.02807
G1 X63.947 Y38.734 E.03446
G1 X65.06 Y38.484 E.03577
G1 X66.153 Y38.376 E.03444
G1 X164.601 Y38.37 E3.08677
G1 X166.381 Y38.565 E.05614
G1 X167.9 Y39.026 E.04977
G1 X169.488 Y39.852 E.05612
G1 X170.706 Y40.803 E.04845
G1 X171.894 Y42.143 E.05615
G1 X172.71 Y43.505 E.04978
G1 X173.332 Y45.183 E.05611
G1 X173.614 Y46.951 E.05614
G1 X173.63 Y177.601 E4.09644
G1 X173.516 Y178.94 E.04214
G1 X173.207 Y180.247 E.04211
G1 X172.6 Y181.714 E.04978
G1 X171.894 Y182.857 E.04212
G1 X171.197 Y183.706 E.03444
G1 X170.37 Y184.493 E.03579
G1 X169.488 Y185.148 E.03445
G1 X168.714 Y185.6 E.0281
G1 X167.671 Y186.062 E.03577
G1 X166.817 Y186.332 E.02808
G1 X165.739 Y186.546 E.03446
G1 X164.601 Y186.63 E.03578
G1 X66.399 Y186.63 E3.07905
G1 X65.061 Y186.517 E.0421
G1 X63.522 Y186.131 E.04975
G1 X62.289 Y185.602 E.04207
G1 X61.147 Y184.897 E.04208
G1 X60.3 Y184.202 E.03435
G1 X59.514 Y183.378 E.0357
G1 X58.859 Y182.499 E.03437
G1 X58.407 Y181.727 E.02805
G1 X58.031 Y180.912 E.02814
G1 X57.672 Y179.831 E.03571
G1 X57.457 Y178.757 E.03434
G1 X57.371 Y177.622 E.03569
G1 X57.37 Y47.399 E4.08305
G1 X57.525 Y45.824 E.04962
G1 X57.868 Y44.525 E.04213
G1 X58.4 Y43.286 E.04228
G1 X58.909 Y42.461 E.03039
G1 X58.909 Y42.461 F9000
G1 X59.229 Y42.659
G1 F1200
G1 X59.414 Y42.361 E.011
G1 X59.953 Y41.69 E.02699
G1 X60.69 Y40.953 E.03268
G1 X61.56 Y40.273 E.03462
G1 X62.293 Y39.824 E.02695
G1 X63.235 Y39.378 E.03268
G1 X64.047 Y39.097 E.02694
G1 X65.125 Y38.855 E.03464
G1 X66.163 Y38.753 E.0327
G1 X164.592 Y38.747 E3.08617
G1 X166.298 Y38.933 E.05381
G1 X167.935 Y39.448 E.05381
G1 X169.286 Y40.171 E.04804
G1 X170.624 Y41.246 E.05382
G1 X171.727 Y42.56 E.05379
G1 X172.452 Y43.841 E.04615
G1 X173.013 Y45.463 E.05381
G1 X173.247 Y47.163 E.0538
G1 X173.254 Y177.5 E4.08663
G1 X173.145 Y178.875 E.04325
G1 X172.849 Y180.129 E.0404
G1 X172.263 Y181.545 E.04805
G1 X171.585 Y182.64 E.04038
G1 X170.924 Y183.446 E.03268
G1 X170.124 Y184.208 E.03464
G1 X169.44 Y184.727 E.02692
G1 X168.545 Y185.263 E.03271
G1 X167.536 Y185.71 E.0346
G1 X166.716 Y185.968 E.02695
G1 X165.693 Y186.172 E.03271
G1 X164.592 Y186.253 E.03461
G1 X66.408 Y186.253 E3.07849
G1 X65.126 Y186.145 E.04034
G1 X63.64 Y185.773 E.04803
G1 X62.459 Y185.265 E.04031
G1 X61.364 Y184.588 E.04036
G1 X60.559 Y183.929 E.03262
G1 X59.799 Y183.132 E.03453
G1 X59.28 Y182.449 E.0269
G1 X58.744 Y181.557 E.03263
G1 X58.383 Y180.776 E.02698
G1 X58.036 Y179.73 E.03455
G1 X57.831 Y178.71 E.03262
G1 X57.747 Y177.612 E.03453
G1 X57.747 Y47.408 E4.08245
G1 X57.896 Y45.888 E.04789
G1 X58.226 Y44.643 E.04038
G1 X58.737 Y43.455 E.04055
G1 X59.198 Y42.71 E.02747
G1 X59.198 Y42.71 F9000
G1 X59.525 Y42.906
G1 F1200
G1 X59.722 Y42.578 E.012
G1 X60.936 Y41.238 E.05669
G1 X61.778 Y40.582 E.03347
G1 X62.478 Y40.152 E.02576
G1 X64.148 Y39.461 E.05667
G1 X65.189 Y39.227 E.03345
G1 X66.172 Y39.13 E.03097
G1 X164.583 Y39.124 E3.08561
G1 X166.215 Y39.301 E.05147
G1 X167.782 Y39.793 E.0515
G1 X169.085 Y40.49 E.04633
G1 X170.364 Y41.519 E.05147
G1 X171.418 Y42.778 E.05148
G1 X172.107 Y43.994 E.04382
G1 X172.645 Y45.545 E.05147
G1 X172.87 Y47.172 E.0515
G1 X172.877 Y177.5 E4.08634
G1 X172.773 Y178.811 E.04123
G1 X172.491 Y180.011 E.03865
G1 X171.926 Y181.375 E.04629
G1 X171.277 Y182.423 E.03865
G1 X170.651 Y183.186 E.03094
G1 X169.878 Y183.922 E.03347
G1 X168.375 Y184.926 E.05667
G1 X167.4 Y185.359 E.03345
G1 X166.616 Y185.605 E.02576
G1 X165.647 Y185.798 E.03098
G1 X164.583 Y185.876 E.03345
G1 X66.417 Y185.876 E3.07793
G1 X65.19 Y185.773 E.03861
G1 X63.759 Y185.415 E.04625
G1 X62.628 Y184.928 E.03861
G1 X61.581 Y184.28 E.03861
G1 X60.819 Y183.656 E.03088
G1 X60.084 Y182.885 E.0334
G1 X59.08 Y181.387 E.05654
G1 X58.646 Y180.411 E.03349
G1 X58.358 Y179.469 E.03089
G1 X58.174 Y178.42 E.03339
G1 X58.123 Y177.512 E.02851
G1 X58.123 Y47.5 E4.07643
G1 X58.225 Y46.201 E.04085
G1 X58.505 Y45.001 E.03864
G1 X58.964 Y43.844 E.03903
G1 X59.495 Y42.958 E.03239
G1 E-3.5 F3600
;WIPE_START
G1 F7200
G1 X59.525 Y42.906 E-.02852
G1 X59.722 Y42.578 E-.18174
G1 X60.936 Y41.238 E-.85887
G1 X61.651 Y40.68 E-.43087
;WIPE_END
; printing object Back-Part.stl id:0 copy 0
G1 X65.176 Y118.799 F9000
G1 E5 F2400
;TYPE:Perimeter
;WIDTH:0.419999
G1 F1200
G1 X65.765 Y118.651 E.01904
G1 X66.307 Y118.57 E.01718
G1 X164.377 Y118.564 E3.07491
G1 X164.89 Y118.595 E.01611
G1 X165.455 Y118.694 E.01799
G1 X166.042 Y118.89 E.0194
G1 X166.512 Y119.12 E.01641
G1 X166.986 Y119.453 E.01816
G1 X167.547 Y120.014 E.02488
G1 X167.787 Y120.354 E.01305
G1 X168.051 Y120.807 E.01644
G1 X168.268 Y121.369 E.01889
G1 X168.376 Y121.88 E.01638
G1 X168.43 Y122.475 E.01873
G1 X168.436 Y177.11 E1.71304
G1 X168.416 Y177.874 E.02396
G1 X168.315 Y178.456 E.01852
G1 X168.134 Y179.005 E.01812
G1 X167.874 Y179.522 E.01814
G1 X167.54 Y179.995 E.01816
G1 X167.141 Y180.414 E.01814
G1 X166.676 Y180.778 E.01852
G1 X166.21 Y181.033 E.01666
G1 X165.62 Y181.267 E.0199
G1 X165.026 Y181.39 E.01902
G1 X164.475 Y181.436 E.01734
G1 X66.279 Y181.424 E3.07886
G1 X65.732 Y181.348 E.01732
G1 X65.179 Y181.195 E.01799
G1 X64.613 Y180.942 E.01944
G1 X64.167 Y180.667 E.01643
G1 X63.711 Y180.274 E.01887
G1 X63.35 Y179.84 E.0177
G1 X63.025 Y179.335 E.01883
G1 X62.789 Y178.779 E.01894
G1 X62.644 Y178.279 E.01632
G1 X62.57 Y177.681 E.01889
G1 X62.57 Y122.33 E1.73549
G1 X62.687 Y121.545 E.02488
G1 X62.89 Y120.978 E.01888
G1 X63.12 Y120.488 E.01697
G1 X63.452 Y120.015 E.01812
G1 X64.014 Y119.453 E.02492
G1 X64.469 Y119.133 E.01744
G1 X65.121 Y118.824 E.02262
G1 X65.121 Y118.824 F9000
G1 X65.048 Y118.442
G1 F1200
G1 X65.673 Y118.285 E.02021
G1 X66.288 Y118.193 E.0195
G1 X164.377 Y118.187 E3.07551
G1 X164.917 Y118.219 E.01696
G1 X165.537 Y118.326 E.01973
G1 X166.177 Y118.539 E.02115
G1 X166.711 Y118.798 E.01861
G1 X167.23 Y119.163 E.01989
G1 X167.837 Y119.77 E.02692
G1 X168.095 Y120.137 E.01407
G1 X168.395 Y120.65 E.01863
G1 X168.628 Y121.255 E.02033
G1 X168.75 Y121.833 E.01852
G1 X168.807 Y122.475 E.02021
G1 X168.813 Y177.414 E1.72257
G1 X168.792 Y177.915 E.01572
G1 X168.682 Y178.548 E.02014
G1 X168.483 Y179.15 E.01988
G1 X168.198 Y179.716 E.01987
G1 X167.833 Y180.235 E.01989
G1 X167.395 Y180.694 E.01989
G1 X166.89 Y181.089 E.0201
G1 X166.363 Y181.377 E.01883
G1 X165.729 Y181.628 E.02138
G1 X165.091 Y181.761 E.02043
G1 X164.484 Y181.813 E.0191
G1 X66.261 Y181.8 E3.07971
G1 X65.668 Y181.72 E.01876
G1 X65.06 Y181.553 E.01977
G1 X64.444 Y181.279 E.02114
G1 X63.938 Y180.968 E.01862
G1 X63.447 Y180.545 E.02032
G1 X63.042 Y180.057 E.01988
G1 X62.692 Y179.513 E.02028
G1 X62.437 Y178.915 E.02038
G1 X62.272 Y178.348 E.01852
G1 X62.193 Y177.704 E.02034
G1 X62.193 Y122.302 E1.73709
G1 X62.319 Y121.453 E.02691
G1 X62.534 Y120.851 E.02004
G1 X62.798 Y120.289 E.01947
G1 X63.163 Y119.772 E.01984
G1 X63.771 Y119.163 E.02698
G1 X64.278 Y118.806 E.01944
G1 X64.994 Y118.467 E.02484
G1 X64.994 Y118.467 F9000
G1 X64.92 Y118.085
;TYPE:External perimeter
G1 F1200
G1 X65.582 Y117.919 E.0214
G1 X66.27 Y117.816 E.02181
G1 X164.377 Y117.81 E3.07607
G1 X164.945 Y117.843 E.01784
G1 X165.62 Y117.958 E.02147
G1 X166.313 Y118.187 E.02288
G1 X166.909 Y118.476 E.02077
G1 X167.473 Y118.874 E.02164
G1 X168.126 Y119.527 E.02896
G1 X168.403 Y119.92 E.01508
G1 X168.738 Y120.493 E.02081
G1 X168.988 Y121.141 E.02178
G1 X169.124 Y121.787 E.0207
G1 X169.184 Y122.475 E.02165
G1 X169.19 Y177.414 E1.72257
G1 X169.167 Y177.957 E.01704
G1 X169.049 Y178.639 E.0217
G1 X168.832 Y179.295 E.02166
G1 X168.522 Y179.911 E.02162
G1 X168.125 Y180.475 E.02163
G1 X167.649 Y180.975 E.02165
G1 X167.103 Y181.401 E.02171
G1 X166.516 Y181.722 E.02098
G1 X165.839 Y181.989 E.02282
G1 X165.155 Y182.133 E.02192
G1 X164.494 Y182.19 E.0208
G1 X67.074 Y182.19 E3.05453
G1 X66.242 Y182.177 E.02609
G1 X65.603 Y182.091 E.02022
G1 X64.942 Y181.911 E.02148
G1 X64.274 Y181.616 E.0229
G1 X63.709 Y181.269 E.02079
G1 X63.183 Y180.815 E.02179
G1 X62.734 Y180.274 E.02204
G1 X62.36 Y179.691 E.02172
G1 X62.086 Y179.05 E.02186
G1 X61.901 Y178.417 E.02068
G1 X61.816 Y177.728 E.02177
G1 X61.816 Y122.275 E1.73869
G1 X61.951 Y121.361 E.02897
G1 X62.179 Y120.724 E.02121
G1 X62.476 Y120.091 E.02192
G1 X62.873 Y119.528 E.0216
G1 X63.527 Y118.874 E.029
G1 X64.087 Y118.479 E.02149
G1 X64.866 Y118.111 E.02701
G1 E-3.5 F3600
;WIPE_START
G1 F7200
G1 X64.92 Y118.085 E-.02847
G1 X65.582 Y117.919 E-.32419
G1 X66.27 Y117.816 E-.33044
G1 X67.99 Y117.816 E-.8169
;WIPE_END
G1 X71.643 Y121.624 F9000
G1 E5 F2400
;TYPE:Perimeter
G1 F1200
G1 X71.676 Y121.533 E.00304
G1 X72.003 Y121.09 E.01726
G1 X72.243 Y120.872 E.01017
G1 X72.567 Y120.667 E.01202
G1 X72.887 Y120.539 E.01081
G1 X73.498 Y120.436 E.01943
G1 X157.503 Y120.436 E2.63391
G1 X158.09 Y120.524 E.01861
G1 X158.503 Y120.702 E.0141
G1 X158.965 Y121.051 E.01815
G1 X159.275 Y121.453 E.01592
G1 X159.477 Y121.92 E.01595
G1 X159.563 Y122.433 E.01631
G1 X159.563 Y123.427 E.03117
G1 X160.024 Y123.036 E.01895
G1 X160.478 Y122.792 E.01616
G1 X161 Y122.636 E.01708
G1 X161.528 Y122.589 E.01662
G1 X162.054 Y122.647 E.01659
G1 X162.559 Y122.809 E.01663
G1 X163.021 Y123.066 E.01658
G1 X163.404 Y123.389 E.01571
G1 X163.725 Y123.799 E.01633
G1 X163.937 Y124.181 E.0137
G1 X164.101 Y124.685 E.01662
G1 X164.161 Y125.211 E.0166
G1 X164.116 Y125.739 E.01662
G1 X163.967 Y126.248 E.01663
G1 X163.72 Y126.717 E.01662
G1 X163.386 Y127.128 E.01661
G1 X162.976 Y127.464 E.01662
G1 X162.508 Y127.713 E.01662
G1 X162 Y127.864 E.01662
G1 X161.472 Y127.911 E.01662
G1 X160.946 Y127.853 E.01659
G1 X160.441 Y127.691 E.01663
G1 X159.978 Y127.433 E.01662
G1 X159.563 Y127.075 E.01718
G1 X159.564 Y131.138 E.12739
G1 X164.666 Y131.148 E.15997
G1 X164.938 Y131.188 E.00862
G1 X165.464 Y131.377 E.01752
G1 X165.881 Y131.683 E.01622
G1 X166.202 Y132.054 E.01538
G1 X166.384 Y132.375 E.01157
G1 X166.505 Y132.74 E.01206
G1 X166.552 Y133.036 E.0094
G1 X166.564 Y166.802 E1.05871
G1 X166.476 Y167.39 E.01864
G1 X166.298 Y167.804 E.01413
G1 X165.947 Y168.267 E.01822
G1 X165.547 Y168.575 E.01583
G1 X165.084 Y168.776 E.01583
G1 X164.611 Y168.859 E.01506
G1 X159.564 Y168.863 E.15824
G1 X159.561 Y172.929 E.12749
G1 X160.024 Y172.536 E.01904
G1 X160.492 Y172.287 E.01662
G1 X161 Y172.136 E.01662
G1 X161.528 Y172.089 E.01662
G1 X162.054 Y172.147 E.01659
G1 X162.559 Y172.309 E.01663
G1 X163.021 Y172.566 E.01658
G1 X163.404 Y172.889 E.01571
G1 X163.677 Y173.219 E.01343
G1 X163.937 Y173.681 E.01662
G1 X164.101 Y174.185 E.01662
G1 X164.161 Y174.711 E.0166
G1 X164.116 Y175.239 E.01662
G1 X163.967 Y175.748 E.01663
G1 X163.72 Y176.217 E.01662
G1 X163.394 Y176.62 E.01625
G1 X162.976 Y176.964 E.01697
G1 X162.508 Y177.213 E.01662
G1 X162 Y177.364 E.01662
G1 X161.472 Y177.411 E.01662
G1 X160.956 Y177.356 E.01627
G1 X160.441 Y177.191 E.01696
G1 X159.978 Y176.933 E.01662
G1 X159.576 Y176.588 E.01661
G1 X159.556 Y177.685 E.0344
G1 X159.429 Y178.208 E.01687
G1 X159.284 Y178.523 E.01087
G1 X159.064 Y178.836 E.012
G1 X158.836 Y179.064 E.01011
G1 X158.522 Y179.285 E.01204
G1 X158.231 Y179.422 E.01008
G1 X157.61 Y179.559 E.01994
G1 X73.497 Y179.564 E2.6373
G1 X72.91 Y179.476 E.01861
G1 X72.496 Y179.298 E.01413
G1 X72.033 Y178.947 E.01822
G1 X71.725 Y178.547 E.01583
G1 X71.523 Y178.08 E.01595
G1 X71.437 Y177.567 E.01631
G1 X71.437 Y176.573 E.03117
G1 X70.976 Y176.964 E.01895
G1 X70.522 Y177.208 E.01616
