(Exported by FreeCAD)
(Post Processor: grbl_post)
(Output Time:2024-05-26 21:47:45.138788)
(Begin preamble)
G17 G90
G21
(Begin operation: Fixture)
(Path: Fixture)
G54
(Finish operation: Fixture)
(Begin operation: 2mm Endmill001)
(Path: 2mm Endmill001)
(2mm Endmill001)
(Begin toolchange)
( M6 T2 )
(Finish operation: 2mm Endmill001)
(Begin operation: Profile)
(Path: Profile)
(Profile)
(Compensated Tool Path. Diameter: 2.0)
G0 Z5.000
G0 X-45.580 Y-24.330
G0 Z3.000
G1 X-45.580 Y-24.330 Z-0.500
G3 X-46.543 Y-24.992 Z-0.500 I-0.420 J-0.420 K0.000
G3 X-45.457 Y-24.508 Z-0.500 I0.543 J0.242 K0.000
G3 X-45.580 Y-24.330 Z-0.500 I-0.543 J-0.242 K0.000
G1 X-45.580 Y-24.330 Z-1.000
G3 X-46.543 Y-24.992 Z-1.000 I-0.420 J-0.420 K0.000
G3 X-45.457 Y-24.508 Z-1.000 I0.543 J0.242 K0.000
G3 X-45.580 Y-24.330 Z-1.000 I-0.543 J-0.242 K0.000
G1 X-45.580 Y-24.330 Z-1.500
G3 X-46.543 Y-24.992 Z-1.500 I-0.420 J-0.420 K0.000
G3 X-45.457 Y-24.508 Z-1.500 I0.543 J0.242 K0.000
G3 X-45.580 Y-24.330 Z-1.500 I-0.543 J-0.242 K0.000
G1 X-45.580 Y-24.330 Z-2.000
G3 X-46.543 Y-24.992 Z-2.000 I-0.420 J-0.420 K0.000
G3 X-45.457 Y-24.508 Z-2.000 I0.543 J0.242 K0.000
G3 X-45.580 Y-24.330 Z-2.000 I-0.543 J-0.242 K0.000
G1 X-45.580 Y-24.330 Z-2.500
G3 X-46.543 Y-24.992 Z-2.500 I-0.420 J-0.420 K0.000
G3 X-45.457 Y-24.508 Z-2.500 I0.543 J0.242 K0.000
G3 X-45.580 Y-24.330 Z-2.500 I-0.543 J-0.242 K0.000
G1 X-45.580 Y-24.330 Z-3.000
G3 X-46.543 Y-24.992 Z-3.000 I-0.420 J-0.420 K0.000
G3 X-45.457 Y-24.508 Z-3.000 I0.543 J0.242 K0.000
G3 X-45.580 Y-24.330 Z-3.000 I-0.543 J-0.242 K0.000
G1 X-45.580 Y-24.330 Z-3.500
G3 X-46.543 Y-24.992 Z-3.500 I-0.420 J-0.420 K0.000
G3 X-45.457 Y-24.508 Z-3.500 I0.543 J0.242 K0.000
G3 X-45.580 Y-24.330 Z-3.500 I-0.543 J-0.242 K0.000
G1 X-45.580 Y-24.330 Z-4.000
G3 X-46.543 Y-24.992 Z-4.000 I-0.420 J-0.420 K0.000
G3 X-45.457 Y-24.508 Z-4.000 I0.543 J0.242 K0.000
G3 X-45.580 Y-24.330 Z-4.000 I-0.543 J-0.242 K0.000
G1 X-45.580 Y-24.330 Z-4.500
G3 X-46.543 Y-24.992 Z-4.500 I-0.420 J-0.420 K0.000
G3 X-45.457 Y-24.508 Z-4.500 I0.543 J0.242 K0.000
G3 X-45.580 Y-24.330 Z-4.500 I-0.543 J-0.242 K0.000
G1 X-45.580 Y-24.330 Z-5.000
G3 X-46.543 Y-24.992 Z-5.000 I-0.420 J-0.420 K0.000
G3 X-45.457 Y-24.508 Z-5.000 I0.543 J0.242 K0.000
G3 X-45.580 Y-24.330 Z-5.000 I-0.543 J-0.242 K0.000
G1 X-45.580 Y-24.330 Z-5.500
G3 X-46.543 Y-24.992 Z-5.500 I-0.420 J-0.420 K0.000
G3 X-45.457 Y-24.508 Z-5.500 I0.543 J0.242 K0.000
G3 X-45.580 Y-24.330 Z-5.500 I-0.543 J-0.242 K0.000
G1 X-45.580 Y-24.330 Z-6.000
G3 X-46.543 Y-24.992 Z-6.000 I-0.420 J-0.420 K0.000
G3 X-45.457 Y-24.508 Z-6.000 I0.543 J0.242 K0.000
G3 X-45.580 Y-24.330 Z-6.000 I-0.543 J-0.242 K0.000
G1 X-45.580 Y-24.330 Z-6.500
G3 X-46.543 Y-24.992 Z-6.500 I-0.420 J-0.420 K0.000
G3 X-45.457 Y-24.508 Z-6.500 I0.543 J0.242 K0.000
G3 X-45.580 Y-24.330 Z-6.500 I-0.543 J-0.242 K0.000
G1 X-45.580 Y-24.330 Z-7.000
G3 X-46.543 Y-24.992 Z-7.000 I-0.420 J-0.420 K0.000
G3 X-45.457 Y-24.508 Z-7.000 I0.543 J0.242 K0.000
G3 X-45.580 Y-24.330 Z-7.000 I-0.543 J-0.242 K0.000
G1 X-45.580 Y-24.330 Z-7.500
G3 X-46.543 Y-24.992 Z-7.500 I-0.420 J-0.420 K0.000
G3 X-45.457 Y-24.508 Z-7.500 I0.543 J0.242 K0.000
G3 X-45.580 Y-24.330 Z-7.500 I-0.543 J-0.242 K0.000
G1 X-45.580 Y-24.330 Z-8.000
G3 X-46.543 Y-24.992 Z-8.000 I-0.420 J-0.420 K0.000
G3 X-45.457 Y-24.508 Z-8.000 I0.543 J0.242 K0.000
G3 X-45.580 Y-24.330 Z-8.000 I-0.543 J-0.242 K0.000
G1 X-45.580 Y-24.330 Z-8.500
G3 X-46.543 Y-24.992 Z-8.500 I-0.420 J-0.420 K0.000
G3 X-45.457 Y-24.508 Z-8.500 I0.543 J0.242 K0.000
G3 X-45.580 Y-24.330 Z-8.500 I-0.543 J-0.242 K0.000
G1 X-45.580 Y-24.330 Z-9.000
G3 X-46.543 Y-24.992 Z-9.000 I-0.420 J-0.420 K0.000
G3 X-45.457 Y-24.508 Z-9.000 I0.543 J0.242 K0.000
G3 X-45.580 Y-24.330 Z-9.000 I-0.543 J-0.242 K0.000
G1 X-45.580 Y-24.330 Z-9.500
G3 X-46.543 Y-24.992 Z-9.500 I-0.420 J-0.420 K0.000
G3 X-45.457 Y-24.508 Z-9.500 I0.543 J0.242 K0.000
G3 X-45.580 Y-24.330 Z-9.500 I-0.543 J-0.242 K0.000
G1 X-45.580 Y-24.330 Z-10.000
G3 X-46.543 Y-24.992 Z-10.000 I-0.420 J-0.420 K0.000
G3 X-45.457 Y-24.508 Z-10.000 I0.543 J0.242 K0.000
G3 X-45.580 Y-24.330 Z-10.000 I-0.543 J-0.242 K0.000
G1 X-45.580 Y-24.330 Z-10.500
G3 X-46.543 Y-24.992 Z-10.500 I-0.420 J-0.420 K0.000
G3 X-45.457 Y-24.508 Z-10.500 I0.543 J0.242 K0.000
G3 X-45.580 Y-24.330 Z-10.500 I-0.543 J-0.242 K0.000
G0 Z5.000
G0 Z5.000
G0 X-45.580 Y-24.330
G0 X-45.995 Y24.156
G0 X-45.995 Y24.156 Z3.000
G1 X-45.995 Y24.156 Z-0.500
G3 X-45.457 Y24.992 Z-0.500 I-0.005 J0.594 K0.000
G3 X-46.543 Y24.508 Z-0.500 I-0.543 J-0.242 K0.000
G3 X-45.995 Y24.156 Z-0.500 I0.543 J0.242 K0.000
G1 X-45.995 Y24.156 Z-1.000
G3 X-45.457 Y24.992 Z-1.000 I-0.005 J0.594 K0.000
G3 X-46.543 Y24.508 Z-1.000 I-0.543 J-0.242 K0.000
G3 X-45.995 Y24.156 Z-1.000 I0.543 J0.242 K0.000
G1 X-45.995 Y24.156 Z-1.500
G3 X-45.457 Y24.992 Z-1.500 I-0.005 J0.594 K0.000
G3 X-46.543 Y24.508 Z-1.500 I-0.543 J-0.242 K0.000
G3 X-45.995 Y24.156 Z-1.500 I0.543 J0.242 K0.000
G1 X-45.995 Y24.156 Z-2.000
G3 X-45.457 Y24.992 Z-2.000 I-0.005 J0.594 K0.000
G3 X-46.543 Y24.508 Z-2.000 I-0.543 J-0.242 K0.000
G3 X-45.995 Y24.156 Z-2.000 I0.543 J0.242 K0.000
G1 X-45.995 Y24.156 Z-2.500
G3 X-45.457 Y24.992 Z-2.500 I-0.005 J0.594 K0.000
G3 X-46.543 Y24.508 Z-2.500 I-0.543 J-0.242 K0.000
G3 X-45.995 Y24.156 Z-2.500 I0.543 J0.242 K0.000
G1 X-45.995 Y24.156 Z-3.000
G3 X-45.457 Y24.992 Z-3.000 I-0.005 J0.594 K0.000
G3 X-46.543 Y24.508 Z-3.000 I-0.543 J-0.242 K0.000
G3 X-45.995 Y24.156 Z-3.000 I0.543 J0.242 K0.000
G1 X-45.995 Y24.156 Z-3.500
G3 X-45.457 Y24.992 Z-3.500 I-0.005 J0.594 K0.000
G3 X-46.543 Y24.508 Z-3.500 I-0.543 J-0.242 K0.000
G3 X-45.995 Y24.156 Z-3.500 I0.543 J0.242 K0.000
G1 X-45.995 Y24.156 Z-4.000
G3 X-45.457 Y24.992 Z-4.000 I-0.005 J0.594 K0.000
G3 X-46.543 Y24.508 Z-4.000 I-0.543 J-0.242 K0.000
G3 X-45.995 Y24.156 Z-4.000 I0.543 J0.242 K0.000
G1 X-45.995 Y24.156 Z-4.500
G3 X-45.457 Y24.992 Z-4.500 I-0.005 J0.594 K0.000
G3 X-46.543 Y24.508 Z-4.500 I-0.543 J-0.242 K0.000
G3 X-45.995 Y24.156 Z-4.500 I0.543 J0.242 K0.000
G1 X-45.995 Y24.156 Z-5.000
G3 X-45.457 Y24.992 Z-5.000 I-0.005 J0.594 K0.000
G3 X-46.543 Y24.508 Z-5.000 I-0.543 J-0.242 K0.000
G3 X-45.995 Y24.156 Z-5.000 I0.543 J0.242 K0.000
G1 X-45.995 Y24.156 Z-5.500
G3 X-45.457 Y24.992 Z-5.500 I-0.005 J0.594 K0.000
G3 X-46.543 Y24.508 Z-5.500 I-0.543 J-0.242 K0.000
G3 X-45.995 Y24.156 Z-5.500 I0.543 J0.242 K0.000
G1 X-45.995 Y24.156 Z-6.000
G3 X-45.457 Y24.992 Z-6.000 I-0.005 J0.594 K0.000
G3 X-46.543 Y24.508 Z-6.000 I-0.543 J-0.242 K0.000
G3 X-45.995 Y24.156 Z-6.000 I0.543 J0.242 K0.000
G1 X-45.995 Y24.156 Z-6.500
G3 X-45.457 Y24.992 Z-6.500 I-0.005 J0.594 K0.000
G3 X-46.543 Y24.508 Z-6.500 I-0.543 J-0.242 K0.000
G3 X-45.995 Y24.156 Z-6.500 I0.543 J0.242 K0.000
G1 X-45.995 Y24.156 Z-7.000
G3 X-45.457 Y24.992 Z-7.000 I-0.005 J0.594 K0.000
G3 X-46.543 Y24.508 Z-7.000 I-0.543 J-0.242 K0.000
G3 X-45.995 Y24.156 Z-7.000 I0.543 J0.242 K0.000
G1 X-45.995 Y24.156 Z-7.500
G3 X-45.457 Y24.992 Z-7.500 I-0.005 J0.594 K0.000
G3 X-46.543 Y24.508 Z-7.500 I-0.543 J-0.242 K0.000
G3 X-45.995 Y24.156 Z-7.500 I0.543 J0.242 K0.000
G1 X-45.995 Y24.156 Z-8.000
G3 X-45.457 Y24.992 Z-8.000 I-0.005 J0.594 K0.000
G3 X-46.543 Y24.508 Z-8.000 I-0.543 J-0.242 K0.000
G3 X-45.995 Y24.156 Z-8.000 I0.543 J0.242 K0.000
G1 X-45.995 Y24.156 Z-8.500
G3 X-45.457 Y24.992 Z-8.500 I-0.005 J0.594 K0.000
G3 X-46.543 Y24.508 Z-8.500 I-0.543 J-0.242 K0.000
G3 X-45.995 Y24.156 Z-8.500 I0.543 J0.242 K0.000
G1 X-45.995 Y24.156 Z-9.000
G3 X-45.457 Y24.992 Z-9.000 I-0.005 J0.594 K0.000
G3 X-46.543 Y24.508 Z-9.000 I-0.543 J-0.242 K0.000
G3 X-45.995 Y24.156 Z-9.000 I0.543 J0.242 K0.000
G1 X-45.995 Y24.156 Z-9.500
G3 X-45.457 Y24.992 Z-9.500 I-0.005 J0.594 K0.000
G3 X-46.543 Y24.508 Z-9.500 I-0.543 J-0.242 K0.000
G3 X-45.995 Y24.156 Z-9.500 I0.543 J0.242 K0.000
G1 X-45.995 Y24.156 Z-10.000
G3 X-45.457 Y24.992 Z-10.000 I-0.005 J0.594 K0.000
G3 X-46.543 Y24.508 Z-10.000 I-0.543 J-0.242 K0.000
G3 X-45.995 Y24.156 Z-10.000 I0.543 J0.242 K0.000
G1 X-45.995 Y24.156 Z-10.500
G3 X-45.457 Y24.992 Z-10.500 I-0.005 J0.594 K0.000
G3 X-46.543 Y24.508 Z-10.500 I-0.543 J-0.242 K0.000
G3 X-45.995 Y24.156 Z-10.500 I0.543 J0.242 K0.000
G0 Z5.000
G0 Z5.000
G0 X-45.995 Y24.156
G0 X45.406 Y24.746
G0 X45.406 Y24.746 Z3.000
G1 X45.406 Y24.746 Z-0.500
G3 X46.571 Y24.581 Z-0.500 I0.595 J0.004 K0.000
G1 X46.593 Y24.696 Z-0.500
G3 X45.418 Y24.874 Z-0.500 I-0.592 J0.055 K0.000
G3 X45.406 Y24.746 Z-0.500 I0.582 J-0.123 K0.000
G1 X45.406 Y24.746 Z-1.000
G3 X46.571 Y24.581 Z-1.000 I0.595 J0.004 K0.000
G1 X46.593 Y24.696 Z-1.000
G3 X45.418 Y24.874 Z-1.000 I-0.592 J0.055 K0.000
G3 X45.406 Y24.746 Z-1.000 I0.582 J-0.123 K0.000
G1 X45.406 Y24.746 Z-1.500
G3 X46.571 Y24.581 Z-1.500 I0.595 J0.004 K0.000
G1 X46.593 Y24.696 Z-1.500
G3 X45.418 Y24.874 Z-1.500 I-0.592 J0.055 K0.000
G3 X45.406 Y24.746 Z-1.500 I0.582 J-0.123 K0.000
G1 X45.406 Y24.746 Z-2.000
G3 X46.571 Y24.581 Z-2.000 I0.595 J0.004 K0.000
G1 X46.593 Y24.696 Z-2.000
G3 X45.418 Y24.874 Z-2.000 I-0.592 J0.055 K0.000
G3 X45.406 Y24.746 Z-2.000 I0.582 J-0.123 K0.000
G1 X45.406 Y24.746 Z-2.500
G3 X46.571 Y24.581 Z-2.500 I0.595 J0.004 K0.000
G1 X46.593 Y24.696 Z-2.500
G3 X45.418 Y24.874 Z-2.500 I-0.592 J0.055 K0.000
G3 X45.406 Y24.746 Z-2.500 I0.582 J-0.123 K0.000
G1 X45.406 Y24.746 Z-3.000
G3 X46.571 Y24.581 Z-3.000 I0.595 J0.004 K0.000
G1 X46.593 Y24.696 Z-3.000
G3 X45.418 Y24.874 Z-3.000 I-0.592 J0.055 K0.000
G3 X45.406 Y24.746 Z-3.000 I0.582 J-0.123 K0.000
G1 X45.406 Y24.746 Z-3.500
G3 X46.571 Y24.581 Z-3.500 I0.595 J0.004 K0.000
G1 X46.593 Y24.696 Z-3.500
G3 X45.418 Y24.874 Z-3.500 I-0.592 J0.055 K0.000
G3 X45.406 Y24.746 Z-3.500 I0.582 J-0.123 K0.000
G1 X45.406 Y24.746 Z-4.000
G3 X46.571 Y24.581 Z-4.000 I0.595 J0.004 K0.000
G1 X46.593 Y24.696 Z-4.000
G3 X45.418 Y24.874 Z-4.000 I-0.592 J0.055 K0.000
G3 X45.406 Y24.746 Z-4.000 I0.582 J-0.123 K0.000
G1 X45.406 Y24.746 Z-4.500
G3 X46.571 Y24.581 Z-4.500 I0.595 J0.004 K0.000
G1 X46.593 Y24.696 Z-4.500
G3 X45.418 Y24.874 Z-4.500 I-0.592 J0.055 K0.000
G3 X45.406 Y24.746 Z-4.500 I0.582 J-0.123 K0.000
G1 X45.406 Y24.746 Z-5.000
G3 X46.571 Y24.581 Z-5.000 I0.595 J0.004 K0.000
G1 X46.593 Y24.696 Z-5.000
G3 X45.418 Y24.874 Z-5.000 I-0.592 J0.055 K0.000
G3 X45.406 Y24.746 Z-5.000 I0.582 J-0.123 K0.000
G1 X45.406 Y24.746 Z-5.500
G3 X46.571 Y24.581 Z-5.500 I0.595 J0.004 K0.000
G1 X46.593 Y24.696 Z-5.500
G3 X45.418 Y24.874 Z-5.500 I-0.592 J0.055 K0.000
G3 X45.406 Y24.746 Z-5.500 I0.582 J-0.123 K0.000
G1 X45.406 Y24.746 Z-6.000
G3 X46.571 Y24.581 Z-6.000 I0.595 J0.004 K0.000
G1 X46.593 Y24.696 Z-6.000
G3 X45.418 Y24.874 Z-6.000 I-0.592 J0.055 K0.000
G3 X45.406 Y24.746 Z-6.000 I0.582 J-0.123 K0.000
G1 X45.406 Y24.746 Z-6.500
G3 X46.571 Y24.581 Z-6.500 I0.595 J0.004 K0.000
G1 X46.593 Y24.696 Z-6.500
G3 X45.418 Y24.874 Z-6.500 I-0.592 J0.055 K0.000
G3 X45.406 Y24.746 Z-6.500 I0.582 J-0.123 K0.000
G1 X45.406 Y24.746 Z-7.000
G3 X46.571 Y24.581 Z-7.000 I0.595 J0.004 K0.000
G1 X46.593 Y24.696 Z-7.000
G3 X45.418 Y24.874 Z-7.000 I-0.592 J0.055 K0.000
G3 X45.406 Y24.746 Z-7.000 I0.582 J-0.123 K0.000
G1 X45.406 Y24.746 Z-7.500
G3 X46.571 Y24.581 Z-7.500 I0.595 J0.004 K0.000
G1 X46.593 Y24.696 Z-7.500
G3 X45.418 Y24.874 Z-7.500 I-0.592 J0.055 K0.000
G3 X45.406 Y24.746 Z-7.500 I0.582 J-0.123 K0.000
G1 X45.406 Y24.746 Z-8.000
G3 X46.571 Y24.581 Z-8.000 I0.595 J0.004 K0.000
G1 X46.593 Y24.696 Z-8.000
G3 X45.418 Y24.874 Z-8.000 I-0.592 J0.055 K0.000
G3 X45.406 Y24.746 Z-8.000 I0.582 J-0.123 K0.000
G1 X45.406 Y24.746 Z-8.500
G3 X46.571 Y24.581 Z-8.500 I0.595 J0.004 K0.000
G1 X46.593 Y24.696 Z-8.500
G3 X45.418 Y24.874 Z-8.500 I-0.592 J0.055 K0.000
G3 X45.406 Y24.746 Z-8.500 I0.582 J-0.123 K0.000
G1 X45.406 Y24.746 Z-9.000
G3 X46.571 Y24.581 Z-9.000 I0.595 J0.004 K0.000
G1 X46.593 Y24.696 Z-9.000
G3 X45.418 Y24.874 Z-9.000 I-0.592 J0.055 K0.000
G3 X45.406 Y24.746 Z-9.000 I0.582 J-0.123 K0.000
G1 X45.406 Y24.746 Z-9.500
G3 X46.571 Y24.581 Z-9.500 I0.595 J0.004 K0.000
G1 X46.593 Y24.696 Z-9.500
G3 X45.418 Y24.874 Z-9.500 I-0.592 J0.055 K0.000
G3 X45.406 Y24.746 Z-9.500 I0.582 J-0.123 K0.000
G1 X45.406 Y24.746 Z-10.000
G3 X46.571 Y24.581 Z-10.000 I0.595 J0.004 K0.000
G1 X46.593 Y24.696 Z-10.000
G3 X45.418 Y24.874 Z-10.000 I-0.592 J0.055 K0.000
G3 X45.406 Y24.746 Z-10.000 I0.582 J-0.123 K0.000
G1 X45.406 Y24.746 Z-10.500
G3 X46.571 Y24.581 Z-10.500 I0.595 J0.004 K0.000
G1 X46.593 Y24.696 Z-10.500
G3 X45.418 Y24.874 Z-10.500 I-0.592 J0.055 K0.000
G3 X45.406 Y24.746 Z-10.500 I0.582 J-0.123 K0.000
G0 Z5.000
G0 Z5.000
G0 X45.406 Y24.746
G0 X42.000
G0 X42.000 Z3.000
G1 X42.000 Y24.746 Z-0.500
G1 X42.000 Y27.434 Z-0.500
G3 X41.934 Y27.500 Z-0.500 I-0.042 J0.024 K0.000
G1 X-41.934 Y27.500 Z-0.500
G3 X-42.000 Y27.434 Z-0.500 I-0.024 J-0.042 K0.000
G1 X-42.000 Y17.800 Z-0.500
G2 X-43.000 Y16.800 Z-0.500 I-1.000 J0.000 K0.000
G1 X-48.934 Y16.800 Z-0.500
G3 X-49.000 Y16.734 Z-0.500 I-0.024 J-0.042 K0.000
G1 X-49.000 Y-16.734 Z-0.500
G3 X-48.934 Y-16.800 Z-0.500 I0.042 J-0.024 K0.000
G1 X-43.000 Y-16.800 Z-0.500
G2 X-42.000 Y-17.800 Z-0.500 I-0.000 J-1.000 K0.000
G1 X-42.000 Y-27.434 Z-0.500
G3 X-41.934 Y-27.500 Z-0.500 I0.042 J-0.024 K0.000
G1 X41.934 Y-27.500 Z-0.500
G3 X42.000 Y-27.434 Z-0.500 I0.024 J0.042 K0.000
G1 X42.000 Y-17.800 Z-0.500
G2 X43.000 Y-16.800 Z-0.500 I1.000 J-0.000 K0.000
G1 X48.934 Y-16.800 Z-0.500
G3 X49.000 Y-16.734 Z-0.500 I0.024 J0.042 K0.000
G1 X49.000 Y16.734 Z-0.500
G3 X48.934 Y16.800 Z-0.500 I-0.042 J0.024 K0.000
G1 X43.000 Y16.800 Z-0.500
G2 X42.000 Y17.800 Z-0.500 I0.000 J1.000 K0.000
G1 X42.000 Y24.746 Z-0.500
G1 X42.000 Y24.746 Z-1.000
G1 X42.000 Y27.434 Z-1.000
G3 X41.934 Y27.500 Z-1.000 I-0.042 J0.024 K0.000
G1 X-41.934 Y27.500 Z-1.000
G3 X-42.000 Y27.434 Z-1.000 I-0.024 J-0.042 K0.000
G1 X-42.000 Y17.800 Z-1.000
G2 X-43.000 Y16.800 Z-1.000 I-1.000 J0.000 K0.000
G1 X-48.934 Y16.800 Z-1.000
G3 X-49.000 Y16.734 Z-1.000 I-0.024 J-0.042 K0.000
G1 X-49.000 Y-16.734 Z-1.000
G3 X-48.934 Y-16.800 Z-1.000 I0.042 J-0.024 K0.000
G1 X-43.000 Y-16.800 Z-1.000
G2 X-42.000 Y-17.800 Z-1.000 I-0.000 J-1.000 K0.000
G1 X-42.000 Y-27.434 Z-1.000
G3 X-41.934 Y-27.500 Z-1.000 I0.042 J-0.024 K0.000
G1 X41.934 Y-27.500 Z-1.000
G3 X42.000 Y-27.434 Z-1.000 I0.024 J0.042 K0.000
G1 X42.000 Y-17.800 Z-1.000
G2 X43.000 Y-16.800 Z-1.000 I1.000 J-0.000 K0.000
G1 X48.934 Y-16.800 Z-1.000
G3 X49.000 Y-16.734 Z-1.000 I0.024 J0.042 K0.000
G1 X49.000 Y16.734 Z-1.000
G3 X48.934 Y16.800 Z-1.000 I-0.042 J0.024 K0.000
G1 X43.000 Y16.800 Z-1.000
G2 X42.000 Y17.800 Z-1.000 I0.000 J1.000 K0.000
G1 X42.000 Y24.746 Z-1.000
G1 X42.000 Y24.746 Z-1.500
G1 X42.000 Y27.434 Z-1.500
G3 X41.934 Y27.500 Z-1.500 I-0.042 J0.024 K0.000
G1 X-41.934 Y27.500 Z-1.500
G3 X-42.000 Y27.434 Z-1.500 I-0.024 J-0.042 K0.000
G1 X-42.000 Y17.800 Z-1.500
G2 X-43.000 Y16.800 Z-1.500 I-1.000 J0.000 K0.000
G1 X-48.934 Y16.800 Z-1.500
G3 X-49.000 Y16.734 Z-1.500 I-0.024 J-0.042 K0.000
G1 X-49.000 Y-16.734 Z-1.500
G3 X-48.934 Y-16.800 Z-1.500 I0.042 J-0.024 K0.000
G1 X-43.000 Y-16.800 Z-1.500
G2 X-42.000 Y-17.800 Z-1.500 I-0.000 J-1.000 K0.000
G1 X-42.000 Y-27.434 Z-1.500
G3 X-41.934 Y-27.500 Z-1.500 I0.042 J-0.024 K0.000
G1 X41.934 Y-27.500 Z-1.500
G3 X42.000 Y-27.434 Z-1.500 I0.024 J0.042 K0.000
G1 X42.000 Y-17.800 Z-1.500
G2 X43.000 Y-16.800 Z-1.500 I1.000 J-0.000 K0.000
G1 X48.934 Y-16.800 Z-1.500
G3 X49.000 Y-16.734 Z-1.500 I0.024 J0.042 K0.000
G1 X49.000 Y16.734 Z-1.500
G3 X48.934 Y16.800 Z-1.500 I-0.042 J0.024 K0.000
G1 X43.000 Y16.800 Z-1.500
G2 X42.000 Y17.800 Z-1.500 I0.000 J1.000 K0.000
G1 X42.000 Y24.746 Z-1.500
G1 X42.000 Y24.746 Z-2.000
G1 X42.000 Y27.434 Z-2.000
G3 X41.934 Y27.500 Z-2.000 I-0.042 J0.024 K0.000
G1 X-41.934 Y27.500 Z-2.000
G3 X-42.000 Y27.434 Z-2.000 I-0.024 J-0.042 K0.000
G1 X-42.000 Y17.800 Z-2.000
G2 X-43.000 Y16.800 Z-2.000 I-1.000 J0.000 K0.000
G1 X-48.934 Y16.800 Z-2.000
G3 X-49.000 Y16.734 Z-2.000 I-0.024 J-0.042 K0.000
G1 X-49.000 Y-16.734 Z-2.000
G3 X-48.934 Y-16.800 Z-2.000 I0.042 J-0.024 K0.000
G1 X-43.000 Y-16.800 Z-2.000
G2 X-42.000 Y-17.800 Z-2.000 I-0.000 J-1.000 K0.000
G1 X-42.000 Y-27.434 Z-2.000
G3 X-41.934 Y-27.500 Z-2.000 I0.042 J-0.024 K0.000
G1 X41.934 Y-27.500 Z-2.000
G3 X42.000 Y-27.434 Z-2.000 I0.024 J0.042 K0.000
G1 X42.000 Y-17.800 Z-2.000
G2 X43.000 Y-16.800 Z-2.000 I1.000 J-0.000 K0.000
G1 X48.934 Y-16.800 Z-2.000
G3 X49.000 Y-16.734 Z-2.000 I0.024 J0.042 K0.000
G1 X49.000 Y16.734 Z-2.000
G3 X48.934 Y16.800 Z-2.000 I-0.042 J0.024 K0.000
G1 X43.000 Y16.800 Z-2.000
G2 X42.000 Y17.800 Z-2.000 I0.000 J1.000 K0.000
G1 X42.000 Y24.746 Z-2.000
G1 X42.000 Y24.746 Z-2.500
G1 X42.000 Y27.434 Z-2.500
G3 X41.934 Y27.500 Z-2.500 I-0.042 J0.024 K0.000
G1 X-41.934 Y27.500 Z-2.500
G3 X-42.000 Y27.434 Z-2.500 I-0.024 J-0.042 K0.000
G1 X-42.000 Y17.800 Z-2.500
G2 X-43.000 Y16.800 Z-2.500 I-1.000 J0.000 K0.000
G1 X-48.934 Y16.800 Z-2.500
G3 X-49.000 Y16.734 Z-2.500 I-0.024 J-0.042 K0.000
G1 X-49.000 Y-16.734 Z-2.500
G3 X-48.934 Y-16.800 Z-2.500 I0.042 J-0.024 K0.000
G1 X-43.000 Y-16.800 Z-2.500
G2 X-42.000 Y-17.800 Z-2.500 I-0.000 J-1.000 K0.000
G1 X-42.000 Y-27.434 Z-2.500
G3 X-41.934 Y-27.500 Z-2.500 I0.042 J-0.024 K0.000
G1 X41.934 Y-27.500 Z-2.500
G3 X42.000 Y-27.434 Z-2.500 I0.024 J0.042 K0.000
G1 X42.000 Y-17.800 Z-2.500
G2 X43.000 Y-16.800 Z-2.500 I1.000 J-0.000 K0.000
G1 X48.934 Y-16.800 Z-2.500
G3 X49.000 Y-16.734 Z-2.500 I0.024 J0.042 K0.000
G1 X49.000 Y16.734 Z-2.500
G3 X48.934 Y16.800 Z-2.500 I-0.042 J0.024 K0.000
G1 X43.000 Y16.800 Z-2.500
G2 X42.000 Y17.800 Z-2.500 I0.000 J1.000 K0.000
G1 X42.000 Y24.746 Z-2.500
G1 X42.000 Y24.746 Z-3.000
G1 X42.000 Y27.434 Z-3.000
G3 X41.934 Y27.500 Z-3.000 I-0.042 J0.024 K0.000
G1 X-41.934 Y27.500 Z-3.000
G3 X-42.000 Y27.434 Z-3.000 I-0.024 J-0.042 K0.000
G1 X-42.000 Y17.800 Z-3.000
G2 X-43.000 Y16.800 Z-3.000 I-1.000 J0.000 K0.000
G1 X-48.934 Y16.800 Z-3.000
G3 X-49.000 Y16.734 Z-3.000 I-0.024 J-0.042 K0.000
G1 X-49.000 Y-16.734 Z-3.000
G3 X-48.934 Y-16.800 Z-3.000 I0.042 J-0.024 K0.000
G1 X-43.000 Y-16.800 Z-3.000
G2 X-42.000 Y-17.800 Z-3.000 I-0.000 J-1.000 K0.000
G1 X-42.000 Y-27.434 Z-3.000
G3 X-41.934 Y-27.500 Z-3.000 I0.042 J-0.024 K0.000
G1 X41.934 Y-27.500 Z-3.000
G3 X42.000 Y-27.434 Z-3.000 I0.024 J0.042 K0.000
G1 X42.000 Y-17.800 Z-3.000
G2 X43.000 Y-16.800 Z-3.000 I1.000 J-0.000 K0.000
G1 X48.934 Y-16.800 Z-3.000
G3 X49.000 Y-16.734 Z-3.000 I0.024 J0.042 K0.000
G1 X49.000 Y16.734 Z-3.000
G3 X48.934 Y16.800 Z-3.000 I-0.042 J0.024 K0.000
G1 X43.000 Y16.800 Z-3.000
G2 X42.000 Y17.800 Z-3.000 I0.000 J1.000 K0.000
G1 X42.000 Y24.746 Z-3.000
G1 X42.000 Y24.746 Z-3.500
G1 X42.000 Y27.434 Z-3.500
G3 X41.934 Y27.500 Z-3.500 I-0.042 J0.024 K0.000
G1 X-41.934 Y27.500 Z-3.500
G3 X-42.000 Y27.434 Z-3.500 I-0.024 J-0.042 K0.000
G1 X-42.000 Y17.800 Z-3.500
G2 X-43.000 Y16.800 Z-3.500 I-1.000 J0.000 K0.000
G1 X-48.934 Y16.800 Z-3.500
G3 X-49.000 Y16.734 Z-3.500 I-0.024 J-0.042 K0.000
G1 X-49.000 Y-16.734 Z-3.500
G3 X-48.934 Y-16.800 Z-3.500 I0.042 J-0.024 K0.000
G1 X-43.000 Y-16.800 Z-3.500
G2 X-42.000 Y-17.800 Z-3.500 I-0.000 J-1.000 K0.000
G1 X-42.000 Y-27.434 Z-3.500
G3 X-41.934 Y-27.500 Z-3.500 I0.042 J-0.024 K0.000
G1 X41.934 Y-27.500 Z-3.500
G3 X42.000 Y-27.434 Z-3.500 I0.024 J0.042 K0.000
G1 X42.000 Y-17.800 Z-3.500
G2 X43.000 Y-16.800 Z-3.500 I1.000 J-0.000 K0.000
G1 X48.934 Y-16.800 Z-3.500
G3 X49.000 Y-16.734 Z-3.500 I0.024 J0.042 K0.000
G1 X49.000 Y16.734 Z-3.500
G3 X48.934 Y16.800 Z-3.500 I-0.042 J0.024 K0.000
G1 X43.000 Y16.800 Z-3.500
G2 X42.000 Y17.800 Z-3.500 I0.000 J1.000 K0.000
G1 X42.000 Y24.746 Z-3.500
G1 X42.000 Y24.746 Z-4.000
G1 X42.000 Y27.434 Z-4.000
G3 X41.934 Y27.500 Z-4.000 I-0.042 J0.024 K0.000
G1 X-41.934 Y27.500 Z-4.000
G3 X-42.000 Y27.434 Z-4.000 I-0.024 J-0.042 K0.000
G1 X-42.000 Y17.800 Z-4.000
G2 X-43.000 Y16.800 Z-4.000 I-1.000 J0.000 K0.000
G1 X-48.934 Y16.800 Z-4.000
G3 X-49.000 Y16.734 Z-4.000 I-0.024 J-0.042 K0.000
G1 X-49.000 Y-16.734 Z-4.000
G3 X-48.934 Y-16.800 Z-4.000 I0.042 J-0.024 K0.000
G1 X-43.000 Y-16.800 Z-4.000
G2 X-42.000 Y-17.800 Z-4.000 I-0.000 J-1.000 K0.000
G1 X-42.000 Y-27.434 Z-4.000
G3 X-41.934 Y-27.500 Z-4.000 I0.042 J-0.024 K0.000
G1 X41.934 Y-27.500 Z-4.000
G3 X42.000 Y-27.434 Z-4.000 I0.024 J0.042 K0.000
G1 X42.000 Y-17.800 Z-4.000
G2 X43.000 Y-16.800 Z-4.000 I1.000 J-0.000 K0.000
G1 X48.934 Y-16.800 Z-4.000
G3 X49.000 Y-16.734 Z-4.000 I0.024 J0.042 K0.000
G1 X49.000 Y16.734 Z-4.000
G3 X48.934 Y16.800 Z-4.000 I-0.042 J0.024 K0.000
G1 X43.000 Y16.800 Z-4.000
G2 X42.000 Y17.800 Z-4.000 I0.000 J1.000 K0.000
G1 X42.000 Y24.746 Z-4.000
G1 X42.000 Y24.746 Z-4.500
G1 X42.000 Y27.434 Z-4.500
G3 X41.934 Y27.500 Z-4.500 I-0.042 J0.024 K0.000
G1 X-41.934 Y27.500 Z-4.500
G3 X-42.000 Y27.434 Z-4.500 I-0.024 J-0.042 K0.000
G1 X-42.000 Y17.800 Z-4.500
G2 X-43.000 Y16.800 Z-4.500 I-1.000 J0.000 K0.000
G1 X-48.934 Y16.800 Z-4.500
G3 X-49.000 Y16.734 Z-4.500 I-0.024 J-0.042 K0.000
G1 X-49.000 Y-16.734 Z-4.500
G3 X-48.934 Y-16.800 Z-4.500 I0.042 J-0.024 K0.000
G1 X-43.000 Y-16.800 Z-4.500
G2 X-42.000 Y-17.800 Z-4.500 I-0.000 J-1.000 K0.000
G1 X-42.000 Y-27.434 Z-4.500
G3 X-41.934 Y-27.500 Z-4.500 I0.042 J-0.024 K0.000
G1 X41.934 Y-27.500 Z-4.500
G3 X42.000 Y-27.434 Z-4.500 I0.024 J0.042 K0.000
G1 X42.000 Y-17.800 Z-4.500
G2 X43.000 Y-16.800 Z-4.500 I1.000 J-0.000 K0.000
G1 X48.934 Y-16.800 Z-4.500
G3 X49.000 Y-16.734 Z-4.500 I0.024 J0.042 K0.000
G1 X49.000 Y16.734 Z-4.500
G3 X48.934 Y16.800 Z-4.500 I-0.042 J0.024 K0.000
G1 X43.000 Y16.800 Z-4.500
G2 X42.000 Y17.800 Z-4.500 I0.000 J1.000 K0.000
G1 X42.000 Y24.746 Z-4.500
G1 X42.000 Y24.746 Z-5.000
G1 X42.000 Y27.434 Z-5.000
G3 X41.934 Y27.500 Z-5.000 I-0.042 J0.024 K0.000
G1 X-41.934 Y27.500 Z-5.000
G3 X-42.000 Y27.434 Z-5.000 I-0.024 J-0.042 K0.000
G1 X-42.000 Y17.800 Z-5.000
G2 X-43.000 Y16.800 Z-5.000 I-1.000 J0.000 K0.000
G1 X-48.934 Y16.800 Z-5.000
G3 X-49.000 Y16.734 Z-5.000 I-0.024 J-0.042 K0.000
G1 X-49.000 Y-16.734 Z-5.000
G3 X-48.934 Y-16.800 Z-5.000 I0.042 J-0.024 K0.000
G1 X-43.000 Y-16.800 Z-5.000
G2 X-42.000 Y-17.800 Z-5.000 I-0.000 J-1.000 K0.000
G1 X-42.000 Y-27.434 Z-5.000
G3 X-41.934 Y-27.500 Z-5.000 I0.042 J-0.024 K0.000
G1 X41.934 Y-27.500 Z-5.000
G3 X42.000 Y-27.434 Z-5.000 I0.024 J0.042 K0.000
G1 X42.000 Y-17.800 Z-5.000
G2 X43.000 Y-16.800 Z-5.000 I1.000 J-0.000 K0.000
G1 X48.934 Y-16.800 Z-5.000
G3 X49.000 Y-16.734 Z-5.000 I0.024 J0.042 K0.000
G1 X49.000 Y16.734 Z-5.000
G3 X48.934 Y16.800 Z-5.000 I-0.042 J0.024 K0.000
G1 X43.000 Y16.800 Z-5.000
G2 X42.000 Y17.800 Z-5.000 I0.000 J1.000 K0.000
G1 X42.000 Y24.746 Z-5.000
G1 X42.000 Y24.746 Z-5.500
G1 X42.000 Y27.434 Z-5.500
G3 X41.934 Y27.500 Z-5.500 I-0.042 J0.024 K0.000
G1 X-41.934 Y27.500 Z-5.500
G3 X-42.000 Y27.434 Z-5.500 I-0.024 J-0.042 K0.000
G1 X-42.000 Y17.800 Z-5.500
G2 X-43.000 Y16.800 Z-5.500 I-1.000 J0.000 K0.000
G1 X-48.934 Y16.800 Z-5.500
G3 X-49.000 Y16.734 Z-5.500 I-0.024 J-0.042 K0.000
G1 X-49.000 Y-16.734 Z-5.500
G3 X-48.934 Y-16.800 Z-5.500 I0.042 J-0.024 K0.000
G1 X-43.000 Y-16.800 Z-5.500
G2 X-42.000 Y-17.800 Z-5.500 I-0.000 J-1.000 K0.000
G1 X-42.000 Y-27.434 Z-5.500
G3 X-41.934 Y-27.500 Z-5.500 I0.042 J-0.024 K0.000
G1 X41.934 Y-27.500 Z-5.500
G3 X42.000 Y-27.434 Z-5.500 I0.024 J0.042 K0.000
G1 X42.000 Y-17.800 Z-5.500
G2 X43.000 Y-16.800 Z-5.500 I1.000 J-0.000 K0.000
G1 X48.934 Y-16.800 Z-5.500
G3 X49.000 Y-16.734 Z-5.500 I0.024 J0.042 K0.000
G1 X49.000 Y16.734 Z-5.500
G3 X48.934 Y16.800 Z-5.500 I-0.042 J0.024 K0.000
G1 X43.000 Y16.800 Z-5.500
G2 X42.000 Y17.800 Z-5.500 I0.000 J1.000 K0.000
G1 X42.000 Y24.746 Z-5.500
G1 X42.000 Y24.746 Z-6.000
G1 X42.000 Y27.434 Z-6.000
G3 X41.934 Y27.500 Z-6.000 I-0.042 J0.024 K0.000
G1 X-41.934 Y27.500 Z-6.000
G3 X-42.000 Y27.434 Z-6.000 I-0.024 J-0.042 K0.000
G1 X-42.000 Y17.800 Z-6.000
G2 X-43.000 Y16.800 Z-6.000 I-1.000 J0.000 K0.000
G1 X-48.934 Y16.800 Z-6.000
G3 X-49.000 Y16.734 Z-6.000 I-0.024 J-0.042 K0.000
G1 X-49.000 Y-16.734 Z-6.000
G3 X-48.934 Y-16.800 Z-6.000 I0.042 J-0.024 K0.000
G1 X-43.000 Y-16.800 Z-6.000
G2 X-42.000 Y-17.800 Z-6.000 I-0.000 J-1.000 K0.000
G1 X-42.000 Y-27.434 Z-6.000
G3 X-41.934 Y-27.500 Z-6.000 I0.042 J-0.024 K0.000
G1 X41.934 Y-27.500 Z-6.000
G3 X42.000 Y-27.434 Z-6.000 I0.024 J0.042 K0.000
G1 X42.000 Y-17.800 Z-6.000
G2 X43.000 Y-16.800 Z-6.000 I1.000 J-0.000 K0.000
G1 X48.934 Y-16.800 Z-6.000
G3 X49.000 Y-16.734 Z-6.000 I0.024 J0.042 K0.000
G1 X49.000 Y16.734 Z-6.000
G3 X48.934 Y16.800 Z-6.000 I-0.042 J0.024 K0.000
G1 X43.000 Y16.800 Z-6.000
G2 X42.000 Y17.800 Z-6.000 I0.000 J1.000 K0.000
G1 X42.000 Y24.746 Z-6.000
G1 X42.000 Y24.746 Z-6.500
G1 X42.000 Y27.434 Z-6.500
G3 X41.934 Y27.500 Z-6.500 I-0.042 J0.024 K0.000
G1 X-41.934 Y27.500 Z-6.500
G3 X-42.000 Y27.434 Z-6.500 I-0.024 J-0.042 K0.000
G1 X-42.000 Y17.800 Z-6.500
G2 X-43.000 Y16.800 Z-6.500 I-1.000 J0.000 K0.000
G1 X-48.934 Y16.800 Z-6.500
G3 X-49.000 Y16.734 Z-6.500 I-0.024 J-0.042 K0.000
G1 X-49.000 Y-16.734 Z-6.500
G3 X-48.934 Y-16.800 Z-6.500 I0.042 J-0.024 K0.000
G1 X-43.000 Y-16.800 Z-6.500
G2 X-42.000 Y-17.800 Z-6.500 I-0.000 J-1.000 K0.000
G1 X-42.000 Y-27.434 Z-6.500
G3 X-41.934 Y-27.500 Z-6.500 I0.042 J-0.024 K0.000
G1 X41.934 Y-27.500 Z-6.500
G3 X42.000 Y-27.434 Z-6.500 I0.024 J0.042 K0.000
G1 X42.000 Y-17.800 Z-6.500
G2 X43.000 Y-16.800 Z-6.500 I1.000 J-0.000 K0.000
G1 X48.934 Y-16.800 Z-6.500
G3 X49.000 Y-16.734 Z-6.500 I0.024 J0.042 K0.000
G1 X49.000 Y16.734 Z-6.500
G3 X48.934 Y16.800 Z-6.500 I-0.042 J0.024 K0.000
G1 X43.000 Y16.800 Z-6.500
G2 X42.000 Y17.800 Z-6.500 I0.000 J1.000 K0.000
G1 X42.000 Y24.746 Z-6.500
G1 X42.000 Y24.746 Z-7.000
G1 X42.000 Y27.434 Z-7.000
G3 X41.934 Y27.500 Z-7.000 I-0.042 J0.024 K0.000
G1 X-41.934 Y27.500 Z-7.000
G3 X-42.000 Y27.434 Z-7.000 I-0.024 J-0.042 K0.000
G1 X-42.000 Y17.800 Z-7.000
G2 X-43.000 Y16.800 Z-7.000 I-1.000 J0.000 K0.000
G1 X-48.934 Y16.800 Z-7.000
G3 X-49.000 Y16.734 Z-7.000 I-0.024 J-0.042 K0.000
G1 X-49.000 Y-16.734 Z-7.000
G3 X-48.934 Y-16.800 Z-7.000 I0.042 J-0.024 K0.000
G1 X-43.000 Y-16.800 Z-7.000
G2 X-42.000 Y-17.800 Z-7.000 I-0.000 J-1.000 K0.000
G1 X-42.000 Y-27.434 Z-7.000
G3 X-41.934 Y-27.500 Z-7.000 I0.042 J-0.024 K0.000
G1 X41.934 Y-27.500 Z-7.000
G3 X42.000 Y-27.434 Z-7.000 I0.024 J0.042 K0.000
G1 X42.000 Y-17.800 Z-7.000
G2 X43.000 Y-16.800 Z-7.000 I1.000 J-0.000 K0.000
G1 X48.934 Y-16.800 Z-7.000
G3 X49.000 Y-16.734 Z-7.000 I0.024 J0.042 K0.000
G1 X49.000 Y16.734 Z-7.000
G3 X48.934 Y16.800 Z-7.000 I-0.042 J0.024 K0.000
G1 X43.000 Y16.800 Z-7.000
G2 X42.000 Y17.800 Z-7.000 I0.000 J1.000 K0.000
G1 X42.000 Y24.746 Z-7.000
G1 X42.000 Y24.746 Z-7.500
G1 X42.000 Y27.434 Z-7.500
G3 X41.934 Y27.500 Z-7.500 I-0.042 J0.024 K0.000
G1 X-41.934 Y27.500 Z-7.500
G3 X-42.000 Y27.434 Z-7.500 I-0.024 J-0.042 K0.000
G1 X-42.000 Y17.800 Z-7.500
G2 X-43.000 Y16.800 Z-7.500 I-1.000 J0.000 K0.000
G1 X-48.934 Y16.800 Z-7.500
G3 X-49.000 Y16.734 Z-7.500 I-0.024 J-0.042 K0.000
G1 X-49.000 Y-16.734 Z-7.500
G3 X-48.934 Y-16.800 Z-7.500 I0.042 J-0.024 K0.000
G1 X-43.000 Y-16.800 Z-7.500
G2 X-42.000 Y-17.800 Z-7.500 I-0.000 J-1.000 K0.000
G1 X-42.000 Y-27.434 Z-7.500
G3 X-41.934 Y-27.500 Z-7.500 I0.042 J-0.024 K0.000
G1 X41.934 Y-27.500 Z-7.500
G3 X42.000 Y-27.434 Z-7.500 I0.024 J0.042 K0.000
G1 X42.000 Y-17.800 Z-7.500
G2 X43.000 Y-16.800 Z-7.500 I1.000 J-0.000 K0.000
G1 X48.934 Y-16.800 Z-7.500
G3 X49.000 Y-16.734 Z-7.500 I0.024 J0.042 K0.000
G1 X49.000 Y16.734 Z-7.500
G3 X48.934 Y16.800 Z-7.500 I-0.042 J0.024 K0.000
G1 X43.000 Y16.800 Z-7.500
G2 X42.000 Y17.800 Z-7.500 I0.000 J1.000 K0.000
G1 X42.000 Y24.746 Z-7.500
G1 X42.000 Y24.746 Z-8.000
G1 X42.000 Y27.434 Z-8.000
G3 X41.934 Y27.500 Z-8.000 I-0.042 J0.024 K0.000
G1 X-41.934 Y27.500 Z-8.000
G3 X-42.000 Y27.434 Z-8.000 I-0.024 J-0.042 K0.000
G1 X-42.000 Y17.800 Z-8.000
G2 X-43.000 Y16.800 Z-8.000 I-1.000 J0.000 K0.000
G1 X-48.934 Y16.800 Z-8.000
G3 X-49.000 Y16.734 Z-8.000 I-0.024 J-0.042 K0.000
G1 X-49.000 Y-16.734 Z-8.000
G3 X-48.934 Y-16.800 Z-8.000 I0.042 J-0.024 K0.000
G1 X-43.000 Y-16.800 Z-8.000
G2 X-42.000 Y-17.800 Z-8.000 I-0.000 J-1.000 K0.000
G1 X-42.000 Y-27.434 Z-8.000
G3 X-41.934 Y-27.500 Z-8.000 I0.042 J-0.024 K0.000
G1 X41.934 Y-27.500 Z-8.000
G3 X42.000 Y-27.434 Z-8.000 I0.024 J0.042 K0.000
G1 X42.000 Y-17.800 Z-8.000
G2 X43.000 Y-16.800 Z-8.000 I1.000 J-0.000 K0.000
G1 X48.934 Y-16.800 Z-8.000
G3 X49.000 Y-16.734 Z-8.000 I0.024 J0.042 K0.000
G1 X49.000 Y16.734 Z-8.000
G3 X48.934 Y16.800 Z-8.000 I-0.042 J0.024 K0.000
G1 X43.000 Y16.800 Z-8.000
G2 X42.000 Y17.800 Z-8.000 I0.000 J1.000 K0.000
G1 X42.000 Y24.746 Z-8.000
G1 X42.000 Y24.746 Z-8.500
G1 X42.000 Y27.434 Z-8.500
G3 X41.934 Y27.500 Z-8.500 I-0.042 J0.024 K0.000
G1 X-41.934 Y27.500 Z-8.500
G3 X-42.000 Y27.434 Z-8.500 I-0.024 J-0.042 K0.000
G1 X-42.000 Y17.800 Z-8.500
G2 X-43.000 Y16.800 Z-8.500 I-1.000 J0.000 K0.000
G1 X-48.934 Y16.800 Z-8.500
G3 X-49.000 Y16.734 Z-8.500 I-0.024 J-0.042 K0.000
G1 X-49.000 Y-16.734 Z-8.500
G3 X-48.934 Y-16.800 Z-8.500 I0.042 J-0.024 K0.000
G1 X-43.000 Y-16.800 Z-8.500
G2 X-42.000 Y-17.800 Z-8.500 I-0.000 J-1.000 K0.000
G1 X-42.000 Y-27.434 Z-8.500
G3 X-41.934 Y-27.500 Z-8.500 I0.042 J-0.024 K0.000
G1 X41.934 Y-27.500 Z-8.500
G3 X42.000 Y-27.434 Z-8.500 I0.024 J0.042 K0.000
G1 X42.000 Y-17.800 Z-8.500
G2 X43.000 Y-16.800 Z-8.500 I1.000 J-0.000 K0.000
G1 X48.934 Y-16.800 Z-8.500
G3 X49.000 Y-16.734 Z-8.500 I0.024 J0.042 K0.000
G1 X49.000 Y16.734 Z-8.500
G3 X48.934 Y16.800 Z-8.500 I-0.042 J0.024 K0.000
G1 X43.000 Y16.800 Z-8.500
G2 X42.000 Y17.800 Z-8.500 I0.000 J1.000 K0.000
G1 X42.000 Y24.746 Z-8.500
G1 X42.000 Y24.746 Z-9.000
G1 X42.000 Y27.434 Z-9.000
G3 X41.934 Y27.500 Z-9.000 I-0.042 J0.024 K0.000
G1 X-41.934 Y27.500 Z-9.000
G3 X-42.000 Y27.434 Z-9.000 I-0.024 J-0.042 K0.000
G1 X-42.000 Y17.800 Z-9.000
G2 X-43.000 Y16.800 Z-9.000 I-1.000 J0.000 K0.000
G1 X-48.934 Y16.800 Z-9.000
G3 X-49.000 Y16.734 Z-9.000 I-0.024 J-0.042 K0.000
G1 X-49.000 Y-16.734 Z-9.000
G3 X-48.934 Y-16.800 Z-9.000 I0.042 J-0.024 K0.000
G1 X-43.000 Y-16.800 Z-9.000
G2 X-42.000 Y-17.800 Z-9.000 I-0.000 J-1.000 K0.000
G1 X-42.000 Y-27.434 Z-9.000
G3 X-41.934 Y-27.500 Z-9.000 I0.042 J-0.024 K0.000
G1 X41.934 Y-27.500 Z-9.000
G3 X42.000 Y-27.434 Z-9.000 I0.024 J0.042 K0.000
G1 X42.000 Y-17.800 Z-9.000
G2 X43.000 Y-16.800 Z-9.000 I1.000 J-0.000 K0.000
G1 X48.934 Y-16.800 Z-9.000
G3 X49.000 Y-16.734 Z-9.000 I0.024 J0.042 K0.000
G1 X49.000 Y16.734 Z-9.000
G3 X48.934 Y16.800 Z-9.000 I-0.042 J0.024 K0.000
G1 X43.000 Y16.800 Z-9.000
G2 X42.000 Y17.800 Z-9.000 I0.000 J1.000 K0.000
G1 X42.000 Y24.746 Z-9.000
G1 X42.000 Y24.746 Z-9.500
G1 X42.000 Y27.434 Z-9.500
G3 X41.934 Y27.500 Z-9.500 I-0.042 J0.024 K0.000
G1 X-41.934 Y27.500 Z-9.500
G3 X-42.000 Y27.434 Z-9.500 I-0.024 J-0.042 K0.000
G1 X-42.000 Y17.800 Z-9.500
G2 X-43.000 Y16.800 Z-9.500 I-1.000 J0.000 K0.000
G1 X-48.934 Y16.800 Z-9.500
G3 X-49.000 Y16.734 Z-9.500 I-0.024 J-0.042 K0.000
G1 X-49.000 Y-16.734 Z-9.500
G3 X-48.934 Y-16.800 Z-9.500 I0.042 J-0.024 K0.000
G1 X-43.000 Y-16.800 Z-9.500
G2 X-42.000 Y-17.800 Z-9.500 I-0.000 J-1.000 K0.000
G1 X-42.000 Y-27.434 Z-9.500
G3 X-41.934 Y-27.500 Z-9.500 I0.042 J-0.024 K0.000
G1 X41.934 Y-27.500 Z-9.500
G3 X42.000 Y-27.434 Z-9.500 I0.024 J0.042 K0.000
G1 X42.000 Y-17.800 Z-9.500
G2 X43.000 Y-16.800 Z-9.500 I1.000 J-0.000 K0.000
G1 X48.934 Y-16.800 Z-9.500
G3 X49.000 Y-16.734 Z-9.500 I0.024 J0.042 K0.000
G1 X49.000 Y16.734 Z-9.500
G3 X48.934 Y16.800 Z-9.500 I-0.042 J0.024 K0.000
G1 X43.000 Y16.800 Z-9.500
G2 X42.000 Y17.800 Z-9.500 I0.000 J1.000 K0.000
G1 X42.000 Y24.746 Z-9.500
G1 X42.000 Y24.746 Z-10.000
G1 X42.000 Y27.434 Z-10.000
G3 X41.934 Y27.500 Z-10.000 I-0.042 J0.024 K0.000
G1 X-41.934 Y27.500 Z-10.000
G3 X-42.000 Y27.434 Z-10.000 I-0.024 J-0.042 K0.000
G1 X-42.000 Y17.800 Z-10.000
G2 X-43.000 Y16.800 Z-10.000 I-1.000 J0.000 K0.000
G1 X-48.934 Y16.800 Z-10.000
G3 X-49.000 Y16.734 Z-10.000 I-0.024 J-0.042 K0.000
G1 X-49.000 Y-16.734 Z-10.000
G3 X-48.934 Y-16.800 Z-10.000 I0.042 J-0.024 K0.000
G1 X-43.000 Y-16.800 Z-10.000
G2 X-42.000 Y-17.800 Z-10.000 I-0.000 J-1.000 K0.000
G1 X-42.000 Y-27.434 Z-10.000
G3 X-41.934 Y-27.500 Z-10.000 I0.042 J-0.024 K0.000
G1 X41.934 Y-27.500 Z-10.000
G3 X42.000 Y-27.434 Z-10.000 I0.024 J0.042 K0.000
G1 X42.000 Y-17.800 Z-10.000
G2 X43.000 Y-16.800 Z-10.000 I1.000 J-0.000 K0.000
G1 X48.934 Y-16.800 Z-10.000
G3 X49.000 Y-16.734 Z-10.000 I0.024 J0.042 K0.000
G1 X49.000 Y16.734 Z-10.000
G3 X48.934 Y16.800 Z-10.000 I-0.042 J0.024 K0.000
G1 X43.000 Y16.800 Z-10.000
G2 X42.000 Y17.800 Z-10.000 I0.000 J1.000 K0.000
G1 X42.000 Y24.746 Z-10.000
G1 X42.000 Y24.746 Z-10.500
G1 X42.000 Y27.434 Z-10.500
G3 X41.934 Y27.500 Z-10.500 I-0.042 J0.024 K0.000
G1 X-41.934 Y27.500 Z-10.500
G3 X-42.000 Y27.434 Z-10.500 I-0.024 J-0.042 K0.000
G1 X-42.000 Y17.800 Z-10.500
G2 X-43.000 Y16.800 Z-10.500 I-1.000 J0.000 K0.000
G1 X-48.934 Y16.800 Z-10.500
G3 X-49.000 Y16.734 Z-10.500 I-0.024 J-0.042 K0.000
G1 X-49.000 Y-16.734 Z-10.500
G3 X-48.934 Y-16.800 Z-10.500 I0.042 J-0.024 K0.000
G1 X-43.000 Y-16.800 Z-10.500
G2 X-42.000 Y-17.800 Z-10.500 I-0.000 J-1.000 K0.000
G1 X-42.000 Y-27.434 Z-10.500
G3 X-41.934 Y-27.500 Z-10.500 I0.042 J-0.024 K0.000
G1 X41.934 Y-27.500 Z-10.500
G3 X42.000 Y-27.434 Z-10.500 I0.024 J0.042 K0.000
G1 X42.000 Y-17.800 Z-10.500
G2 X43.000 Y-16.800 Z-10.500 I1.000 J-0.000 K0.000
G1 X48.934 Y-16.800 Z-10.500
G3 X49.000 Y-16.734 Z-10.500 I0.024 J0.042 K0.000
G1 X49.000 Y16.734 Z-10.500
G3 X48.934 Y16.800 Z-10.500 I-0.042 J0.024 K0.000
G1 X43.000 Y16.800 Z-10.500
G2 X42.000 Y17.800 Z-10.500 I0.000 J1.000 K0.000
G1 X42.000 Y24.746 Z-10.500
G0 Z5.000
G0 Z5.000
G0 X42.000 Y24.746
G0 X45.953 Y-24.157
G0 X45.953 Y-24.157 Z3.000
G1 X45.953 Y-24.157 Z-0.500
G3 X45.816 Y-24.185 Z-0.500 I0.048 J-0.593 K0.000
G3 X46.176 Y-25.318 Z-0.500 I0.184 J-0.566 K0.000
G1 X46.284 Y-25.273 Z-0.500
G3 X45.953 Y-24.157 Z-0.500 I-0.283 J0.523 K0.000
G1 X45.953 Y-24.157 Z-1.000
G3 X45.816 Y-24.185 Z-1.000 I0.048 J-0.593 K0.000
G3 X46.176 Y-25.318 Z-1.000 I0.184 J-0.566 K0.000
G1 X46.284 Y-25.273 Z-1.000
G3 X45.953 Y-24.157 Z-1.000 I-0.283 J0.523 K0.000
G1 X45.953 Y-24.157 Z-1.500
G3 X45.816 Y-24.185 Z-1.500 I0.048 J-0.593 K0.000
G3 X46.176 Y-25.318 Z-1.500 I0.184 J-0.566 K0.000
G1 X46.284 Y-25.273 Z-1.500
G3 X45.953 Y-24.157 Z-1.500 I-0.283 J0.523 K0.000
G1 X45.953 Y-24.157 Z-2.000
G3 X45.816 Y-24.185 Z-2.000 I0.048 J-0.593 K0.000
G3 X46.176 Y-25.318 Z-2.000 I0.184 J-0.566 K0.000
G1 X46.284 Y-25.273 Z-2.000
G3 X45.953 Y-24.157 Z-2.000 I-0.283 J0.523 K0.000
G1 X45.953 Y-24.157 Z-2.500
G3 X45.816 Y-24.185 Z-2.500 I0.048 J-0.593 K0.000
G3 X46.176 Y-25.318 Z-2.500 I0.184 J-0.566 K0.000
G1 X46.284 Y-25.273 Z-2.500
G3 X45.953 Y-24.157 Z-2.500 I-0.283 J0.523 K0.000
G1 X45.953 Y-24.157 Z-3.000
G3 X45.816 Y-24.185 Z-3.000 I0.048 J-0.593 K0.000
G3 X46.176 Y-25.318 Z-3.000 I0.184 J-0.566 K0.000
G1 X46.284 Y-25.273 Z-3.000
G3 X45.953 Y-24.157 Z-3.000 I-0.283 J0.523 K0.000
G1 X45.953 Y-24.157 Z-3.500
G3 X45.816 Y-24.185 Z-3.500 I0.048 J-0.593 K0.000
G3 X46.176 Y-25.318 Z-3.500 I0.184 J-0.566 K0.000
G1 X46.284 Y-25.273 Z-3.500
G3 X45.953 Y-24.157 Z-3.500 I-0.283 J0.523 K0.000
G1 X45.953 Y-24.157 Z-4.000
G3 X45.816 Y-24.185 Z-4.000 I0.048 J-0.593 K0.000
G3 X46.176 Y-25.318 Z-4.000 I0.184 J-0.566 K0.000
G1 X46.284 Y-25.273 Z-4.000
G3 X45.953 Y-24.157 Z-4.000 I-0.283 J0.523 K0.000
G1 X45.953 Y-24.157 Z-4.500
G3 X45.816 Y-24.185 Z-4.500 I0.048 J-0.593 K0.000
G3 X46.176 Y-25.318 Z-4.500 I0.184 J-0.566 K0.000
G1 X46.284 Y-25.273 Z-4.500
G3 X45.953 Y-24.157 Z-4.500 I-0.283 J0.523 K0.000
G1 X45.953 Y-24.157 Z-5.000
G3 X45.816 Y-24.185 Z-5.000 I0.048 J-0.593 K0.000
G3 X46.176 Y-25.318 Z-5.000 I0.184 J-0.566 K0.000
G1 X46.284 Y-25.273 Z-5.000
G3 X45.953 Y-24.157 Z-5.000 I-0.283 J0.523 K0.000
G1 X45.953 Y-24.157 Z-5.500
G3 X45.816 Y-24.185 Z-5.500 I0.048 J-0.593 K0.000
G3 X46.176 Y-25.318 Z-5.500 I0.184 J-0.566 K0.000
G1 X46.284 Y-25.273 Z-5.500
G3 X45.953 Y-24.157 Z-5.500 I-0.283 J0.523 K0.000
G1 X45.953 Y-24.157 Z-6.000
G3 X45.816 Y-24.185 Z-6.000 I0.048 J-0.593 K0.000
G3 X46.176 Y-25.318 Z-6.000 I0.184 J-0.566 K0.000
G1 X46.284 Y-25.273 Z-6.000
G3 X45.953 Y-24.157 Z-6.000 I-0.283 J0.523 K0.000
G1 X45.953 Y-24.157 Z-6.500
G3 X45.816 Y-24.185 Z-6.500 I0.048 J-0.593 K0.000
G3 X46.176 Y-25.318 Z-6.500 I0.184 J-0.566 K0.000
G1 X46.284 Y-25.273 Z-6.500
G3 X45.953 Y-24.157 Z-6.500 I-0.283 J0.523 K0.000
G1 X45.953 Y-24.157 Z-7.000
G3 X45.816 Y-24.185 Z-7.000 I0.048 J-0.593 K0.000
G3 X46.176 Y-25.318 Z-7.000 I0.184 J-0.566 K0.000
G1 X46.284 Y-25.273 Z-7.000
G3 X45.953 Y-24.157 Z-7.000 I-0.283 J0.523 K0.000
G1 X45.953 Y-24.157 Z-7.500
G3 X45.816 Y-24.185 Z-7.500 I0.048 J-0.593 K0.000
G3 X46.176 Y-25.318 Z-7.500 I0.184 J-0.566 K0.000
G1 X46.284 Y-25.273 Z-7.500
G3 X45.953 Y-24.157 Z-7.500 I-0.283 J0.523 K0.000
G1 X45.953 Y-24.157 Z-8.000
G3 X45.816 Y-24.185 Z-8.000 I0.048 J-0.593 K0.000
G3 X46.176 Y-25.318 Z-8.000 I0.184 J-0.566 K0.000
G1 X46.284 Y-25.273 Z-8.000
G3 X45.953 Y-24.157 Z-8.000 I-0.283 J0.523 K0.000
G1 X45.953 Y-24.157 Z-8.500
G3 X45.816 Y-24.185 Z-8.500 I0.048 J-0.593 K0.000
G3 X46.176 Y-25.318 Z-8.500 I0.184 J-0.566 K0.000
G1 X46.284 Y-25.273 Z-8.500
G3 X45.953 Y-24.157 Z-8.500 I-0.283 J0.523 K0.000
G1 X45.953 Y-24.157 Z-9.000
G3 X45.816 Y-24.185 Z-9.000 I0.048 J-0.593 K0.000
G3 X46.176 Y-25.318 Z-9.000 I0.184 J-0.566 K0.000
G1 X46.284 Y-25.273 Z-9.000
G3 X45.953 Y-24.157 Z-9.000 I-0.283 J0.523 K0.000
G1 X45.953 Y-24.157 Z-9.500
G3 X45.816 Y-24.185 Z-9.500 I0.048 J-0.593 K0.000
G3 X46.176 Y-25.318 Z-9.500 I0.184 J-0.566 K0.000
G1 X46.284 Y-25.273 Z-9.500
G3 X45.953 Y-24.157 Z-9.500 I-0.283 J0.523 K0.000
G1 X45.953 Y-24.157 Z-10.000
G3 X45.816 Y-24.185 Z-10.000 I0.048 J-0.593 K0.000
G3 X46.176 Y-25.318 Z-10.000 I0.184 J-0.566 K0.000
G1 X46.284 Y-25.273 Z-10.000
G3 X45.953 Y-24.157 Z-10.000 I-0.283 J0.523 K0.000
G1 X45.953 Y-24.157 Z-10.500
G3 X45.816 Y-24.185 Z-10.500 I0.048 J-0.593 K0.000
G3 X46.176 Y-25.318 Z-10.500 I0.184 J-0.566 K0.000
G1 X46.284 Y-25.273 Z-10.500
G3 X45.953 Y-24.157 Z-10.500 I-0.283 J0.523 K0.000
G0 Z5.000
G0 Z5.000
(Finish operation: Profile)
(Begin postamble)
M5
G17 G90
M2
