(Exported by FreeCAD)
(Post Processor: grbl_post)
(Output Time:2024-05-26 21:47:49.276542)
(Begin preamble)
G17 G90
G21
(Begin operation: Fixture)
(Path: Fixture)
G54
(Finish operation: Fixture)
(Begin operation: 2mm Endmill001)
(Path: 2mm Endmill001)
(2mm Endmill001)
(Begin toolchange)
( M6 T2 )
(Finish operation: 2mm Endmill001)
(Begin operation: Pocket_Shape)
(Path: Pocket_Shape)
(Pocket_Shape)
G0 Z5.000
G0 X44.576 Y29.750
G0 Z3.000
G1 X44.576 Y29.750 Z-0.500
G1 X43.326 Y28.500 Z-0.500
G1 X40.781 Y28.500 Z-0.500
G1 X42.031 Y29.750 Z-0.500
G1 X39.485 Y29.750 Z-0.500
G1 X38.235 Y28.500 Z-0.500
G1 X35.690 Y28.500 Z-0.500
G1 X36.940 Y29.750 Z-0.500
G1 X34.394 Y29.750 Z-0.500
G1 X33.144 Y28.500 Z-0.500
G1 X30.598 Y28.500 Z-0.500
G1 X31.848 Y29.750 Z-0.500
G1 X29.303 Y29.750 Z-0.500
G1 X28.053 Y28.500 Z-0.500
G1 X25.507 Y28.500 Z-0.500
G1 X26.757 Y29.750 Z-0.500
G1 X24.212 Y29.750 Z-0.500
G1 X22.962 Y28.500 Z-0.500
G1 X20.416 Y28.500 Z-0.500
G1 X21.666 Y29.750 Z-0.500
G1 X19.121 Y29.750 Z-0.500
G1 X17.871 Y28.500 Z-0.500
G1 X15.325 Y28.500 Z-0.500
G1 X16.575 Y29.750 Z-0.500
G1 X14.029 Y29.750 Z-0.500
G1 X12.779 Y28.500 Z-0.500
G1 X10.234 Y28.500 Z-0.500
G1 X11.484 Y29.750 Z-0.500
G1 X8.938 Y29.750 Z-0.500
G1 X7.688 Y28.500 Z-0.500
G1 X5.143 Y28.500 Z-0.500
G1 X6.393 Y29.750 Z-0.500
G1 X5.000 Y29.750 Z-0.500
G2 X4.313 Y30.216 Z-0.500 I-0.007 J0.729 K0.000
G1 X2.597 Y28.500 Z-0.500
G0 Z5.000
G0 X-6.335 Y29.750 Z5.000
G0 X-6.335 Y29.750 Z3.000
G1 X-6.335 Y29.750 Z-0.500
G1 X-7.585 Y28.500 Z-0.500
G1 X-10.131 Y28.500 Z-0.500
G1 X-8.881 Y29.750 Z-0.500
G1 X-11.426 Y29.750 Z-0.500
G1 X-12.676 Y28.500 Z-0.500
G1 X-15.222 Y28.500 Z-0.500
G1 X-13.972 Y29.750 Z-0.500
G1 X-16.518 Y29.750 Z-0.500
G1 X-17.768 Y28.500 Z-0.500
G1 X-20.313 Y28.500 Z-0.500
G1 X-19.063 Y29.750 Z-0.500
G1 X-21.609 Y29.750 Z-0.500
G1 X-22.859 Y28.500 Z-0.500
G1 X-25.404 Y28.500 Z-0.500
G1 X-24.154 Y29.750 Z-0.500
G1 X-26.700 Y29.750 Z-0.500
G1 X-27.950 Y28.500 Z-0.500
G1 X-30.496 Y28.500 Z-0.500
G1 X-29.246 Y29.750 Z-0.500
G1 X-31.791 Y29.750 Z-0.500
G1 X-33.041 Y28.500 Z-0.500
G1 X-35.587 Y28.500 Z-0.500
G1 X-34.337 Y29.750 Z-0.500
G1 X-36.882 Y29.750 Z-0.500
G1 X-38.132 Y28.500 Z-0.500
G1 X-40.678 Y28.500 Z-0.500
G1 X-39.428 Y29.750 Z-0.500
G1 X-41.973 Y29.750 Z-0.500
G1 X-43.223 Y28.500 Z-0.500
G1 X-45.769 Y28.500 Z-0.500
G1 X-44.519 Y29.750 Z-0.500
G2 X-45.232 Y29.787 Z-0.500 I-0.240 J2.268 K0.000
G2 X-45.000 Y31.250 Z-0.500 I0.232 J0.713 K0.000
G1 X-43.019 Y31.250 Z-0.500
G1 X-41.769 Y32.500 Z-0.500
G1 X-44.315 Y32.500 Z-0.500
G1 X-48.315 Y28.500 Z-0.500
G3 X-49.259 Y28.466 Z-0.500 I-0.343 J-3.603 K0.000
G3 X-50.000 Y27.500 Z-0.500 I0.259 J-0.966 K0.000
G1 X-50.000 Y26.815 Z-0.500
G1 X-54.000 Y22.815 Z-0.500
G1 X-54.000 Y25.360 Z-0.500
G1 X-46.860 Y32.500 Z-0.500
G1 X-49.000 Y32.500 Z-0.500
G1 X-49.432 Y32.474 Z-0.500
G1 X-53.974 Y27.932 Z-0.500
G2 X-49.432 Y32.474 Z-0.500 I4.951 J-0.410 K0.000
G0 Z5.000
G0 X-41.769 Y32.500 Z5.000
G0 X-41.769 Y32.500 Z3.000
G1 X-41.769 Y32.500 Z-0.500
G1 X-43.019 Y31.250 Z-0.500
G1 X-40.473 Y31.250 Z-0.500
G1 X-39.223 Y32.500 Z-0.500
G1 X-36.678 Y32.500 Z-0.500
G1 X-37.928 Y31.250 Z-0.500
G1 X-35.382 Y31.250 Z-0.500
G1 X-34.132 Y32.500 Z-0.500
G1 X-31.587 Y32.500 Z-0.500
G1 X-32.837 Y31.250 Z-0.500
G1 X-30.291 Y31.250 Z-0.500
G1 X-29.041 Y32.500 Z-0.500
G1 X-26.496 Y32.500 Z-0.500
G1 X-27.746 Y31.250 Z-0.500
G1 X-25.200 Y31.250 Z-0.500
G1 X-23.950 Y32.500 Z-0.500
G1 X-21.404 Y32.500 Z-0.500
G1 X-22.654 Y31.250 Z-0.500
G1 X-20.109 Y31.250 Z-0.500
G1 X-18.859 Y32.500 Z-0.500
G1 X-16.313 Y32.500 Z-0.500
G1 X-17.563 Y31.250 Z-0.500
G1 X-15.018 Y31.250 Z-0.500
G1 X-13.768 Y32.500 Z-0.500
G1 X-11.222 Y32.500 Z-0.500
G1 X-12.472 Y31.250 Z-0.500
G1 X-9.926 Y31.250 Z-0.500
G1 X-8.676 Y32.500 Z-0.500
G1 X-6.131 Y32.500 Z-0.500
G1 X-7.381 Y31.250 Z-0.500
G1 X-5.000 Y31.250 Z-0.500
G1 X-4.858 Y31.227 Z-0.500
G1 X-3.585 Y32.500 Z-0.500
G1 X-1.040 Y32.500 Z-0.500
G1 X-5.040 Y28.500 Z-0.500
G1 X-2.494 Y28.500 Z-0.500
G1 X1.506 Y32.500 Z-0.500
G1 X4.051 Y32.500 Z-0.500
G1 X0.051 Y28.500 Z-0.500
G1 X2.597 Y28.500 Z-0.500
G1 X4.313 Y30.216 Z-0.500
G2 X4.768 Y31.213 Z-0.500 I0.677 J0.293 K0.000
G2 X5.347 Y31.250 Z-0.500 I0.405 J-1.809 K0.000
G1 X6.597 Y32.500 Z-0.500
G1 X9.143 Y32.500 Z-0.500
G1 X7.893 Y31.250 Z-0.500
G1 X10.438 Y31.250 Z-0.500
G1 X11.688 Y32.500 Z-0.500
G1 X14.234 Y32.500 Z-0.500
G1 X12.984 Y31.250 Z-0.500
G1 X15.529 Y31.250 Z-0.500
G1 X16.779 Y32.500 Z-0.500
G1 X19.325 Y32.500 Z-0.500
G1 X18.075 Y31.250 Z-0.500
G1 X20.621 Y31.250 Z-0.500
G1 X21.871 Y32.500 Z-0.500
G1 X24.416 Y32.500 Z-0.500
G1 X23.166 Y31.250 Z-0.500
G1 X25.712 Y31.250 Z-0.500
G1 X26.962 Y32.500 Z-0.500
G1 X29.507 Y32.500 Z-0.500
G1 X28.257 Y31.250 Z-0.500
G1 X30.803 Y31.250 Z-0.500
G1 X32.053 Y32.500 Z-0.500
G1 X34.598 Y32.500 Z-0.500
G1 X33.348 Y31.250 Z-0.500
G1 X35.894 Y31.250 Z-0.500
G1 X37.144 Y32.500 Z-0.500
G1 X39.690 Y32.500 Z-0.500
G1 X38.440 Y31.250 Z-0.500
G1 X40.985 Y31.250 Z-0.500
G1 X42.235 Y32.500 Z-0.500
G1 X44.781 Y32.500 Z-0.500
G1 X43.531 Y31.250 Z-0.500
G1 X45.000 Y31.250 Z-0.500
G2 X45.661 Y30.835 Z-0.500 I0.011 J-0.716 K0.000
G1 X47.326 Y32.500 Z-0.500
G1 X49.000 Y32.500 Z-0.500
G2 X49.799 Y32.427 Z-0.500 I0.101 J-3.328 K0.000
G1 X45.872 Y28.500 Z-0.500
G1 X48.418 Y28.500 Z-0.500
G1 X51.648 Y31.731 Z-0.500
G2 X52.978 Y30.515 Z-0.500 I-2.329 J-3.882 K0.000
G1 X49.996 Y27.533 Z-0.500
G1 X50.000 Y27.500 Z-0.500
G1 X50.000 Y24.991 Z-0.500
G1 X53.819 Y28.810 Z-0.500
G2 X53.964 Y28.103 Z-0.500 I-2.842 J-0.948 K0.000
G2 X54.000 Y26.446 Z-0.500 I-13.679 J-1.130 K0.000
G1 X50.000 Y22.446 Z-0.500
G1 X50.000 Y19.900 Z-0.500
G1 X54.000 Y23.900 Z-0.500
G1 X54.000 Y21.354 Z-0.500
G1 X50.000 Y17.354 Z-0.500
G1 X50.000 Y14.809 Z-0.500
G1 X54.000 Y18.809 Z-0.500
G1 X54.000 Y16.263 Z-0.500
G1 X50.000 Y12.263 Z-0.500
G1 X50.000 Y9.718 Z-0.500
G1 X54.000 Y13.718 Z-0.500
G1 X54.000 Y11.172 Z-0.500
G1 X50.000 Y7.172 Z-0.500
G1 X50.000 Y4.627 Z-0.500
G1 X54.000 Y8.627 Z-0.500
G1 X54.000 Y6.081 Z-0.500
G1 X50.000 Y2.081 Z-0.500
G1 X50.000 Y-0.465 Z-0.500
G1 X54.000 Y3.535 Z-0.500
G1 X54.000 Y0.990 Z-0.500
G1 X50.000 Y-3.010 Z-0.500
G1 X50.000 Y-5.556 Z-0.500
G1 X54.000 Y-1.556 Z-0.500
G1 X54.000 Y-4.101 Z-0.500
G1 X50.000 Y-8.101 Z-0.500
G1 X50.000 Y-10.647 Z-0.500
G1 X54.000 Y-6.647 Z-0.500
G1 X54.000 Y-9.193 Z-0.500
G1 X50.000 Y-13.193 Z-0.500
G1 X50.000 Y-15.738 Z-0.500
G1 X54.000 Y-11.738 Z-0.500
G1 X54.000 Y-14.284 Z-0.500
G1 X50.000 Y-18.284 Z-0.500
G1 X50.000 Y-20.829 Z-0.500
G1 X54.000 Y-16.829 Z-0.500
G1 X54.000 Y-19.375 Z-0.500
G1 X50.000 Y-23.375 Z-0.500
G1 X50.000 Y-25.920 Z-0.500
G1 X54.000 Y-21.920 Z-0.500
G1 X54.000 Y-24.466 Z-0.500
G1 X48.716 Y-29.750 Z-0.500
G1 X51.262 Y-29.750 Z-0.500
G1 X54.000 Y-27.012 Z-0.500
G2 X53.465 Y-29.750 Z-0.500 I-5.415 J-0.364 K0.000
G1 X51.262 Y-29.750 Z-0.500
G0 Z5.000
G0 X52.307 Y-31.250 Z5.000
G0 X52.307 Y-31.250 Z3.000
G1 X52.307 Y-31.250 Z-0.500
G1 X49.762 Y-31.250 Z-0.500
G1 X48.512 Y-32.500 Z-0.500
G1 X45.966 Y-32.500 Z-0.500
G1 X47.216 Y-31.250 Z-0.500
G1 X44.670 Y-31.250 Z-0.500
G1 X43.420 Y-32.500 Z-0.500
G1 X40.875 Y-32.500 Z-0.500
G1 X42.125 Y-31.250 Z-0.500
G1 X39.579 Y-31.250 Z-0.500
G1 X38.329 Y-32.500 Z-0.500
G1 X35.784 Y-32.500 Z-0.500
G1 X37.034 Y-31.250 Z-0.500
G1 X34.488 Y-31.250 Z-0.500
G1 X33.238 Y-32.500 Z-0.500
G1 X30.693 Y-32.500 Z-0.500
G1 X31.943 Y-31.250 Z-0.500
G1 X29.397 Y-31.250 Z-0.500
G1 X28.147 Y-32.500 Z-0.500
G1 X25.601 Y-32.500 Z-0.500
G1 X26.851 Y-31.250 Z-0.500
G1 X24.306 Y-31.250 Z-0.500
G1 X23.056 Y-32.500 Z-0.500
G1 X20.510 Y-32.500 Z-0.500
G1 X21.760 Y-31.250 Z-0.500
G1 X19.215 Y-31.250 Z-0.500
G1 X17.965 Y-32.500 Z-0.500
G1 X15.419 Y-32.500 Z-0.500
G1 X16.669 Y-31.250 Z-0.500
G1 X14.123 Y-31.250 Z-0.500
G1 X12.873 Y-32.500 Z-0.500
G1 X10.328 Y-32.500 Z-0.500
G1 X11.578 Y-31.250 Z-0.500
G1 X9.032 Y-31.250 Z-0.500
G1 X7.782 Y-32.500 Z-0.500
G1 X5.237 Y-32.500 Z-0.500
G1 X6.487 Y-31.250 Z-0.500
G1 X5.000 Y-31.250 Z-0.500
G2 X4.345 Y-30.846 Z-0.500 I-0.012 J0.714 K0.000
G1 X2.691 Y-32.500 Z-0.500
G0 Z5.000
G0 X-6.241 Y-31.250 Z5.000
G0 X-6.241 Y-31.250 Z3.000
G1 X-6.241 Y-31.250 Z-0.500
G1 X-7.491 Y-32.500 Z-0.500
G1 X-10.037 Y-32.500 Z-0.500
G1 X-8.787 Y-31.250 Z-0.500
G1 X-11.332 Y-31.250 Z-0.500
G1 X-12.582 Y-32.500 Z-0.500
G1 X-15.128 Y-32.500 Z-0.500
G1 X-13.878 Y-31.250 Z-0.500
G1 X-16.424 Y-31.250 Z-0.500
G1 X-17.674 Y-32.500 Z-0.500
G1 X-20.219 Y-32.500 Z-0.500
G1 X-18.969 Y-31.250 Z-0.500
G1 X-21.515 Y-31.250 Z-0.500
G1 X-22.765 Y-32.500 Z-0.500
G1 X-25.310 Y-32.500 Z-0.500
G1 X-24.060 Y-31.250 Z-0.500
G1 X-26.606 Y-31.250 Z-0.500
G1 X-27.856 Y-32.500 Z-0.500
G1 X-30.402 Y-32.500 Z-0.500
G1 X-29.152 Y-31.250 Z-0.500
G1 X-31.697 Y-31.250 Z-0.500
G1 X-32.947 Y-32.500 Z-0.500
G1 X-35.493 Y-32.500 Z-0.500
G1 X-34.243 Y-31.250 Z-0.500
G1 X-36.788 Y-31.250 Z-0.500
G1 X-38.038 Y-32.500 Z-0.500
G1 X-40.584 Y-32.500 Z-0.500
G1 X-39.334 Y-31.250 Z-0.500
G1 X-41.879 Y-31.250 Z-0.500
G1 X-43.129 Y-32.500 Z-0.500
G1 X-45.675 Y-32.500 Z-0.500
G1 X-44.425 Y-31.250 Z-0.500
G2 X-45.232 Y-31.213 Z-0.500 I-0.287 J2.565 K0.000
G2 X-45.000 Y-29.750 Z-0.500 I0.232 J0.713 K0.000
G1 X-42.925 Y-29.750 Z-0.500
G1 X-41.675 Y-28.500 Z-0.500
G1 X-44.221 Y-28.500 Z-0.500
G1 X-48.221 Y-32.500 Z-0.500
G2 X-50.520 Y-32.254 Z-0.500 I-0.537 J5.845 K0.000
G1 X-46.766 Y-28.500 Z-0.500
G1 X-49.000 Y-28.500 Z-0.500
G2 X-49.272 Y-28.460 Z-0.500 I-0.062 J0.528 K0.000
G1 X-52.169 Y-31.357 Z-0.500
G2 X-53.334 Y-29.977 Z-0.500 I2.837 J3.577 K0.000
G1 X-50.000 Y-26.643 Z-0.500
G1 X-50.000 Y-24.097 Z-0.500
G1 X-53.966 Y-28.063 Z-0.500
G2 X-54.000 Y-25.551 Z-0.500 I20.743 J1.537 K0.000
G1 X-50.000 Y-21.551 Z-0.500
G1 X-50.000 Y-19.006 Z-0.500
G1 X-54.000 Y-23.006 Z-0.500
G1 X-54.000 Y-20.460 Z-0.500
G1 X-50.000 Y-16.460 Z-0.500
G1 X-50.000 Y-13.915 Z-0.500
G1 X-54.000 Y-17.915 Z-0.500
G1 X-54.000 Y-15.369 Z-0.500
G1 X-50.000 Y-11.369 Z-0.500
G1 X-50.000 Y-8.824 Z-0.500
G1 X-54.000 Y-12.824 Z-0.500
G1 X-54.000 Y-10.278 Z-0.500
G1 X-50.000 Y-6.278 Z-0.500
G1 X-50.000 Y-3.732 Z-0.500
G1 X-54.000 Y-7.732 Z-0.500
G1 X-54.000 Y-5.187 Z-0.500
G1 X-50.000 Y-1.187 Z-0.500
G1 X-50.000 Y1.359 Z-0.500
G1 X-54.000 Y-2.641 Z-0.500
G1 X-54.000 Y-0.096 Z-0.500
G1 X-50.000 Y3.904 Z-0.500
G1 X-50.000 Y6.450 Z-0.500
G1 X-54.000 Y2.450 Z-0.500
G1 X-54.000 Y4.996 Z-0.500
G1 X-50.000 Y8.996 Z-0.500
G1 X-50.000 Y11.541 Z-0.500
G1 X-54.000 Y7.541 Z-0.500
G1 X-54.000 Y10.087 Z-0.500
G1 X-50.000 Y14.087 Z-0.500
G1 X-50.000 Y16.632 Z-0.500
G1 X-54.000 Y12.632 Z-0.500
G1 X-54.000 Y15.178 Z-0.500
G1 X-50.000 Y19.178 Z-0.500
G1 X-50.000 Y21.723 Z-0.500
G1 X-54.000 Y17.723 Z-0.500
G1 X-54.000 Y20.269 Z-0.500
G1 X-50.000 Y24.269 Z-0.500
G1 X-50.000 Y26.815 Z-0.500
G1 X-54.000 Y22.815 Z-0.500
G0 Z5.000
G0 X-41.675 Y-28.500 Z5.000
G0 X-41.675 Y-28.500 Z3.000
G1 X-41.675 Y-28.500 Z-0.500
G1 X-42.925 Y-29.750 Z-0.500
G1 X-40.379 Y-29.750 Z-0.500
G1 X-39.129 Y-28.500 Z-0.500
G1 X-36.584 Y-28.500 Z-0.500
G1 X-37.834 Y-29.750 Z-0.500
G1 X-35.288 Y-29.750 Z-0.500
G1 X-34.038 Y-28.500 Z-0.500
G1 X-31.493 Y-28.500 Z-0.500
G1 X-32.743 Y-29.750 Z-0.500
G1 X-30.197 Y-29.750 Z-0.500
G1 X-28.947 Y-28.500 Z-0.500
G1 X-26.402 Y-28.500 Z-0.500
G1 X-27.652 Y-29.750 Z-0.500
G1 X-25.106 Y-29.750 Z-0.500
G1 X-23.856 Y-28.500 Z-0.500
G1 X-21.310 Y-28.500 Z-0.500
G1 X-22.560 Y-29.750 Z-0.500
G1 X-20.015 Y-29.750 Z-0.500
G1 X-18.765 Y-28.500 Z-0.500
G1 X-16.219 Y-28.500 Z-0.500
G1 X-17.469 Y-29.750 Z-0.500
G1 X-14.924 Y-29.750 Z-0.500
G1 X-13.674 Y-28.500 Z-0.500
G1 X-11.128 Y-28.500 Z-0.500
G1 X-12.378 Y-29.750 Z-0.500
G1 X-9.832 Y-29.750 Z-0.500
G1 X-8.582 Y-28.500 Z-0.500
G1 X-6.037 Y-28.500 Z-0.500
G1 X-7.287 Y-29.750 Z-0.500
G1 X-5.000 Y-29.750 Z-0.500
G1 X-4.777 Y-29.785 Z-0.500
G1 X-3.491 Y-28.500 Z-0.500
G1 X-0.946 Y-28.500 Z-0.500
G1 X-4.946 Y-32.500 Z-0.500
G1 X-2.400 Y-32.500 Z-0.500
G1 X1.600 Y-28.500 Z-0.500
G1 X4.146 Y-28.500 Z-0.500
G1 X0.146 Y-32.500 Z-0.500
G1 X2.691 Y-32.500 Z-0.500
G1 X4.345 Y-30.846 Z-0.500
G2 X4.768 Y-29.787 Z-0.500 I0.644 J0.357 K0.000
G2 X5.441 Y-29.750 Z-0.500 I0.452 J-2.106 K0.000
G1 X6.691 Y-28.500 Z-0.500
G1 X9.237 Y-28.500 Z-0.500
G1 X7.987 Y-29.750 Z-0.500
G1 X10.532 Y-29.750 Z-0.500
G1 X11.782 Y-28.500 Z-0.500
G1 X14.328 Y-28.500 Z-0.500
G1 X13.078 Y-29.750 Z-0.500
G1 X15.623 Y-29.750 Z-0.500
G1 X16.873 Y-28.500 Z-0.500
G1 X19.419 Y-28.500 Z-0.500
G1 X18.169 Y-29.750 Z-0.500
G1 X20.715 Y-29.750 Z-0.500
G1 X21.965 Y-28.500 Z-0.500
G1 X24.510 Y-28.500 Z-0.500
G1 X23.260 Y-29.750 Z-0.500
G1 X25.806 Y-29.750 Z-0.500
G1 X27.056 Y-28.500 Z-0.500
G1 X29.601 Y-28.500 Z-0.500
G1 X28.351 Y-29.750 Z-0.500
G1 X30.897 Y-29.750 Z-0.500
G1 X32.147 Y-28.500 Z-0.500
G1 X34.693 Y-28.500 Z-0.500
G1 X33.443 Y-29.750 Z-0.500
G1 X35.988 Y-29.750 Z-0.500
G1 X37.238 Y-28.500 Z-0.500
G1 X39.784 Y-28.500 Z-0.500
G1 X38.534 Y-29.750 Z-0.500
G1 X41.079 Y-29.750 Z-0.500
G1 X42.329 Y-28.500 Z-0.500
G1 X44.875 Y-28.500 Z-0.500
G1 X43.625 Y-29.750 Z-0.500
G1 X46.170 Y-29.750 Z-0.500
G1 X47.420 Y-28.500 Z-0.500
G1 X47.420 Y-28.500 Z-1.000
G1 X46.170 Y-29.750 Z-1.000
G1 X43.625 Y-29.750 Z-1.000
G1 X44.875 Y-28.500 Z-1.000
G1 X42.329 Y-28.500 Z-1.000
G1 X41.079 Y-29.750 Z-1.000
G1 X38.534 Y-29.750 Z-1.000
G1 X39.784 Y-28.500 Z-1.000
G1 X37.238 Y-28.500 Z-1.000
G1 X35.988 Y-29.750 Z-1.000
G1 X33.443 Y-29.750 Z-1.000
G1 X34.693 Y-28.500 Z-1.000
G1 X32.147 Y-28.500 Z-1.000
G1 X30.897 Y-29.750 Z-1.000
G1 X28.351 Y-29.750 Z-1.000
G1 X29.601 Y-28.500 Z-1.000
G1 X27.056 Y-28.500 Z-1.000
G1 X25.806 Y-29.750 Z-1.000
G1 X23.260 Y-29.750 Z-1.000
G1 X24.510 Y-28.500 Z-1.000
G1 X21.965 Y-28.500 Z-1.000
G1 X20.715 Y-29.750 Z-1.000
G1 X18.169 Y-29.750 Z-1.000
G1 X19.419 Y-28.500 Z-1.000
G1 X16.873 Y-28.500 Z-1.000
G1 X15.623 Y-29.750 Z-1.000
G1 X13.078 Y-29.750 Z-1.000
G1 X14.328 Y-28.500 Z-1.000
G1 X11.782 Y-28.500 Z-1.000
G1 X10.532 Y-29.750 Z-1.000
G1 X7.987 Y-29.750 Z-1.000
G1 X9.237 Y-28.500 Z-1.000
G1 X6.691 Y-28.500 Z-1.000
G1 X5.441 Y-29.750 Z-1.000
G3 X4.768 Y-29.787 Z-1.000 I-0.221 J-2.142 K0.000
G3 X4.345 Y-30.846 Z-1.000 I0.221 J-0.703 K0.000
G1 X2.691 Y-32.500 Z-1.000
G1 X0.146 Y-32.500 Z-1.000
G1 X4.146 Y-28.500 Z-1.000
G1 X1.600 Y-28.500 Z-1.000
G1 X-2.400 Y-32.500 Z-1.000
G1 X-4.946 Y-32.500 Z-1.000
G1 X-0.946 Y-28.500 Z-1.000
G1 X-3.491 Y-28.500 Z-1.000
G1 X-4.777 Y-29.785 Z-1.000
G1 X-5.000 Y-29.750 Z-1.000
G1 X-7.287 Y-29.750 Z-1.000
G1 X-6.037 Y-28.500 Z-1.000
G1 X-8.582 Y-28.500 Z-1.000
G1 X-9.832 Y-29.750 Z-1.000
G1 X-12.378 Y-29.750 Z-1.000
G1 X-11.128 Y-28.500 Z-1.000
G1 X-13.674 Y-28.500 Z-1.000
G1 X-14.924 Y-29.750 Z-1.000
G1 X-17.469 Y-29.750 Z-1.000
G1 X-16.219 Y-28.500 Z-1.000
G1 X-18.765 Y-28.500 Z-1.000
G1 X-20.015 Y-29.750 Z-1.000
G1 X-22.560 Y-29.750 Z-1.000
G1 X-21.310 Y-28.500 Z-1.000
G1 X-23.856 Y-28.500 Z-1.000
G1 X-25.106 Y-29.750 Z-1.000
G1 X-27.652 Y-29.750 Z-1.000
G1 X-26.402 Y-28.500 Z-1.000
G1 X-28.947 Y-28.500 Z-1.000
G1 X-30.197 Y-29.750 Z-1.000
G1 X-32.743 Y-29.750 Z-1.000
G1 X-31.493 Y-28.500 Z-1.000
G1 X-34.038 Y-28.500 Z-1.000
G1 X-35.288 Y-29.750 Z-1.000
G1 X-37.834 Y-29.750 Z-1.000
G1 X-36.584 Y-28.500 Z-1.000
G1 X-39.129 Y-28.500 Z-1.000
G1 X-40.379 Y-29.750 Z-1.000
G1 X-42.925 Y-29.750 Z-1.000
G1 X-41.675 Y-28.500 Z-1.000
G0 Z5.000
G0 X-6.241 Y-31.250 Z5.000
G0 X-6.241 Y-31.250 Z3.000
G1 X-6.241 Y-31.250 Z-1.000
G1 X-7.491 Y-32.500 Z-1.000
G1 X-10.037 Y-32.500 Z-1.000
G1 X-8.787 Y-31.250 Z-1.000
G1 X-11.332 Y-31.250 Z-1.000
G1 X-12.582 Y-32.500 Z-1.000
G1 X-15.128 Y-32.500 Z-1.000
G1 X-13.878 Y-31.250 Z-1.000
G1 X-16.424 Y-31.250 Z-1.000
G1 X-17.674 Y-32.500 Z-1.000
G1 X-20.219 Y-32.500 Z-1.000
G1 X-18.969 Y-31.250 Z-1.000
G1 X-21.515 Y-31.250 Z-1.000
G1 X-22.765 Y-32.500 Z-1.000
G1 X-25.310 Y-32.500 Z-1.000
G1 X-24.060 Y-31.250 Z-1.000
G1 X-26.606 Y-31.250 Z-1.000
G1 X-27.856 Y-32.500 Z-1.000
G1 X-30.402 Y-32.500 Z-1.000
G1 X-29.152 Y-31.250 Z-1.000
G1 X-31.697 Y-31.250 Z-1.000
G1 X-32.947 Y-32.500 Z-1.000
G1 X-35.493 Y-32.500 Z-1.000
G1 X-34.243 Y-31.250 Z-1.000
G1 X-36.788 Y-31.250 Z-1.000
G1 X-38.038 Y-32.500 Z-1.000
G1 X-40.584 Y-32.500 Z-1.000
G1 X-39.334 Y-31.250 Z-1.000
G1 X-41.879 Y-31.250 Z-1.000
G1 X-43.129 Y-32.500 Z-1.000
G1 X-45.675 Y-32.500 Z-1.000
G1 X-44.425 Y-31.250 Z-1.000
G2 X-45.232 Y-31.213 Z-1.000 I-0.287 J2.565 K0.000
G2 X-45.000 Y-29.750 Z-1.000 I0.232 J0.713 K0.000
G1 X-42.925 Y-29.750 Z-1.000
G1 X-41.675 Y-28.500 Z-1.000
G1 X-44.221 Y-28.500 Z-1.000
G1 X-48.221 Y-32.500 Z-1.000
G2 X-50.520 Y-32.254 Z-1.000 I-0.537 J5.845 K0.000
G1 X-46.766 Y-28.500 Z-1.000
G1 X-49.000 Y-28.500 Z-1.000
G2 X-49.272 Y-28.460 Z-1.000 I-0.062 J0.528 K0.000
G1 X-52.169 Y-31.357 Z-1.000
G2 X-53.334 Y-29.977 Z-1.000 I2.837 J3.577 K0.000
G1 X-50.000 Y-26.643 Z-1.000
G1 X-50.000 Y-24.097 Z-1.000
G1 X-53.966 Y-28.063 Z-1.000
G2 X-54.000 Y-25.551 Z-1.000 I20.743 J1.537 K0.000
G1 X-50.000 Y-21.551 Z-1.000
G1 X-50.000 Y-19.006 Z-1.000
G1 X-54.000 Y-23.006 Z-1.000
G1 X-54.000 Y-20.460 Z-1.000
G1 X-50.000 Y-16.460 Z-1.000
G1 X-50.000 Y-13.915 Z-1.000
G1 X-54.000 Y-17.915 Z-1.000
G1 X-54.000 Y-15.369 Z-1.000
G1 X-50.000 Y-11.369 Z-1.000
G1 X-50.000 Y-8.824 Z-1.000
G1 X-54.000 Y-12.824 Z-1.000
G1 X-54.000 Y-10.278 Z-1.000
G1 X-50.000 Y-6.278 Z-1.000
G1 X-50.000 Y-3.732 Z-1.000
G1 X-54.000 Y-7.732 Z-1.000
G1 X-54.000 Y-5.187 Z-1.000
G1 X-50.000 Y-1.187 Z-1.000
G1 X-50.000 Y1.359 Z-1.000
G1 X-54.000 Y-2.641 Z-1.000
G1 X-54.000 Y-0.096 Z-1.000
G1 X-50.000 Y3.904 Z-1.000
G1 X-50.000 Y6.450 Z-1.000
G1 X-54.000 Y2.450 Z-1.000
G1 X-54.000 Y4.996 Z-1.000
G1 X-50.000 Y8.996 Z-1.000
G1 X-50.000 Y11.541 Z-1.000
G1 X-54.000 Y7.541 Z-1.000
G1 X-54.000 Y10.087 Z-1.000
G1 X-50.000 Y14.087 Z-1.000
G1 X-50.000 Y16.632 Z-1.000
G1 X-54.000 Y12.632 Z-1.000
G1 X-54.000 Y15.178 Z-1.000
G1 X-50.000 Y19.178 Z-1.000
G1 X-50.000 Y21.723 Z-1.000
G1 X-54.000 Y17.723 Z-1.000
G1 X-54.000 Y20.269 Z-1.000
G1 X-50.000 Y24.269 Z-1.000
G1 X-50.000 Y26.815 Z-1.000
G1 X-54.000 Y22.815 Z-1.000
G0 Z5.000
G0 X-49.432 Y32.474 Z5.000
G0 X-49.432 Y32.474 Z3.000
G1 X-49.432 Y32.474 Z-1.000
G3 X-53.974 Y27.932 Z-1.000 I0.410 J-4.951 K0.000
G1 X-49.432 Y32.474 Z-1.000
G1 X-49.000 Y32.500 Z-1.000
G1 X-46.860 Y32.500 Z-1.000
G1 X-54.000 Y25.360 Z-1.000
G1 X-54.000 Y22.815 Z-1.000
G1 X-50.000 Y26.815 Z-1.000
G1 X-50.000 Y27.500 Z-1.000
G2 X-49.259 Y28.466 Z-1.000 I1.000 J0.000 K0.000
G2 X-48.315 Y28.500 Z-1.000 I0.602 J-3.569 K0.000
G1 X-44.315 Y32.500 Z-1.000
G1 X-41.769 Y32.500 Z-1.000
G1 X-43.019 Y31.250 Z-1.000
G1 X-45.000 Y31.250 Z-1.000
G3 X-45.232 Y29.787 Z-1.000 I0.000 J-0.750 K0.000
G3 X-44.519 Y29.750 Z-1.000 I0.472 J2.232 K0.000
G1 X-45.769 Y28.500 Z-1.000
G1 X-43.223 Y28.500 Z-1.000
G1 X-41.973 Y29.750 Z-1.000
G1 X-39.428 Y29.750 Z-1.000
G1 X-40.678 Y28.500 Z-1.000
G1 X-38.132 Y28.500 Z-1.000
G1 X-36.882 Y29.750 Z-1.000
G1 X-34.337 Y29.750 Z-1.000
G1 X-35.587 Y28.500 Z-1.000
G1 X-33.041 Y28.500 Z-1.000
G1 X-31.791 Y29.750 Z-1.000
G1 X-29.246 Y29.750 Z-1.000
G1 X-30.496 Y28.500 Z-1.000
G1 X-27.950 Y28.500 Z-1.000
G1 X-26.700 Y29.750 Z-1.000
G1 X-24.154 Y29.750 Z-1.000
G1 X-25.404 Y28.500 Z-1.000
G1 X-22.859 Y28.500 Z-1.000
G1 X-21.609 Y29.750 Z-1.000
G1 X-19.063 Y29.750 Z-1.000
G1 X-20.313 Y28.500 Z-1.000
G1 X-17.768 Y28.500 Z-1.000
G1 X-16.518 Y29.750 Z-1.000
G1 X-13.972 Y29.750 Z-1.000
G1 X-15.222 Y28.500 Z-1.000
G1 X-12.676 Y28.500 Z-1.000
G1 X-11.426 Y29.750 Z-1.000
G1 X-8.881 Y29.750 Z-1.000
G1 X-10.131 Y28.500 Z-1.000
G1 X-7.585 Y28.500 Z-1.000
G1 X-6.335 Y29.750 Z-1.000
G0 Z5.000
G0 X2.597 Y28.500 Z5.000
G0 X2.597 Y28.500 Z3.000
G1 X2.597 Y28.500 Z-1.000
G1 X4.313 Y30.216 Z-1.000
G3 X5.000 Y29.750 Z-1.000 I0.680 J0.263 K0.000
G1 X6.393 Y29.750 Z-1.000
G1 X5.143 Y28.500 Z-1.000
G1 X7.688 Y28.500 Z-1.000
G1 X8.938 Y29.750 Z-1.000
G1 X11.484 Y29.750 Z-1.000
G1 X10.234 Y28.500 Z-1.000
G1 X12.779 Y28.500 Z-1.000
G1 X14.029 Y29.750 Z-1.000
G1 X16.575 Y29.750 Z-1.000
G1 X15.325 Y28.500 Z-1.000
G1 X17.871 Y28.500 Z-1.000
G1 X19.121 Y29.750 Z-1.000
G1 X21.666 Y29.750 Z-1.000
G1 X20.416 Y28.500 Z-1.000
G1 X22.962 Y28.500 Z-1.000
G1 X24.212 Y29.750 Z-1.000
G1 X26.757 Y29.750 Z-1.000
G1 X25.507 Y28.500 Z-1.000
G1 X28.053 Y28.500 Z-1.000
G1 X29.303 Y29.750 Z-1.000
G1 X31.848 Y29.750 Z-1.000
G1 X30.598 Y28.500 Z-1.000
G1 X33.144 Y28.500 Z-1.000
G1 X34.394 Y29.750 Z-1.000
G1 X36.940 Y29.750 Z-1.000
G1 X35.690 Y28.500 Z-1.000
G1 X38.235 Y28.500 Z-1.000
G1 X39.485 Y29.750 Z-1.000
G1 X42.031 Y29.750 Z-1.000
G1 X40.781 Y28.500 Z-1.000
G1 X43.326 Y28.500 Z-1.000
G1 X44.576 Y29.750 Z-1.000
G0 Z5.000
G0 X51.262 Y-29.750 Z5.000
G0 X51.262 Y-29.750 Z3.000
G1 X51.262 Y-29.750 Z-1.000
G1 X53.465 Y-29.750 Z-1.000
G3 X54.000 Y-27.012 Z-1.000 I-4.880 J2.375 K0.000
G1 X51.262 Y-29.750 Z-1.000
G1 X48.716 Y-29.750 Z-1.000
G1 X54.000 Y-24.466 Z-1.000
G1 X54.000 Y-21.920 Z-1.000
G1 X50.000 Y-25.920 Z-1.000
G1 X50.000 Y-23.375 Z-1.000
G1 X54.000 Y-19.375 Z-1.000
G1 X54.000 Y-16.829 Z-1.000
G1 X50.000 Y-20.829 Z-1.000
G1 X50.000 Y-18.284 Z-1.000
G1 X54.000 Y-14.284 Z-1.000
G1 X54.000 Y-11.738 Z-1.000
G1 X50.000 Y-15.738 Z-1.000
G1 X50.000 Y-13.193 Z-1.000
G1 X54.000 Y-9.193 Z-1.000
G1 X54.000 Y-6.647 Z-1.000
G1 X50.000 Y-10.647 Z-1.000
G1 X50.000 Y-8.101 Z-1.000
G1 X54.000 Y-4.101 Z-1.000
G1 X54.000 Y-1.556 Z-1.000
G1 X50.000 Y-5.556 Z-1.000
G1 X50.000 Y-3.010 Z-1.000
G1 X54.000 Y0.990 Z-1.000
G1 X54.000 Y3.535 Z-1.000
G1 X50.000 Y-0.465 Z-1.000
G1 X50.000 Y2.081 Z-1.000
G1 X54.000 Y6.081 Z-1.000
G1 X54.000 Y8.627 Z-1.000
G1 X50.000 Y4.627 Z-1.000
G1 X50.000 Y7.172 Z-1.000
G1 X54.000 Y11.172 Z-1.000
G1 X54.000 Y13.718 Z-1.000
G1 X50.000 Y9.718 Z-1.000
G1 X50.000 Y12.263 Z-1.000
G1 X54.000 Y16.263 Z-1.000
G1 X54.000 Y18.809 Z-1.000
G1 X50.000 Y14.809 Z-1.000
G1 X50.000 Y17.354 Z-1.000
G1 X54.000 Y21.354 Z-1.000
G1 X54.000 Y23.900 Z-1.000
G1 X50.000 Y19.900 Z-1.000
G1 X50.000 Y22.446 Z-1.000
G1 X54.000 Y26.446 Z-1.000
G3 X53.964 Y28.103 Z-1.000 I-13.715 J0.527 K0.000
G3 X53.819 Y28.810 Z-1.000 I-2.987 J-0.240 K0.000
G1 X50.000 Y24.991 Z-1.000
G1 X50.000 Y27.500 Z-1.000
G1 X49.996 Y27.533 Z-1.000
G1 X52.978 Y30.515 Z-1.000
G3 X51.648 Y31.731 Z-1.000 I-3.659 J-2.666 K0.000
G1 X48.418 Y28.500 Z-1.000
G1 X45.872 Y28.500 Z-1.000
G1 X49.799 Y32.427 Z-1.000
G3 X49.000 Y32.500 Z-1.000 I-0.698 J-3.256 K0.000
G1 X47.326 Y32.500 Z-1.000
G1 X45.661 Y30.835 Z-1.000
G3 X45.000 Y31.250 Z-1.000 I-0.650 J-0.300 K0.000
G1 X43.531 Y31.250 Z-1.000
G1 X44.781 Y32.500 Z-1.000
G1 X42.235 Y32.500 Z-1.000
G1 X40.985 Y31.250 Z-1.000
G1 X38.440 Y31.250 Z-1.000
G1 X39.690 Y32.500 Z-1.000
G1 X37.144 Y32.500 Z-1.000
G1 X35.894 Y31.250 Z-1.000
G1 X33.348 Y31.250 Z-1.000
G1 X34.598 Y32.500 Z-1.000
G1 X32.053 Y32.500 Z-1.000
G1 X30.803 Y31.250 Z-1.000
G1 X28.257 Y31.250 Z-1.000
G1 X29.507 Y32.500 Z-1.000
G1 X26.962 Y32.500 Z-1.000
G1 X25.712 Y31.250 Z-1.000
G1 X23.166 Y31.250 Z-1.000
G1 X24.416 Y32.500 Z-1.000
G1 X21.871 Y32.500 Z-1.000
G1 X20.621 Y31.250 Z-1.000
G1 X18.075 Y31.250 Z-1.000
G1 X19.325 Y32.500 Z-1.000
G1 X16.779 Y32.500 Z-1.000
G1 X15.529 Y31.250 Z-1.000
G1 X12.984 Y31.250 Z-1.000
G1 X14.234 Y32.500 Z-1.000
G1 X11.688 Y32.500 Z-1.000
G1 X10.438 Y31.250 Z-1.000
G1 X7.893 Y31.250 Z-1.000
G1 X9.143 Y32.500 Z-1.000
G1 X6.597 Y32.500 Z-1.000
G1 X5.347 Y31.250 Z-1.000
G3 X4.768 Y31.213 Z-1.000 I-0.174 J-1.846 K0.000
G3 X4.313 Y30.216 Z-1.000 I0.222 J-0.704 K0.000
G1 X2.597 Y28.500 Z-1.000
G1 X0.051 Y28.500 Z-1.000
G1 X4.051 Y32.500 Z-1.000
G1 X1.506 Y32.500 Z-1.000
G1 X-2.494 Y28.500 Z-1.000
G1 X-5.040 Y28.500 Z-1.000
G1 X-1.040 Y32.500 Z-1.000
G1 X-3.585 Y32.500 Z-1.000
G1 X-4.858 Y31.227 Z-1.000
G1 X-5.000 Y31.250 Z-1.000
G1 X-7.381 Y31.250 Z-1.000
G1 X-6.131 Y32.500 Z-1.000
G1 X-8.676 Y32.500 Z-1.000
G1 X-9.926 Y31.250 Z-1.000
G1 X-12.472 Y31.250 Z-1.000
G1 X-11.222 Y32.500 Z-1.000
G1 X-13.768 Y32.500 Z-1.000
G1 X-15.018 Y31.250 Z-1.000
G1 X-17.563 Y31.250 Z-1.000
G1 X-16.313 Y32.500 Z-1.000
G1 X-18.859 Y32.500 Z-1.000
G1 X-20.109 Y31.250 Z-1.000
G1 X-22.654 Y31.250 Z-1.000
G1 X-21.404 Y32.500 Z-1.000
G1 X-23.950 Y32.500 Z-1.000
G1 X-25.200 Y31.250 Z-1.000
G1 X-27.746 Y31.250 Z-1.000
G1 X-26.496 Y32.500 Z-1.000
G1 X-29.041 Y32.500 Z-1.000
G1 X-30.291 Y31.250 Z-1.000
G1 X-32.837 Y31.250 Z-1.000
G1 X-31.587 Y32.500 Z-1.000
G1 X-34.132 Y32.500 Z-1.000
G1 X-35.382 Y31.250 Z-1.000
G1 X-37.928 Y31.250 Z-1.000
G1 X-36.678 Y32.500 Z-1.000
G1 X-39.223 Y32.500 Z-1.000
G1 X-40.473 Y31.250 Z-1.000
G1 X-43.019 Y31.250 Z-1.000
G1 X-41.769 Y32.500 Z-1.000
G0 Z5.000
G0 X2.691 Y-32.500 Z5.000
G0 X2.691 Y-32.500 Z3.000
G1 X2.691 Y-32.500 Z-1.000
G1 X4.345 Y-30.846 Z-1.000
G3 X5.000 Y-31.250 Z-1.000 I0.643 J0.310 K0.000
G1 X6.487 Y-31.250 Z-1.000
G1 X5.237 Y-32.500 Z-1.000
G1 X7.782 Y-32.500 Z-1.000
G1 X9.032 Y-31.250 Z-1.000
G1 X11.578 Y-31.250 Z-1.000
G1 X10.328 Y-32.500 Z-1.000
G1 X12.873 Y-32.500 Z-1.000
G1 X14.123 Y-31.250 Z-1.000
G1 X16.669 Y-31.250 Z-1.000
G1 X15.419 Y-32.500 Z-1.000
G1 X17.965 Y-32.500 Z-1.000
G1 X19.215 Y-31.250 Z-1.000
G1 X21.760 Y-31.250 Z-1.000
G1 X20.510 Y-32.500 Z-1.000
G1 X23.056 Y-32.500 Z-1.000
G1 X24.306 Y-31.250 Z-1.000
G1 X26.851 Y-31.250 Z-1.000
G1 X25.601 Y-32.500 Z-1.000
G1 X28.147 Y-32.500 Z-1.000
G1 X29.397 Y-31.250 Z-1.000
G1 X31.943 Y-31.250 Z-1.000
G1 X30.693 Y-32.500 Z-1.000
G1 X33.238 Y-32.500 Z-1.000
G1 X34.488 Y-31.250 Z-1.000
G1 X37.034 Y-31.250 Z-1.000
G1 X35.784 Y-32.500 Z-1.000
G1 X38.329 Y-32.500 Z-1.000
G1 X39.579 Y-31.250 Z-1.000
G1 X42.125 Y-31.250 Z-1.000
G1 X40.875 Y-32.500 Z-1.000
G1 X43.420 Y-32.500 Z-1.000
G1 X44.670 Y-31.250 Z-1.000
G1 X47.216 Y-31.250 Z-1.000
G1 X45.966 Y-32.500 Z-1.000
G1 X48.512 Y-32.500 Z-1.000
G1 X49.762 Y-31.250 Z-1.000
G1 X52.307 Y-31.250 Z-1.000
G1 X52.307 Y-31.250 Z-1.500
G1 X49.762 Y-31.250 Z-1.500
G1 X48.512 Y-32.500 Z-1.500
G1 X45.966 Y-32.500 Z-1.500
G1 X47.216 Y-31.250 Z-1.500
G1 X44.670 Y-31.250 Z-1.500
G1 X43.420 Y-32.500 Z-1.500
G1 X40.875 Y-32.500 Z-1.500
G1 X42.125 Y-31.250 Z-1.500
G1 X39.579 Y-31.250 Z-1.500
G1 X38.329 Y-32.500 Z-1.500
G1 X35.784 Y-32.500 Z-1.500
G1 X37.034 Y-31.250 Z-1.500
G1 X34.488 Y-31.250 Z-1.500
G1 X33.238 Y-32.500 Z-1.500
G1 X30.693 Y-32.500 Z-1.500
G1 X31.943 Y-31.250 Z-1.500
G1 X29.397 Y-31.250 Z-1.500
G1 X28.147 Y-32.500 Z-1.500
G1 X25.601 Y-32.500 Z-1.500
G1 X26.851 Y-31.250 Z-1.500
G1 X24.306 Y-31.250 Z-1.500
G1 X23.056 Y-32.500 Z-1.500
G1 X20.510 Y-32.500 Z-1.500
G1 X21.760 Y-31.250 Z-1.500
G1 X19.215 Y-31.250 Z-1.500
G1 X17.965 Y-32.500 Z-1.500
G1 X15.419 Y-32.500 Z-1.500
G1 X16.669 Y-31.250 Z-1.500
G1 X14.123 Y-31.250 Z-1.500
G1 X12.873 Y-32.500 Z-1.500
G1 X10.328 Y-32.500 Z-1.500
G1 X11.578 Y-31.250 Z-1.500
G1 X9.032 Y-31.250 Z-1.500
G1 X7.782 Y-32.500 Z-1.500
G1 X5.237 Y-32.500 Z-1.500
G1 X6.487 Y-31.250 Z-1.500
G1 X5.000 Y-31.250 Z-1.500
G2 X4.345 Y-30.846 Z-1.500 I-0.012 J0.714 K0.000
G1 X2.691 Y-32.500 Z-1.500
G0 Z5.000
G0 X-6.241 Y-31.250 Z5.000
G0 X-6.241 Y-31.250 Z3.000
G1 X-6.241 Y-31.250 Z-1.500
G1 X-7.491 Y-32.500 Z-1.500
G1 X-10.037 Y-32.500 Z-1.500
G1 X-8.787 Y-31.250 Z-1.500
G1 X-11.332 Y-31.250 Z-1.500
G1 X-12.582 Y-32.500 Z-1.500
G1 X-15.128 Y-32.500 Z-1.500
G1 X-13.878 Y-31.250 Z-1.500
G1 X-16.424 Y-31.250 Z-1.500
G1 X-17.674 Y-32.500 Z-1.500
G1 X-20.219 Y-32.500 Z-1.500
G1 X-18.969 Y-31.250 Z-1.500
G1 X-21.515 Y-31.250 Z-1.500
G1 X-22.765 Y-32.500 Z-1.500
G1 X-25.310 Y-32.500 Z-1.500
G1 X-24.060 Y-31.250 Z-1.500
G1 X-26.606 Y-31.250 Z-1.500
G1 X-27.856 Y-32.500 Z-1.500
G1 X-30.402 Y-32.500 Z-1.500
G1 X-29.152 Y-31.250 Z-1.500
G1 X-31.697 Y-31.250 Z-1.500
G1 X-32.947 Y-32.500 Z-1.500
G1 X-35.493 Y-32.500 Z-1.500
G1 X-34.243 Y-31.250 Z-1.500
G1 X-36.788 Y-31.250 Z-1.500
G1 X-38.038 Y-32.500 Z-1.500
G1 X-40.584 Y-32.500 Z-1.500
G1 X-39.334 Y-31.250 Z-1.500
G1 X-41.879 Y-31.250 Z-1.500
G1 X-43.129 Y-32.500 Z-1.500
G1 X-45.675 Y-32.500 Z-1.500
G1 X-44.425 Y-31.250 Z-1.500
G2 X-45.232 Y-31.213 Z-1.500 I-0.287 J2.565 K0.000
G2 X-45.000 Y-29.750 Z-1.500 I0.232 J0.713 K0.000
G1 X-42.925 Y-29.750 Z-1.500
G1 X-41.675 Y-28.500 Z-1.500
G1 X-44.221 Y-28.500 Z-1.500
G1 X-48.221 Y-32.500 Z-1.500
G2 X-50.520 Y-32.254 Z-1.500 I-0.537 J5.845 K0.000
G1 X-46.766 Y-28.500 Z-1.500
G1 X-49.000 Y-28.500 Z-1.500
G2 X-49.272 Y-28.460 Z-1.500 I-0.062 J0.528 K0.000
G1 X-52.169 Y-31.357 Z-1.500
G2 X-53.334 Y-29.977 Z-1.500 I2.837 J3.577 K0.000
G1 X-50.000 Y-26.643 Z-1.500
G1 X-50.000 Y-24.097 Z-1.500
G1 X-53.966 Y-28.063 Z-1.500
G2 X-54.000 Y-25.551 Z-1.500 I20.743 J1.537 K0.000
G1 X-50.000 Y-21.551 Z-1.500
G1 X-50.000 Y-19.006 Z-1.500
G1 X-54.000 Y-23.006 Z-1.500
G1 X-54.000 Y-20.460 Z-1.500
G1 X-50.000 Y-16.460 Z-1.500
G1 X-50.000 Y-13.915 Z-1.500
G1 X-54.000 Y-17.915 Z-1.500
G1 X-54.000 Y-15.369 Z-1.500
G1 X-50.000 Y-11.369 Z-1.500
G1 X-50.000 Y-8.824 Z-1.500
G1 X-54.000 Y-12.824 Z-1.500
G1 X-54.000 Y-10.278 Z-1.500
G1 X-50.000 Y-6.278 Z-1.500
G1 X-50.000 Y-3.732 Z-1.500
G1 X-54.000 Y-7.732 Z-1.500
G1 X-54.000 Y-5.187 Z-1.500
G1 X-50.000 Y-1.187 Z-1.500
G1 X-50.000 Y1.359 Z-1.500
G1 X-54.000 Y-2.641 Z-1.500
G1 X-54.000 Y-0.096 Z-1.500
G1 X-50.000 Y3.904 Z-1.500
G1 X-50.000 Y6.450 Z-1.500
G1 X-54.000 Y2.450 Z-1.500
G1 X-54.000 Y4.996 Z-1.500
G1 X-50.000 Y8.996 Z-1.500
G1 X-50.000 Y11.541 Z-1.500
G1 X-54.000 Y7.541 Z-1.500
G1 X-54.000 Y10.087 Z-1.500
G1 X-50.000 Y14.087 Z-1.500
G1 X-50.000 Y16.632 Z-1.500
G1 X-54.000 Y12.632 Z-1.500
G1 X-54.000 Y15.178 Z-1.500
G1 X-50.000 Y19.178 Z-1.500
G1 X-50.000 Y21.723 Z-1.500
G1 X-54.000 Y17.723 Z-1.500
G1 X-54.000 Y20.269 Z-1.500
G1 X-50.000 Y24.269 Z-1.500
G1 X-50.000 Y26.815 Z-1.500
G1 X-54.000 Y22.815 Z-1.500
G0 Z5.000
G0 X-49.432 Y32.474 Z5.000
G0 X-49.432 Y32.474 Z3.000
G1 X-49.432 Y32.474 Z-1.500
G3 X-53.974 Y27.932 Z-1.500 I0.410 J-4.951 K0.000
G1 X-49.432 Y32.474 Z-1.500
G1 X-49.000 Y32.500 Z-1.500
G1 X-46.860 Y32.500 Z-1.500
G1 X-54.000 Y25.360 Z-1.500
G1 X-54.000 Y22.815 Z-1.500
G1 X-50.000 Y26.815 Z-1.500
G1 X-50.000 Y27.500 Z-1.500
G2 X-49.259 Y28.466 Z-1.500 I1.000 J0.000 K0.000
G2 X-48.315 Y28.500 Z-1.500 I0.602 J-3.569 K0.000
G1 X-44.315 Y32.500 Z-1.500
G1 X-41.769 Y32.500 Z-1.500
G1 X-43.019 Y31.250 Z-1.500
G1 X-45.000 Y31.250 Z-1.500
G3 X-45.232 Y29.787 Z-1.500 I0.000 J-0.750 K0.000
G3 X-44.519 Y29.750 Z-1.500 I0.472 J2.232 K0.000
G1 X-45.769 Y28.500 Z-1.500
G1 X-43.223 Y28.500 Z-1.500
G1 X-41.973 Y29.750 Z-1.500
G1 X-39.428 Y29.750 Z-1.500
G1 X-40.678 Y28.500 Z-1.500
G1 X-38.132 Y28.500 Z-1.500
G1 X-36.882 Y29.750 Z-1.500
G1 X-34.337 Y29.750 Z-1.500
G1 X-35.587 Y28.500 Z-1.500
G1 X-33.041 Y28.500 Z-1.500
G1 X-31.791 Y29.750 Z-1.500
G1 X-29.246 Y29.750 Z-1.500
G1 X-30.496 Y28.500 Z-1.500
G1 X-27.950 Y28.500 Z-1.500
G1 X-26.700 Y29.750 Z-1.500
G1 X-24.154 Y29.750 Z-1.500
G1 X-25.404 Y28.500 Z-1.500
G1 X-22.859 Y28.500 Z-1.500
G1 X-21.609 Y29.750 Z-1.500
G1 X-19.063 Y29.750 Z-1.500
G1 X-20.313 Y28.500 Z-1.500
G1 X-17.768 Y28.500 Z-1.500
G1 X-16.518 Y29.750 Z-1.500
G1 X-13.972 Y29.750 Z-1.500
G1 X-15.222 Y28.500 Z-1.500
G1 X-12.676 Y28.500 Z-1.500
G1 X-11.426 Y29.750 Z-1.500
G1 X-8.881 Y29.750 Z-1.500
G1 X-10.131 Y28.500 Z-1.500
G1 X-7.585 Y28.500 Z-1.500
G1 X-6.335 Y29.750 Z-1.500
G0 Z5.000
G0 X2.597 Y28.500 Z5.000
G0 X2.597 Y28.500 Z3.000
G1 X2.597 Y28.500 Z-1.500
G1 X4.313 Y30.216 Z-1.500
G3 X5.000 Y29.750 Z-1.500 I0.680 J0.263 K0.000
G1 X6.393 Y29.750 Z-1.500
G1 X5.143 Y28.500 Z-1.500
G1 X7.688 Y28.500 Z-1.500
G1 X8.938 Y29.750 Z-1.500
G1 X11.484 Y29.750 Z-1.500
G1 X10.234 Y28.500 Z-1.500
G1 X12.779 Y28.500 Z-1.500
G1 X14.029 Y29.750 Z-1.500
G1 X16.575 Y29.750 Z-1.500
G1 X15.325 Y28.500 Z-1.500
G1 X17.871 Y28.500 Z-1.500
G1 X19.121 Y29.750 Z-1.500
G1 X21.666 Y29.750 Z-1.500
G1 X20.416 Y28.500 Z-1.500
G1 X22.962 Y28.500 Z-1.500
G1 X24.212 Y29.750 Z-1.500
G1 X26.757 Y29.750 Z-1.500
G1 X25.507 Y28.500 Z-1.500
G1 X28.053 Y28.500 Z-1.500
G1 X29.303 Y29.750 Z-1.500
G1 X31.848 Y29.750 Z-1.500
G1 X30.598 Y28.500 Z-1.500
G1 X33.144 Y28.500 Z-1.500
G1 X34.394 Y29.750 Z-1.500
G1 X36.940 Y29.750 Z-1.500
G1 X35.690 Y28.500 Z-1.500
G1 X38.235 Y28.500 Z-1.500
G1 X39.485 Y29.750 Z-1.500
G1 X42.031 Y29.750 Z-1.500
G1 X40.781 Y28.500 Z-1.500
G1 X43.326 Y28.500 Z-1.500
G1 X44.576 Y29.750 Z-1.500
G0 Z5.000
G0 X47.420 Y-28.500 Z5.000
G0 X47.420 Y-28.500 Z3.000
G1 X47.420 Y-28.500 Z-1.500
G1 X46.170 Y-29.750 Z-1.500
G1 X43.625 Y-29.750 Z-1.500
G1 X44.875 Y-28.500 Z-1.500
G1 X42.329 Y-28.500 Z-1.500
G1 X41.079 Y-29.750 Z-1.500
G1 X38.534 Y-29.750 Z-1.500
G1 X39.784 Y-28.500 Z-1.500
G1 X37.238 Y-28.500 Z-1.500
G1 X35.988 Y-29.750 Z-1.500
G1 X33.443 Y-29.750 Z-1.500
G1 X34.693 Y-28.500 Z-1.500
G1 X32.147 Y-28.500 Z-1.500
G1 X30.897 Y-29.750 Z-1.500
G1 X28.351 Y-29.750 Z-1.500
G1 X29.601 Y-28.500 Z-1.500
G1 X27.056 Y-28.500 Z-1.500
G1 X25.806 Y-29.750 Z-1.500
G1 X23.260 Y-29.750 Z-1.500
G1 X24.510 Y-28.500 Z-1.500
G1 X21.965 Y-28.500 Z-1.500
G1 X20.715 Y-29.750 Z-1.500
G1 X18.169 Y-29.750 Z-1.500
G1 X19.419 Y-28.500 Z-1.500
G1 X16.873 Y-28.500 Z-1.500
G1 X15.623 Y-29.750 Z-1.500
G1 X13.078 Y-29.750 Z-1.500
G1 X14.328 Y-28.500 Z-1.500
G1 X11.782 Y-28.500 Z-1.500
G1 X10.532 Y-29.750 Z-1.500
G1 X7.987 Y-29.750 Z-1.500
G1 X9.237 Y-28.500 Z-1.500
G1 X6.691 Y-28.500 Z-1.500
G1 X5.441 Y-29.750 Z-1.500
G3 X4.768 Y-29.787 Z-1.500 I-0.221 J-2.142 K0.000
G3 X4.345 Y-30.846 Z-1.500 I0.221 J-0.703 K0.000
G1 X2.691 Y-32.500 Z-1.500
G1 X0.146 Y-32.500 Z-1.500
G1 X4.146 Y-28.500 Z-1.500
G1 X1.600 Y-28.500 Z-1.500
G1 X-2.400 Y-32.500 Z-1.500
G1 X-4.946 Y-32.500 Z-1.500
G1 X-0.946 Y-28.500 Z-1.500
G1 X-3.491 Y-28.500 Z-1.500
G1 X-4.777 Y-29.785 Z-1.500
G1 X-5.000 Y-29.750 Z-1.500
G1 X-7.287 Y-29.750 Z-1.500
G1 X-6.037 Y-28.500 Z-1.500
G1 X-8.582 Y-28.500 Z-1.500
G1 X-9.832 Y-29.750 Z-1.500
G1 X-12.378 Y-29.750 Z-1.500
G1 X-11.128 Y-28.500 Z-1.500
G1 X-13.674 Y-28.500 Z-1.500
G1 X-14.924 Y-29.750 Z-1.500
G1 X-17.469 Y-29.750 Z-1.500
G1 X-16.219 Y-28.500 Z-1.500
G1 X-18.765 Y-28.500 Z-1.500
G1 X-20.015 Y-29.750 Z-1.500
G1 X-22.560 Y-29.750 Z-1.500
G1 X-21.310 Y-28.500 Z-1.500
G1 X-23.856 Y-28.500 Z-1.500
G1 X-25.106 Y-29.750 Z-1.500
G1 X-27.652 Y-29.750 Z-1.500
G1 X-26.402 Y-28.500 Z-1.500
G1 X-28.947 Y-28.500 Z-1.500
G1 X-30.197 Y-29.750 Z-1.500
G1 X-32.743 Y-29.750 Z-1.500
G1 X-31.493 Y-28.500 Z-1.500
G1 X-34.038 Y-28.500 Z-1.500
G1 X-35.288 Y-29.750 Z-1.500
G1 X-37.834 Y-29.750 Z-1.500
G1 X-36.584 Y-28.500 Z-1.500
G1 X-39.129 Y-28.500 Z-1.500
G1 X-40.379 Y-29.750 Z-1.500
G1 X-42.925 Y-29.750 Z-1.500
G1 X-41.675 Y-28.500 Z-1.500
G0 Z5.000
G0 X-41.769 Y32.500 Z5.000
G0 X-41.769 Y32.500 Z3.000
G1 X-41.769 Y32.500 Z-1.500
G1 X-43.019 Y31.250 Z-1.500
G1 X-40.473 Y31.250 Z-1.500
G1 X-39.223 Y32.500 Z-1.500
G1 X-36.678 Y32.500 Z-1.500
G1 X-37.928 Y31.250 Z-1.500
G1 X-35.382 Y31.250 Z-1.500
G1 X-34.132 Y32.500 Z-1.500
G1 X-31.587 Y32.500 Z-1.500
G1 X-32.837 Y31.250 Z-1.500
G1 X-30.291 Y31.250 Z-1.500
G1 X-29.041 Y32.500 Z-1.500
G1 X-26.496 Y32.500 Z-1.500
G1 X-27.746 Y31.250 Z-1.500
G1 X-25.200 Y31.250 Z-1.500
G1 X-23.950 Y32.500 Z-1.500
G1 X-21.404 Y32.500 Z-1.500
G1 X-22.654 Y31.250 Z-1.500
G1 X-20.109 Y31.250 Z-1.500
G1 X-18.859 Y32.500 Z-1.500
G1 X-16.313 Y32.500 Z-1.500
G1 X-17.563 Y31.250 Z-1.500
G1 X-15.018 Y31.250 Z-1.500
G1 X-13.768 Y32.500 Z-1.500
G1 X-11.222 Y32.500 Z-1.500
G1 X-12.472 Y31.250 Z-1.500
G1 X-9.926 Y31.250 Z-1.500
G1 X-8.676 Y32.500 Z-1.500
G1 X-6.131 Y32.500 Z-1.500
G1 X-7.381 Y31.250 Z-1.500
G1 X-5.000 Y31.250 Z-1.500
G1 X-4.858 Y31.227 Z-1.500
G1 X-3.585 Y32.500 Z-1.500
G1 X-1.040 Y32.500 Z-1.500
G1 X-5.040 Y28.500 Z-1.500
G1 X-2.494 Y28.500 Z-1.500
G1 X1.506 Y32.500 Z-1.500
G1 X4.051 Y32.500 Z-1.500
G1 X0.051 Y28.500 Z-1.500
G1 X2.597 Y28.500 Z-1.500
G1 X4.313 Y30.216 Z-1.500
G2 X4.768 Y31.213 Z-1.500 I0.677 J0.293 K0.000
G2 X5.347 Y31.250 Z-1.500 I0.405 J-1.809 K0.000
G1 X6.597 Y32.500 Z-1.500
G1 X9.143 Y32.500 Z-1.500
G1 X7.893 Y31.250 Z-1.500
G1 X10.438 Y31.250 Z-1.500
G1 X11.688 Y32.500 Z-1.500
G1 X14.234 Y32.500 Z-1.500
G1 X12.984 Y31.250 Z-1.500
G1 X15.529 Y31.250 Z-1.500
G1 X16.779 Y32.500 Z-1.500
G1 X19.325 Y32.500 Z-1.500
G1 X18.075 Y31.250 Z-1.500
G1 X20.621 Y31.250 Z-1.500
G1 X21.871 Y32.500 Z-1.500
G1 X24.416 Y32.500 Z-1.500
G1 X23.166 Y31.250 Z-1.500
G1 X25.712 Y31.250 Z-1.500
G1 X26.962 Y32.500 Z-1.500
G1 X29.507 Y32.500 Z-1.500
G1 X28.257 Y31.250 Z-1.500
G1 X30.803 Y31.250 Z-1.500
G1 X32.053 Y32.500 Z-1.500
G1 X34.598 Y32.500 Z-1.500
G1 X33.348 Y31.250 Z-1.500
G1 X35.894 Y31.250 Z-1.500
G1 X37.144 Y32.500 Z-1.500
G1 X39.690 Y32.500 Z-1.500
G1 X38.440 Y31.250 Z-1.500
G1 X40.985 Y31.250 Z-1.500
G1 X42.235 Y32.500 Z-1.500
G1 X44.781 Y32.500 Z-1.500
G1 X43.531 Y31.250 Z-1.500
G1 X45.000 Y31.250 Z-1.500
G2 X45.661 Y30.835 Z-1.500 I0.011 J-0.716 K0.000
G1 X47.326 Y32.500 Z-1.500
G1 X49.000 Y32.500 Z-1.500
G2 X49.799 Y32.427 Z-1.500 I0.101 J-3.328 K0.000
G1 X45.872 Y28.500 Z-1.500
G1 X48.418 Y28.500 Z-1.500
G1 X51.648 Y31.731 Z-1.500
G2 X52.978 Y30.515 Z-1.500 I-2.329 J-3.882 K0.000
G1 X49.996 Y27.533 Z-1.500
G1 X50.000 Y27.500 Z-1.500
G1 X50.000 Y24.991 Z-1.500
G1 X53.819 Y28.810 Z-1.500
G2 X53.964 Y28.103 Z-1.500 I-2.842 J-0.948 K0.000
G2 X54.000 Y26.446 Z-1.500 I-13.679 J-1.130 K0.000
G1 X50.000 Y22.446 Z-1.500
G1 X50.000 Y19.900 Z-1.500
G1 X54.000 Y23.900 Z-1.500
G1 X54.000 Y21.354 Z-1.500
G1 X50.000 Y17.354 Z-1.500
G1 X50.000 Y14.809 Z-1.500
G1 X54.000 Y18.809 Z-1.500
G1 X54.000 Y16.263 Z-1.500
G1 X50.000 Y12.263 Z-1.500
G1 X50.000 Y9.718 Z-1.500
G1 X54.000 Y13.718 Z-1.500
G1 X54.000 Y11.172 Z-1.500
G1 X50.000 Y7.172 Z-1.500
G1 X50.000 Y4.627 Z-1.500
G1 X54.000 Y8.627 Z-1.500
G1 X54.000 Y6.081 Z-1.500
G1 X50.000 Y2.081 Z-1.500
G1 X50.000 Y-0.465 Z-1.500
G1 X54.000 Y3.535 Z-1.500
G1 X54.000 Y0.990 Z-1.500
G1 X50.000 Y-3.010 Z-1.500
G1 X50.000 Y-5.556 Z-1.500
G1 X54.000 Y-1.556 Z-1.500
G1 X54.000 Y-4.101 Z-1.500
G1 X50.000 Y-8.101 Z-1.500
G1 X50.000 Y-10.647 Z-1.500
G1 X54.000 Y-6.647 Z-1.500
G1 X54.000 Y-9.193 Z-1.500
G1 X50.000 Y-13.193 Z-1.500
G1 X50.000 Y-15.738 Z-1.500
G1 X54.000 Y-11.738 Z-1.500
G1 X54.000 Y-14.284 Z-1.500
G1 X50.000 Y-18.284 Z-1.500
G1 X50.000 Y-20.829 Z-1.500
G1 X54.000 Y-16.829 Z-1.500
G1 X54.000 Y-19.375 Z-1.500
G1 X50.000 Y-23.375 Z-1.500
G1 X50.000 Y-25.920 Z-1.500
G1 X54.000 Y-21.920 Z-1.500
G1 X54.000 Y-24.466 Z-1.500
G1 X48.716 Y-29.750 Z-1.500
G1 X51.262 Y-29.750 Z-1.500
G1 X54.000 Y-27.012 Z-1.500
G2 X53.465 Y-29.750 Z-1.500 I-5.415 J-0.364 K0.000
G1 X51.262 Y-29.750 Z-1.500
G1 X51.262 Y-29.750 Z-2.000
G1 X53.465 Y-29.750 Z-2.000
G3 X54.000 Y-27.012 Z-2.000 I-4.880 J2.375 K0.000
G1 X51.262 Y-29.750 Z-2.000
G1 X48.716 Y-29.750 Z-2.000
G1 X54.000 Y-24.466 Z-2.000
G1 X54.000 Y-21.920 Z-2.000
G1 X50.000 Y-25.920 Z-2.000
G1 X50.000 Y-23.375 Z-2.000
G1 X54.000 Y-19.375 Z-2.000
G1 X54.000 Y-16.829 Z-2.000
G1 X50.000 Y-20.829 Z-2.000
G1 X50.000 Y-18.284 Z-2.000
G1 X54.000 Y-14.284 Z-2.000
G1 X54.000 Y-11.738 Z-2.000
G1 X50.000 Y-15.738 Z-2.000
G1 X50.000 Y-13.193 Z-2.000
G1 X54.000 Y-9.193 Z-2.000
G1 X54.000 Y-6.647 Z-2.000
G1 X50.000 Y-10.647 Z-2.000
G1 X50.000 Y-8.101 Z-2.000
G1 X54.000 Y-4.101 Z-2.000
G1 X54.000 Y-1.556 Z-2.000
G1 X50.000 Y-5.556 Z-2.000
G1 X50.000 Y-3.010 Z-2.000
G1 X54.000 Y0.990 Z-2.000
G1 X54.000 Y3.535 Z-2.000
G1 X50.000 Y-0.465 Z-2.000
G1 X50.000 Y2.081 Z-2.000
G1 X54.000 Y6.081 Z-2.000
G1 X54.000 Y8.627 Z-2.000
G1 X50.000 Y4.627 Z-2.000
G1 X50.000 Y7.172 Z-2.000
G1 X54.000 Y11.172 Z-2.000
G1 X54.000 Y13.718 Z-2.000
G1 X50.000 Y9.718 Z-2.000
G1 X50.000 Y12.263 Z-2.000
G1 X54.000 Y16.263 Z-2.000
G1 X54.000 Y18.809 Z-2.000
G1 X50.000 Y14.809 Z-2.000
G1 X50.000 Y17.354 Z-2.000
G1 X54.000 Y21.354 Z-2.000
G1 X54.000 Y23.900 Z-2.000
G1 X50.000 Y19.900 Z-2.000
G1 X50.000 Y22.446 Z-2.000
G1 X54.000 Y26.446 Z-2.000
G3 X53.964 Y28.103 Z-2.000 I-13.715 J0.527 K0.000
G3 X53.819 Y28.810 Z-2.000 I-2.987 J-0.240 K0.000
G1 X50.000 Y24.991 Z-2.000
G1 X50.000 Y27.500 Z-2.000
G1 X49.996 Y27.533 Z-2.000
G1 X52.978 Y30.515 Z-2.000
G3 X51.648 Y31.731 Z-2.000 I-3.659 J-2.666 K0.000
G1 X48.418 Y28.500 Z-2.000
G1 X45.872 Y28.500 Z-2.000
G1 X49.799 Y32.427 Z-2.000
G3 X49.000 Y32.500 Z-2.000 I-0.698 J-3.256 K0.000
G1 X47.326 Y32.500 Z-2.000
G1 X45.661 Y30.835 Z-2.000
G3 X45.000 Y31.250 Z-2.000 I-0.650 J-0.300 K0.000
G1 X43.531 Y31.250 Z-2.000
G1 X44.781 Y32.500 Z-2.000
G1 X42.235 Y32.500 Z-2.000
G1 X40.985 Y31.250 Z-2.000
G1 X38.440 Y31.250 Z-2.000
G1 X39.690 Y32.500 Z-2.000
G1 X37.144 Y32.500 Z-2.000
G1 X35.894 Y31.250 Z-2.000
G1 X33.348 Y31.250 Z-2.000
G1 X34.598 Y32.500 Z-2.000
G1 X32.053 Y32.500 Z-2.000
G1 X30.803 Y31.250 Z-2.000
G1 X28.257 Y31.250 Z-2.000
G1 X29.507 Y32.500 Z-2.000
G1 X26.962 Y32.500 Z-2.000
G1 X25.712 Y31.250 Z-2.000
G1 X23.166 Y31.250 Z-2.000
G1 X24.416 Y32.500 Z-2.000
G1 X21.871 Y32.500 Z-2.000
G1 X20.621 Y31.250 Z-2.000
G1 X18.075 Y31.250 Z-2.000
G1 X19.325 Y32.500 Z-2.000
G1 X16.779 Y32.500 Z-2.000
G1 X15.529 Y31.250 Z-2.000
G1 X12.984 Y31.250 Z-2.000
G1 X14.234 Y32.500 Z-2.000
G1 X11.688 Y32.500 Z-2.000
G1 X10.438 Y31.250 Z-2.000
G1 X7.893 Y31.250 Z-2.000
G1 X9.143 Y32.500 Z-2.000
G1 X6.597 Y32.500 Z-2.000
G1 X5.347 Y31.250 Z-2.000
G3 X4.768 Y31.213 Z-2.000 I-0.174 J-1.846 K0.000
G3 X4.313 Y30.216 Z-2.000 I0.222 J-0.704 K0.000
G1 X2.597 Y28.500 Z-2.000
G1 X0.051 Y28.500 Z-2.000
G1 X4.051 Y32.500 Z-2.000
G1 X1.506 Y32.500 Z-2.000
G1 X-2.494 Y28.500 Z-2.000
G1 X-5.040 Y28.500 Z-2.000
G1 X-1.040 Y32.500 Z-2.000
G1 X-3.585 Y32.500 Z-2.000
G1 X-4.858 Y31.227 Z-2.000
G1 X-5.000 Y31.250 Z-2.000
G1 X-7.381 Y31.250 Z-2.000
G1 X-6.131 Y32.500 Z-2.000
G1 X-8.676 Y32.500 Z-2.000
G1 X-9.926 Y31.250 Z-2.000
G1 X-12.472 Y31.250 Z-2.000
G1 X-11.222 Y32.500 Z-2.000
G1 X-13.768 Y32.500 Z-2.000
G1 X-15.018 Y31.250 Z-2.000
G1 X-17.563 Y31.250 Z-2.000
G1 X-16.313 Y32.500 Z-2.000
G1 X-18.859 Y32.500 Z-2.000
G1 X-20.109 Y31.250 Z-2.000
G1 X-22.654 Y31.250 Z-2.000
G1 X-21.404 Y32.500 Z-2.000
G1 X-23.950 Y32.500 Z-2.000
G1 X-25.200 Y31.250 Z-2.000
G1 X-27.746 Y31.250 Z-2.000
G1 X-26.496 Y32.500 Z-2.000
G1 X-29.041 Y32.500 Z-2.000
G1 X-30.291 Y31.250 Z-2.000
G1 X-32.837 Y31.250 Z-2.000
G1 X-31.587 Y32.500 Z-2.000
G1 X-34.132 Y32.500 Z-2.000
G1 X-35.382 Y31.250 Z-2.000
G1 X-37.928 Y31.250 Z-2.000
G1 X-36.678 Y32.500 Z-2.000
G1 X-39.223 Y32.500 Z-2.000
G1 X-40.473 Y31.250 Z-2.000
G1 X-43.019 Y31.250 Z-2.000
G1 X-41.769 Y32.500 Z-2.000
G0 Z5.000
G0 X-49.432 Y32.474 Z5.000
G0 X-49.432 Y32.474 Z3.000
G1 X-49.432 Y32.474 Z-2.000
G3 X-53.974 Y27.932 Z-2.000 I0.410 J-4.951 K0.000
G1 X-49.432 Y32.474 Z-2.000
G1 X-49.000 Y32.500 Z-2.000
G1 X-46.860 Y32.500 Z-2.000
G1 X-54.000 Y25.360 Z-2.000
G1 X-54.000 Y22.815 Z-2.000
G1 X-50.000 Y26.815 Z-2.000
G1 X-50.000 Y27.500 Z-2.000
G2 X-49.259 Y28.466 Z-2.000 I1.000 J0.000 K0.000
G2 X-48.315 Y28.500 Z-2.000 I0.602 J-3.569 K0.000
G1 X-44.315 Y32.500 Z-2.000
G1 X-41.769 Y32.500 Z-2.000
G1 X-43.019 Y31.250 Z-2.000
G1 X-45.000 Y31.250 Z-2.000
G3 X-45.232 Y29.787 Z-2.000 I0.000 J-0.750 K0.000
G3 X-44.519 Y29.750 Z-2.000 I0.472 J2.232 K0.000
G1 X-45.769 Y28.500 Z-2.000
G1 X-43.223 Y28.500 Z-2.000
G1 X-41.973 Y29.750 Z-2.000
G1 X-39.428 Y29.750 Z-2.000
G1 X-40.678 Y28.500 Z-2.000
G1 X-38.132 Y28.500 Z-2.000
G1 X-36.882 Y29.750 Z-2.000
G1 X-34.337 Y29.750 Z-2.000
G1 X-35.587 Y28.500 Z-2.000
G1 X-33.041 Y28.500 Z-2.000
G1 X-31.791 Y29.750 Z-2.000
G1 X-29.246 Y29.750 Z-2.000
G1 X-30.496 Y28.500 Z-2.000
G1 X-27.950 Y28.500 Z-2.000
G1 X-26.700 Y29.750 Z-2.000
G1 X-24.154 Y29.750 Z-2.000
G1 X-25.404 Y28.500 Z-2.000
G1 X-22.859 Y28.500 Z-2.000
G1 X-21.609 Y29.750 Z-2.000
G1 X-19.063 Y29.750 Z-2.000
G1 X-20.313 Y28.500 Z-2.000
G1 X-17.768 Y28.500 Z-2.000
G1 X-16.518 Y29.750 Z-2.000
G1 X-13.972 Y29.750 Z-2.000
G1 X-15.222 Y28.500 Z-2.000
G1 X-12.676 Y28.500 Z-2.000
G1 X-11.426 Y29.750 Z-2.000
G1 X-8.881 Y29.750 Z-2.000
G1 X-10.131 Y28.500 Z-2.000
G1 X-7.585 Y28.500 Z-2.000
G1 X-6.335 Y29.750 Z-2.000
G0 Z5.000
G0 X2.597 Y28.500 Z5.000
G0 X2.597 Y28.500 Z3.000
G1 X2.597 Y28.500 Z-2.000
G1 X4.313 Y30.216 Z-2.000
G3 X5.000 Y29.750 Z-2.000 I0.680 J0.263 K0.000
G1 X6.393 Y29.750 Z-2.000
G1 X5.143 Y28.500 Z-2.000
G1 X7.688 Y28.500 Z-2.000
G1 X8.938 Y29.750 Z-2.000
G1 X11.484 Y29.750 Z-2.000
G1 X10.234 Y28.500 Z-2.000
G1 X12.779 Y28.500 Z-2.000
G1 X14.029 Y29.750 Z-2.000
G1 X16.575 Y29.750 Z-2.000
G1 X15.325 Y28.500 Z-2.000
G1 X17.871 Y28.500 Z-2.000
G1 X19.121 Y29.750 Z-2.000
G1 X21.666 Y29.750 Z-2.000
G1 X20.416 Y28.500 Z-2.000
G1 X22.962 Y28.500 Z-2.000
G1 X24.212 Y29.750 Z-2.000
G1 X26.757 Y29.750 Z-2.000
G1 X25.507 Y28.500 Z-2.000
G1 X28.053 Y28.500 Z-2.000
G1 X29.303 Y29.750 Z-2.000
G1 X31.848 Y29.750 Z-2.000
G1 X30.598 Y28.500 Z-2.000
G1 X33.144 Y28.500 Z-2.000
G1 X34.394 Y29.750 Z-2.000
G1 X36.940 Y29.750 Z-2.000
G1 X35.690 Y28.500 Z-2.000
G1 X38.235 Y28.500 Z-2.000
G1 X39.485 Y29.750 Z-2.000
G1 X42.031 Y29.750 Z-2.000
G1 X40.781 Y28.500 Z-2.000
G1 X43.326 Y28.500 Z-2.000
G1 X44.576 Y29.750 Z-2.000
G0 Z5.000
G0 X47.420 Y-28.500 Z5.000
G0 X47.420 Y-28.500 Z3.000
G1 X47.420 Y-28.500 Z-2.000
G1 X46.170 Y-29.750 Z-2.000
G1 X43.625 Y-29.750 Z-2.000
G1 X44.875 Y-28.500 Z-2.000
G1 X42.329 Y-28.500 Z-2.000
G1 X41.079 Y-29.750 Z-2.000
G1 X38.534 Y-29.750 Z-2.000
G1 X39.784 Y-28.500 Z-2.000
G1 X37.238 Y-28.500 Z-2.000
G1 X35.988 Y-29.750 Z-2.000
G1 X33.443 Y-29.750 Z-2.000
G1 X34.693 Y-28.500 Z-2.000
G1 X32.147 Y-28.500 Z-2.000
G1 X30.897 Y-29.750 Z-2.000
G1 X28.351 Y-29.750 Z-2.000
G1 X29.601 Y-28.500 Z-2.000
G1 X27.056 Y-28.500 Z-2.000
G1 X25.806 Y-29.750 Z-2.000
G1 X23.260 Y-29.750 Z-2.000
G1 X24.510 Y-28.500 Z-2.000
G1 X21.965 Y-28.500 Z-2.000
G1 X20.715 Y-29.750 Z-2.000
G1 X18.169 Y-29.750 Z-2.000
G1 X19.419 Y-28.500 Z-2.000
G1 X16.873 Y-28.500 Z-2.000
G1 X15.623 Y-29.750 Z-2.000
G1 X13.078 Y-29.750 Z-2.000
G1 X14.328 Y-28.500 Z-2.000
G1 X11.782 Y-28.500 Z-2.000
G1 X10.532 Y-29.750 Z-2.000
G1 X7.987 Y-29.750 Z-2.000
G1 X9.237 Y-28.500 Z-2.000
G1 X6.691 Y-28.500 Z-2.000
G1 X5.441 Y-29.750 Z-2.000
G3 X4.768 Y-29.787 Z-2.000 I-0.221 J-2.142 K0.000
G3 X4.345 Y-30.846 Z-2.000 I0.221 J-0.703 K0.000
G1 X2.691 Y-32.500 Z-2.000
G1 X0.146 Y-32.500 Z-2.000
G1 X4.146 Y-28.500 Z-2.000
G1 X1.600 Y-28.500 Z-2.000
G1 X-2.400 Y-32.500 Z-2.000
G1 X-4.946 Y-32.500 Z-2.000
G1 X-0.946 Y-28.500 Z-2.000
G1 X-3.491 Y-28.500 Z-2.000
G1 X-4.777 Y-29.785 Z-2.000
G1 X-5.000 Y-29.750 Z-2.000
G1 X-7.287 Y-29.750 Z-2.000
G1 X-6.037 Y-28.500 Z-2.000
G1 X-8.582 Y-28.500 Z-2.000
G1 X-9.832 Y-29.750 Z-2.000
G1 X-12.378 Y-29.750 Z-2.000
G1 X-11.128 Y-28.500 Z-2.000
G1 X-13.674 Y-28.500 Z-2.000
G1 X-14.924 Y-29.750 Z-2.000
G1 X-17.469 Y-29.750 Z-2.000
G1 X-16.219 Y-28.500 Z-2.000
G1 X-18.765 Y-28.500 Z-2.000
G1 X-20.015 Y-29.750 Z-2.000
G1 X-22.560 Y-29.750 Z-2.000
G1 X-21.310 Y-28.500 Z-2.000
G1 X-23.856 Y-28.500 Z-2.000
G1 X-25.106 Y-29.750 Z-2.000
G1 X-27.652 Y-29.750 Z-2.000
G1 X-26.402 Y-28.500 Z-2.000
G1 X-28.947 Y-28.500 Z-2.000
G1 X-30.197 Y-29.750 Z-2.000
G1 X-32.743 Y-29.750 Z-2.000
G1 X-31.493 Y-28.500 Z-2.000
G1 X-34.038 Y-28.500 Z-2.000
G1 X-35.288 Y-29.750 Z-2.000
G1 X-37.834 Y-29.750 Z-2.000
G1 X-36.584 Y-28.500 Z-2.000
G1 X-39.129 Y-28.500 Z-2.000
G1 X-40.379 Y-29.750 Z-2.000
G1 X-42.925 Y-29.750 Z-2.000
G1 X-41.675 Y-28.500 Z-2.000
G0 Z5.000
G0 X-6.241 Y-31.250 Z5.000
G0 X-6.241 Y-31.250 Z3.000
G1 X-6.241 Y-31.250 Z-2.000
G1 X-7.491 Y-32.500 Z-2.000
G1 X-10.037 Y-32.500 Z-2.000
G1 X-8.787 Y-31.250 Z-2.000
G1 X-11.332 Y-31.250 Z-2.000
G1 X-12.582 Y-32.500 Z-2.000
G1 X-15.128 Y-32.500 Z-2.000
G1 X-13.878 Y-31.250 Z-2.000
G1 X-16.424 Y-31.250 Z-2.000
G1 X-17.674 Y-32.500 Z-2.000
G1 X-20.219 Y-32.500 Z-2.000
G1 X-18.969 Y-31.250 Z-2.000
G1 X-21.515 Y-31.250 Z-2.000
G1 X-22.765 Y-32.500 Z-2.000
G1 X-25.310 Y-32.500 Z-2.000
G1 X-24.060 Y-31.250 Z-2.000
G1 X-26.606 Y-31.250 Z-2.000
G1 X-27.856 Y-32.500 Z-2.000
G1 X-30.402 Y-32.500 Z-2.000
G1 X-29.152 Y-31.250 Z-2.000
G1 X-31.697 Y-31.250 Z-2.000
G1 X-32.947 Y-32.500 Z-2.000
G1 X-35.493 Y-32.500 Z-2.000
G1 X-34.243 Y-31.250 Z-2.000
G1 X-36.788 Y-31.250 Z-2.000
G1 X-38.038 Y-32.500 Z-2.000
G1 X-40.584 Y-32.500 Z-2.000
G1 X-39.334 Y-31.250 Z-2.000
G1 X-41.879 Y-31.250 Z-2.000
G1 X-43.129 Y-32.500 Z-2.000
G1 X-45.675 Y-32.500 Z-2.000
G1 X-44.425 Y-31.250 Z-2.000
G2 X-45.232 Y-31.213 Z-2.000 I-0.287 J2.565 K0.000
G2 X-45.000 Y-29.750 Z-2.000 I0.232 J0.713 K0.000
G1 X-42.925 Y-29.750 Z-2.000
G1 X-41.675 Y-28.500 Z-2.000
G1 X-44.221 Y-28.500 Z-2.000
G1 X-48.221 Y-32.500 Z-2.000
G2 X-50.520 Y-32.254 Z-2.000 I-0.537 J5.845 K0.000
G1 X-46.766 Y-28.500 Z-2.000
G1 X-49.000 Y-28.500 Z-2.000
G2 X-49.272 Y-28.460 Z-2.000 I-0.062 J0.528 K0.000
G1 X-52.169 Y-31.357 Z-2.000
G2 X-53.334 Y-29.977 Z-2.000 I2.837 J3.577 K0.000
G1 X-50.000 Y-26.643 Z-2.000
G1 X-50.000 Y-24.097 Z-2.000
G1 X-53.966 Y-28.063 Z-2.000
G2 X-54.000 Y-25.551 Z-2.000 I20.743 J1.537 K0.000
G1 X-50.000 Y-21.551 Z-2.000
G1 X-50.000 Y-19.006 Z-2.000
G1 X-54.000 Y-23.006 Z-2.000
G1 X-54.000 Y-20.460 Z-2.000
G1 X-50.000 Y-16.460 Z-2.000
G1 X-50.000 Y-13.915 Z-2.000
G1 X-54.000 Y-17.915 Z-2.000
G1 X-54.000 Y-15.369 Z-2.000
G1 X-50.000 Y-11.369 Z-2.000
G1 X-50.000 Y-8.824 Z-2.000
G1 X-54.000 Y-12.824 Z-2.000
G1 X-54.000 Y-10.278 Z-2.000
G1 X-50.000 Y-6.278 Z-2.000
G1 X-50.000 Y-3.732 Z-2.000
G1 X-54.000 Y-7.732 Z-2.000
G1 X-54.000 Y-5.187 Z-2.000
G1 X-50.000 Y-1.187 Z-2.000
G1 X-50.000 Y1.359 Z-2.000
G1 X-54.000 Y-2.641 Z-2.000
G1 X-54.000 Y-0.096 Z-2.000
G1 X-50.000 Y3.904 Z-2.000
G1 X-50.000 Y6.450 Z-2.000
G1 X-54.000 Y2.450 Z-2.000
G1 X-54.000 Y4.996 Z-2.000
G1 X-50.000 Y8.996 Z-2.000
G1 X-50.000 Y11.541 Z-2.000
G1 X-54.000 Y7.541 Z-2.000
G1 X-54.000 Y10.087 Z-2.000
G1 X-50.000 Y14.087 Z-2.000
G1 X-50.000 Y16.632 Z-2.000
G1 X-54.000 Y12.632 Z-2.000
G1 X-54.000 Y15.178 Z-2.000
G1 X-50.000 Y19.178 Z-2.000
G1 X-50.000 Y21.723 Z-2.000
G1 X-54.000 Y17.723 Z-2.000
G1 X-54.000 Y20.269 Z-2.000
G1 X-50.000 Y24.269 Z-2.000
G1 X-50.000 Y26.815 Z-2.000
G1 X-54.000 Y22.815 Z-2.000
G0 Z5.000
G0 X2.691 Y-32.500 Z5.000
G0 X2.691 Y-32.500 Z3.000
G1 X2.691 Y-32.500 Z-2.000
G1 X4.345 Y-30.846 Z-2.000
G3 X5.000 Y-31.250 Z-2.000 I0.643 J0.310 K0.000
G1 X6.487 Y-31.250 Z-2.000
G1 X5.237 Y-32.500 Z-2.000
G1 X7.782 Y-32.500 Z-2.000
G1 X9.032 Y-31.250 Z-2.000
G1 X11.578 Y-31.250 Z-2.000
G1 X10.328 Y-32.500 Z-2.000
G1 X12.873 Y-32.500 Z-2.000
G1 X14.123 Y-31.250 Z-2.000
G1 X16.669 Y-31.250 Z-2.000
G1 X15.419 Y-32.500 Z-2.000
G1 X17.965 Y-32.500 Z-2.000
G1 X19.215 Y-31.250 Z-2.000
G1 X21.760 Y-31.250 Z-2.000
G1 X20.510 Y-32.500 Z-2.000
G1 X23.056 Y-32.500 Z-2.000
G1 X24.306 Y-31.250 Z-2.000
G1 X26.851 Y-31.250 Z-2.000
G1 X25.601 Y-32.500 Z-2.000
G1 X28.147 Y-32.500 Z-2.000
G1 X29.397 Y-31.250 Z-2.000
G1 X31.943 Y-31.250 Z-2.000
G1 X30.693 Y-32.500 Z-2.000
G1 X33.238 Y-32.500 Z-2.000
G1 X34.488 Y-31.250 Z-2.000
G1 X37.034 Y-31.250 Z-2.000
G1 X35.784 Y-32.500 Z-2.000
G1 X38.329 Y-32.500 Z-2.000
G1 X39.579 Y-31.250 Z-2.000
G1 X42.125 Y-31.250 Z-2.000
G1 X40.875 Y-32.500 Z-2.000
G1 X43.420 Y-32.500 Z-2.000
G1 X44.670 Y-31.250 Z-2.000
G1 X47.216 Y-31.250 Z-2.000
G1 X45.966 Y-32.500 Z-2.000
G1 X48.512 Y-32.500 Z-2.000
G1 X49.762 Y-31.250 Z-2.000
G1 X52.307 Y-31.250 Z-2.000
G1 X52.307 Y-31.250 Z-2.500
G1 X49.762 Y-31.250 Z-2.500
G1 X48.512 Y-32.500 Z-2.500
G1 X45.966 Y-32.500 Z-2.500
G1 X47.216 Y-31.250 Z-2.500
G1 X44.670 Y-31.250 Z-2.500
G1 X43.420 Y-32.500 Z-2.500
G1 X40.875 Y-32.500 Z-2.500
G1 X42.125 Y-31.250 Z-2.500
G1 X39.579 Y-31.250 Z-2.500
G1 X38.329 Y-32.500 Z-2.500
G1 X35.784 Y-32.500 Z-2.500
G1 X37.034 Y-31.250 Z-2.500
G1 X34.488 Y-31.250 Z-2.500
G1 X33.238 Y-32.500 Z-2.500
G1 X30.693 Y-32.500 Z-2.500
G1 X31.943 Y-31.250 Z-2.500
G1 X29.397 Y-31.250 Z-2.500
G1 X28.147 Y-32.500 Z-2.500
G1 X25.601 Y-32.500 Z-2.500
G1 X26.851 Y-31.250 Z-2.500
G1 X24.306 Y-31.250 Z-2.500
G1 X23.056 Y-32.500 Z-2.500
G1 X20.510 Y-32.500 Z-2.500
G1 X21.760 Y-31.250 Z-2.500
G1 X19.215 Y-31.250 Z-2.500
G1 X17.965 Y-32.500 Z-2.500
G1 X15.419 Y-32.500 Z-2.500
G1 X16.669 Y-31.250 Z-2.500
G1 X14.123 Y-31.250 Z-2.500
G1 X12.873 Y-32.500 Z-2.500
G1 X10.328 Y-32.500 Z-2.500
G1 X11.578 Y-31.250 Z-2.500
G1 X9.032 Y-31.250 Z-2.500
G1 X7.782 Y-32.500 Z-2.500
G1 X5.237 Y-32.500 Z-2.500
G1 X6.487 Y-31.250 Z-2.500
G1 X5.000 Y-31.250 Z-2.500
G2 X4.345 Y-30.846 Z-2.500 I-0.012 J0.714 K0.000
G1 X2.691 Y-32.500 Z-2.500
G0 Z5.000
G0 X-6.241 Y-31.250 Z5.000
G0 X-6.241 Y-31.250 Z3.000
G1 X-6.241 Y-31.250 Z-2.500
G1 X-7.491 Y-32.500 Z-2.500
G1 X-10.037 Y-32.500 Z-2.500
G1 X-8.787 Y-31.250 Z-2.500
G1 X-11.332 Y-31.250 Z-2.500
G1 X-12.582 Y-32.500 Z-2.500
G1 X-15.128 Y-32.500 Z-2.500
G1 X-13.878 Y-31.250 Z-2.500
G1 X-16.424 Y-31.250 Z-2.500
G1 X-17.674 Y-32.500 Z-2.500
G1 X-20.219 Y-32.500 Z-2.500
G1 X-18.969 Y-31.250 Z-2.500
G1 X-21.515 Y-31.250 Z-2.500
G1 X-22.765 Y-32.500 Z-2.500
G1 X-25.310 Y-32.500 Z-2.500
G1 X-24.060 Y-31.250 Z-2.500
G1 X-26.606 Y-31.250 Z-2.500
G1 X-27.856 Y-32.500 Z-2.500
G1 X-30.402 Y-32.500 Z-2.500
G1 X-29.152 Y-31.250 Z-2.500
G1 X-31.697 Y-31.250 Z-2.500
G1 X-32.947 Y-32.500 Z-2.500
G1 X-35.493 Y-32.500 Z-2.500
G1 X-34.243 Y-31.250 Z-2.500
G1 X-36.788 Y-31.250 Z-2.500
G1 X-38.038 Y-32.500 Z-2.500
G1 X-40.584 Y-32.500 Z-2.500
G1 X-39.334 Y-31.250 Z-2.500
G1 X-41.879 Y-31.250 Z-2.500
G1 X-43.129 Y-32.500 Z-2.500
G1 X-45.675 Y-32.500 Z-2.500
G1 X-44.425 Y-31.250 Z-2.500
G2 X-45.232 Y-31.213 Z-2.500 I-0.287 J2.565 K0.000
G2 X-45.000 Y-29.750 Z-2.500 I0.232 J0.713 K0.000
G1 X-42.925 Y-29.750 Z-2.500
G1 X-41.675 Y-28.500 Z-2.500
G1 X-44.221 Y-28.500 Z-2.500
G1 X-48.221 Y-32.500 Z-2.500
G2 X-50.520 Y-32.254 Z-2.500 I-0.537 J5.845 K0.000
G1 X-46.766 Y-28.500 Z-2.500
G1 X-49.000 Y-28.500 Z-2.500
G2 X-49.272 Y-28.460 Z-2.500 I-0.062 J0.528 K0.000
G1 X-52.169 Y-31.357 Z-2.500
G2 X-53.334 Y-29.977 Z-2.500 I2.837 J3.577 K0.000
G1 X-50.000 Y-26.643 Z-2.500
G1 X-50.000 Y-24.097 Z-2.500
G1 X-53.966 Y-28.063 Z-2.500
G2 X-54.000 Y-25.551 Z-2.500 I20.743 J1.537 K0.000
G1 X-50.000 Y-21.551 Z-2.500
G1 X-50.000 Y-19.006 Z-2.500
G1 X-54.000 Y-23.006 Z-2.500
G1 X-54.000 Y-20.460 Z-2.500
G1 X-50.000 Y-16.460 Z-2.500
G1 X-50.000 Y-13.915 Z-2.500
G1 X-54.000 Y-17.915 Z-2.500
G1 X-54.000 Y-15.369 Z-2.500
G1 X-50.000 Y-11.369 Z-2.500
G1 X-50.000 Y-8.824 Z-2.500
G1 X-54.000 Y-12.824 Z-2.500
G1 X-54.000 Y-10.278 Z-2.500
G1 X-50.000 Y-6.278 Z-2.500
G1 X-50.000 Y-3.732 Z-2.500
G1 X-54.000 Y-7.732 Z-2.500
G1 X-54.000 Y-5.187 Z-2.500
G1 X-50.000 Y-1.187 Z-2.500
G1 X-50.000 Y1.359 Z-2.500
G1 X-54.000 Y-2.641 Z-2.500
G1 X-54.000 Y-0.096 Z-2.500
G1 X-50.000 Y3.904 Z-2.500
G1 X-50.000 Y6.450 Z-2.500
G1 X-54.000 Y2.450 Z-2.500
G1 X-54.000 Y4.996 Z-2.500
G1 X-50.000 Y8.996 Z-2.500
G1 X-50.000 Y11.541 Z-2.500
G1 X-54.000 Y7.541 Z-2.500
G1 X-54.000 Y10.087 Z-2.500
G1 X-50.000 Y14.087 Z-2.500
G1 X-50.000 Y16.632 Z-2.500
G1 X-54.000 Y12.632 Z-2.500
G1 X-54.000 Y15.178 Z-2.500
G1 X-50.000 Y19.178 Z-2.500
G1 X-50.000 Y21.723 Z-2.500
G1 X-54.000 Y17.723 Z-2.500
G1 X-54.000 Y20.269 Z-2.500
G1 X-50.000 Y24.269 Z-2.500
G1 X-50.000 Y26.815 Z-2.500
G1 X-54.000 Y22.815 Z-2.500
G0 Z5.000
G0 X-49.432 Y32.474 Z5.000
G0 X-49.432 Y32.474 Z3.000
G1 X-49.432 Y32.474 Z-2.500
G3 X-53.974 Y27.932 Z-2.500 I0.410 J-4.951 K0.000
G1 X-49.432 Y32.474 Z-2.500
G1 X-49.000 Y32.500 Z-2.500
G1 X-46.860 Y32.500 Z-2.500
G1 X-54.000 Y25.360 Z-2.500
G1 X-54.000 Y22.815 Z-2.500
G1 X-50.000 Y26.815 Z-2.500
G1 X-50.000 Y27.500 Z-2.500
G2 X-49.259 Y28.466 Z-2.500 I1.000 J0.000 K0.000
G2 X-48.315 Y28.500 Z-2.500 I0.602 J-3.569 K0.000
G1 X-44.315 Y32.500 Z-2.500
G1 X-41.769 Y32.500 Z-2.500
G1 X-43.019 Y31.250 Z-2.500
G1 X-45.000 Y31.250 Z-2.500
G3 X-45.232 Y29.787 Z-2.500 I0.000 J-0.750 K0.000
G3 X-44.519 Y29.750 Z-2.500 I0.472 J2.232 K0.000
G1 X-45.769 Y28.500 Z-2.500
G1 X-43.223 Y28.500 Z-2.500
G1 X-41.973 Y29.750 Z-2.500
G1 X-39.428 Y29.750 Z-2.500
G1 X-40.678 Y28.500 Z-2.500
G1 X-38.132 Y28.500 Z-2.500
G1 X-36.882 Y29.750 Z-2.500
G1 X-34.337 Y29.750 Z-2.500
G1 X-35.587 Y28.500 Z-2.500
G1 X-33.041 Y28.500 Z-2.500
G1 X-31.791 Y29.750 Z-2.500
G1 X-29.246 Y29.750 Z-2.500
G1 X-30.496 Y28.500 Z-2.500
G1 X-27.950 Y28.500 Z-2.500
G1 X-26.700 Y29.750 Z-2.500
G1 X-24.154 Y29.750 Z-2.500
G1 X-25.404 Y28.500 Z-2.500
G1 X-22.859 Y28.500 Z-2.500
G1 X-21.609 Y29.750 Z-2.500
G1 X-19.063 Y29.750 Z-2.500
G1 X-20.313 Y28.500 Z-2.500
G1 X-17.768 Y28.500 Z-2.500
G1 X-16.518 Y29.750 Z-2.500
G1 X-13.972 Y29.750 Z-2.500
G1 X-15.222 Y28.500 Z-2.500
G1 X-12.676 Y28.500 Z-2.500
G1 X-11.426 Y29.750 Z-2.500
G1 X-8.881 Y29.750 Z-2.500
G1 X-10.131 Y28.500 Z-2.500
G1 X-7.585 Y28.500 Z-2.500
G1 X-6.335 Y29.750 Z-2.500
G0 Z5.000
G0 X2.597 Y28.500 Z5.000
G0 X2.597 Y28.500 Z3.000
G1 X2.597 Y28.500 Z-2.500
G1 X4.313 Y30.216 Z-2.500
G3 X5.000 Y29.750 Z-2.500 I0.680 J0.263 K0.000
G1 X6.393 Y29.750 Z-2.500
G1 X5.143 Y28.500 Z-2.500
G1 X7.688 Y28.500 Z-2.500
G1 X8.938 Y29.750 Z-2.500
G1 X11.484 Y29.750 Z-2.500
G1 X10.234 Y28.500 Z-2.500
G1 X12.779 Y28.500 Z-2.500
G1 X14.029 Y29.750 Z-2.500
G1 X16.575 Y29.750 Z-2.500
G1 X15.325 Y28.500 Z-2.500
G1 X17.871 Y28.500 Z-2.500
G1 X19.121 Y29.750 Z-2.500
G1 X21.666 Y29.750 Z-2.500
G1 X20.416 Y28.500 Z-2.500
G1 X22.962 Y28.500 Z-2.500
G1 X24.212 Y29.750 Z-2.500
G1 X26.757 Y29.750 Z-2.500
G1 X25.507 Y28.500 Z-2.500
G1 X28.053 Y28.500 Z-2.500
G1 X29.303 Y29.750 Z-2.500
G1 X31.848 Y29.750 Z-2.500
G1 X30.598 Y28.500 Z-2.500
G1 X33.144 Y28.500 Z-2.500
G1 X34.394 Y29.750 Z-2.500
G1 X36.940 Y29.750 Z-2.500
G1 X35.690 Y28.500 Z-2.500
G1 X38.235 Y28.500 Z-2.500
G1 X39.485 Y29.750 Z-2.500
G1 X42.031 Y29.750 Z-2.500
G1 X40.781 Y28.500 Z-2.500
G1 X43.326 Y28.500 Z-2.500
G1 X44.576 Y29.750 Z-2.500
G0 Z5.000
G0 X47.420 Y-28.500 Z5.000
G0 X47.420 Y-28.500 Z3.000
G1 X47.420 Y-28.500 Z-2.500
G1 X46.170 Y-29.750 Z-2.500
G1 X43.625 Y-29.750 Z-2.500
G1 X44.875 Y-28.500 Z-2.500
G1 X42.329 Y-28.500 Z-2.500
G1 X41.079 Y-29.750 Z-2.500
G1 X38.534 Y-29.750 Z-2.500
G1 X39.784 Y-28.500 Z-2.500
G1 X37.238 Y-28.500 Z-2.500
G1 X35.988 Y-29.750 Z-2.500
G1 X33.443 Y-29.750 Z-2.500
G1 X34.693 Y-28.500 Z-2.500
G1 X32.147 Y-28.500 Z-2.500
G1 X30.897 Y-29.750 Z-2.500
G1 X28.351 Y-29.750 Z-2.500
G1 X29.601 Y-28.500 Z-2.500
G1 X27.056 Y-28.500 Z-2.500
G1 X25.806 Y-29.750 Z-2.500
G1 X23.260 Y-29.750 Z-2.500
G1 X24.510 Y-28.500 Z-2.500
G1 X21.965 Y-28.500 Z-2.500
G1 X20.715 Y-29.750 Z-2.500
G1 X18.169 Y-29.750 Z-2.500
G1 X19.419 Y-28.500 Z-2.500
G1 X16.873 Y-28.500 Z-2.500
G1 X15.623 Y-29.750 Z-2.500
G1 X13.078 Y-29.750 Z-2.500
G1 X14.328 Y-28.500 Z-2.500
G1 X11.782 Y-28.500 Z-2.500
G1 X10.532 Y-29.750 Z-2.500
G1 X7.987 Y-29.750 Z-2.500
G1 X9.237 Y-28.500 Z-2.500
G1 X6.691 Y-28.500 Z-2.500
G1 X5.441 Y-29.750 Z-2.500
G3 X4.768 Y-29.787 Z-2.500 I-0.221 J-2.142 K0.000
G3 X4.345 Y-30.846 Z-2.500 I0.221 J-0.703 K0.000
G1 X2.691 Y-32.500 Z-2.500
G1 X0.146 Y-32.500 Z-2.500
G1 X4.146 Y-28.500 Z-2.500
G1 X1.600 Y-28.500 Z-2.500
G1 X-2.400 Y-32.500 Z-2.500
G1 X-4.946 Y-32.500 Z-2.500
G1 X-0.946 Y-28.500 Z-2.500
G1 X-3.491 Y-28.500 Z-2.500
G1 X-4.777 Y-29.785 Z-2.500
G1 X-5.000 Y-29.750 Z-2.500
G1 X-7.287 Y-29.750 Z-2.500
G1 X-6.037 Y-28.500 Z-2.500
G1 X-8.582 Y-28.500 Z-2.500
G1 X-9.832 Y-29.750 Z-2.500
G1 X-12.378 Y-29.750 Z-2.500
G1 X-11.128 Y-28.500 Z-2.500
G1 X-13.674 Y-28.500 Z-2.500
G1 X-14.924 Y-29.750 Z-2.500
G1 X-17.469 Y-29.750 Z-2.500
G1 X-16.219 Y-28.500 Z-2.500
G1 X-18.765 Y-28.500 Z-2.500
G1 X-20.015 Y-29.750 Z-2.500
G1 X-22.560 Y-29.750 Z-2.500
G1 X-21.310 Y-28.500 Z-2.500
G1 X-23.856 Y-28.500 Z-2.500
G1 X-25.106 Y-29.750 Z-2.500
G1 X-27.652 Y-29.750 Z-2.500
G1 X-26.402 Y-28.500 Z-2.500
G1 X-28.947 Y-28.500 Z-2.500
G1 X-30.197 Y-29.750 Z-2.500
G1 X-32.743 Y-29.750 Z-2.500
G1 X-31.493 Y-28.500 Z-2.500
G1 X-34.038 Y-28.500 Z-2.500
G1 X-35.288 Y-29.750 Z-2.500
G1 X-37.834 Y-29.750 Z-2.500
G1 X-36.584 Y-28.500 Z-2.500
G1 X-39.129 Y-28.500 Z-2.500
G1 X-40.379 Y-29.750 Z-2.500
G1 X-42.925 Y-29.750 Z-2.500
G1 X-41.675 Y-28.500 Z-2.500
G0 Z5.000
G0 X-41.769 Y32.500 Z5.000
G0 X-41.769 Y32.500 Z3.000
G1 X-41.769 Y32.500 Z-2.500
G1 X-43.019 Y31.250 Z-2.500
G1 X-40.473 Y31.250 Z-2.500
G1 X-39.223 Y32.500 Z-2.500
G1 X-36.678 Y32.500 Z-2.500
G1 X-37.928 Y31.250 Z-2.500
G1 X-35.382 Y31.250 Z-2.500
G1 X-34.132 Y32.500 Z-2.500
G1 X-31.587 Y32.500 Z-2.500
G1 X-32.837 Y31.250 Z-2.500
G1 X-30.291 Y31.250 Z-2.500
G1 X-29.041 Y32.500 Z-2.500
G1 X-26.496 Y32.500 Z-2.500
G1 X-27.746 Y31.250 Z-2.500
G1 X-25.200 Y31.250 Z-2.500
G1 X-23.950 Y32.500 Z-2.500
G1 X-21.404 Y32.500 Z-2.500
G1 X-22.654 Y31.250 Z-2.500
G1 X-20.109 Y31.250 Z-2.500
G1 X-18.859 Y32.500 Z-2.500
G1 X-16.313 Y32.500 Z-2.500
G1 X-17.563 Y31.250 Z-2.500
G1 X-15.018 Y31.250 Z-2.500
G1 X-13.768 Y32.500 Z-2.500
G1 X-11.222 Y32.500 Z-2.500
G1 X-12.472 Y31.250 Z-2.500
G1 X-9.926 Y31.250 Z-2.500
G1 X-8.676 Y32.500 Z-2.500
G1 X-6.131 Y32.500 Z-2.500
G1 X-7.381 Y31.250 Z-2.500
G1 X-5.000 Y31.250 Z-2.500
G1 X-4.858 Y31.227 Z-2.500
G1 X-3.585 Y32.500 Z-2.500
G1 X-1.040 Y32.500 Z-2.500
G1 X-5.040 Y28.500 Z-2.500
G1 X-2.494 Y28.500 Z-2.500
G1 X1.506 Y32.500 Z-2.500
G1 X4.051 Y32.500 Z-2.500
G1 X0.051 Y28.500 Z-2.500
G1 X2.597 Y28.500 Z-2.500
G1 X4.313 Y30.216 Z-2.500
G2 X4.768 Y31.213 Z-2.500 I0.677 J0.293 K0.000
G2 X5.347 Y31.250 Z-2.500 I0.405 J-1.809 K0.000
G1 X6.597 Y32.500 Z-2.500
G1 X9.143 Y32.500 Z-2.500
G1 X7.893 Y31.250 Z-2.500
G1 X10.438 Y31.250 Z-2.500
G1 X11.688 Y32.500 Z-2.500
G1 X14.234 Y32.500 Z-2.500
G1 X12.984 Y31.250 Z-2.500
G1 X15.529 Y31.250 Z-2.500
G1 X16.779 Y32.500 Z-2.500
G1 X19.325 Y32.500 Z-2.500
G1 X18.075 Y31.250 Z-2.500
G1 X20.621 Y31.250 Z-2.500
G1 X21.871 Y32.500 Z-2.500
G1 X24.416 Y32.500 Z-2.500
G1 X23.166 Y31.250 Z-2.500
G1 X25.712 Y31.250 Z-2.500
G1 X26.962 Y32.500 Z-2.500
G1 X29.507 Y32.500 Z-2.500
G1 X28.257 Y31.250 Z-2.500
G1 X30.803 Y31.250 Z-2.500
G1 X32.053 Y32.500 Z-2.500
G1 X34.598 Y32.500 Z-2.500
G1 X33.348 Y31.250 Z-2.500
G1 X35.894 Y31.250 Z-2.500
G1 X37.144 Y32.500 Z-2.500
G1 X39.690 Y32.500 Z-2.500
G1 X38.440 Y31.250 Z-2.500
G1 X40.985 Y31.250 Z-2.500
G1 X42.235 Y32.500 Z-2.500
G1 X44.781 Y32.500 Z-2.500
G1 X43.531 Y31.250 Z-2.500
G1 X45.000 Y31.250 Z-2.500
G2 X45.661 Y30.835 Z-2.500 I0.011 J-0.716 K0.000
G1 X47.326 Y32.500 Z-2.500
G1 X49.000 Y32.500 Z-2.500
G2 X49.799 Y32.427 Z-2.500 I0.101 J-3.328 K0.000
G1 X45.872 Y28.500 Z-2.500
G1 X48.418 Y28.500 Z-2.500
G1 X51.648 Y31.731 Z-2.500
G2 X52.978 Y30.515 Z-2.500 I-2.329 J-3.882 K0.000
G1 X49.996 Y27.533 Z-2.500
G1 X50.000 Y27.500 Z-2.500
G1 X50.000 Y24.991 Z-2.500
G1 X53.819 Y28.810 Z-2.500
G2 X53.964 Y28.103 Z-2.500 I-2.842 J-0.948 K0.000
G2 X54.000 Y26.446 Z-2.500 I-13.679 J-1.130 K0.000
G1 X50.000 Y22.446 Z-2.500
G1 X50.000 Y19.900 Z-2.500
G1 X54.000 Y23.900 Z-2.500
G1 X54.000 Y21.354 Z-2.500
G1 X50.000 Y17.354 Z-2.500
G1 X50.000 Y14.809 Z-2.500
G1 X54.000 Y18.809 Z-2.500
G1 X54.000 Y16.263 Z-2.500
G1 X50.000 Y12.263 Z-2.500
G1 X50.000 Y9.718 Z-2.500
G1 X54.000 Y13.718 Z-2.500
G1 X54.000 Y11.172 Z-2.500
G1 X50.000 Y7.172 Z-2.500
G1 X50.000 Y4.627 Z-2.500
G1 X54.000 Y8.627 Z-2.500
G1 X54.000 Y6.081 Z-2.500
G1 X50.000 Y2.081 Z-2.500
G1 X50.000 Y-0.465 Z-2.500
G1 X54.000 Y3.535 Z-2.500
G1 X54.000 Y0.990 Z-2.500
G1 X50.000 Y-3.010 Z-2.500
G1 X50.000 Y-5.556 Z-2.500
G1 X54.000 Y-1.556 Z-2.500
G1 X54.000 Y-4.101 Z-2.500
G1 X50.000 Y-8.101 Z-2.500
G1 X50.000 Y-10.647 Z-2.500
G1 X54.000 Y-6.647 Z-2.500
G1 X54.000 Y-9.193 Z-2.500
G1 X50.000 Y-13.193 Z-2.500
G1 X50.000 Y-15.738 Z-2.500
G1 X54.000 Y-11.738 Z-2.500
G1 X54.000 Y-14.284 Z-2.500
G1 X50.000 Y-18.284 Z-2.500
G1 X50.000 Y-20.829 Z-2.500
G1 X54.000 Y-16.829 Z-2.500
G1 X54.000 Y-19.375 Z-2.500
G1 X50.000 Y-23.375 Z-2.500
G1 X50.000 Y-25.920 Z-2.500
G1 X54.000 Y-21.920 Z-2.500
G1 X54.000 Y-24.466 Z-2.500
G1 X48.716 Y-29.750 Z-2.500
G1 X51.262 Y-29.750 Z-2.500
G1 X54.000 Y-27.012 Z-2.500
G2 X53.465 Y-29.750 Z-2.500 I-5.415 J-0.364 K0.000
G1 X51.262 Y-29.750 Z-2.500
G1 X51.262 Y-29.750 Z-3.000
G1 X53.465 Y-29.750 Z-3.000
G3 X54.000 Y-27.012 Z-3.000 I-4.880 J2.375 K0.000
G1 X51.262 Y-29.750 Z-3.000
G1 X48.716 Y-29.750 Z-3.000
G1 X54.000 Y-24.466 Z-3.000
G1 X54.000 Y-21.920 Z-3.000
G1 X50.000 Y-25.920 Z-3.000
G1 X50.000 Y-23.375 Z-3.000
G1 X54.000 Y-19.375 Z-3.000
G1 X54.000 Y-16.829 Z-3.000
G1 X50.000 Y-20.829 Z-3.000
G1 X50.000 Y-18.284 Z-3.000
G1 X54.000 Y-14.284 Z-3.000
G1 X54.000 Y-11.738 Z-3.000
G1 X50.000 Y-15.738 Z-3.000
G1 X50.000 Y-13.193 Z-3.000
G1 X54.000 Y-9.193 Z-3.000
G1 X54.000 Y-6.647 Z-3.000
G1 X50.000 Y-10.647 Z-3.000
G1 X50.000 Y-8.101 Z-3.000
G1 X54.000 Y-4.101 Z-3.000
G1 X54.000 Y-1.556 Z-3.000
G1 X50.000 Y-5.556 Z-3.000
G1 X50.000 Y-3.010 Z-3.000
G1 X54.000 Y0.990 Z-3.000
G1 X54.000 Y3.535 Z-3.000
G1 X50.000 Y-0.465 Z-3.000
G1 X50.000 Y2.081 Z-3.000
G1 X54.000 Y6.081 Z-3.000
G1 X54.000 Y8.627 Z-3.000
G1 X50.000 Y4.627 Z-3.000
G1 X50.000 Y7.172 Z-3.000
G1 X54.000 Y11.172 Z-3.000
G1 X54.000 Y13.718 Z-3.000
G1 X50.000 Y9.718 Z-3.000
G1 X50.000 Y12.263 Z-3.000
G1 X54.000 Y16.263 Z-3.000
G1 X54.000 Y18.809 Z-3.000
G1 X50.000 Y14.809 Z-3.000
G1 X50.000 Y17.354 Z-3.000
G1 X54.000 Y21.354 Z-3.000
G1 X54.000 Y23.900 Z-3.000
G1 X50.000 Y19.900 Z-3.000
G1 X50.000 Y22.446 Z-3.000
G1 X54.000 Y26.446 Z-3.000
G3 X53.964 Y28.103 Z-3.000 I-13.715 J0.527 K0.000
G3 X53.819 Y28.810 Z-3.000 I-2.987 J-0.240 K0.000
G1 X50.000 Y24.991 Z-3.000
G1 X50.000 Y27.500 Z-3.000
G1 X49.996 Y27.533 Z-3.000
G1 X52.978 Y30.515 Z-3.000
G3 X51.648 Y31.731 Z-3.000 I-3.659 J-2.666 K0.000
G1 X48.418 Y28.500 Z-3.000
G1 X45.872 Y28.500 Z-3.000
G1 X49.799 Y32.427 Z-3.000
G3 X49.000 Y32.500 Z-3.000 I-0.698 J-3.256 K0.000
G1 X47.326 Y32.500 Z-3.000
G1 X45.661 Y30.835 Z-3.000
G3 X45.000 Y31.250 Z-3.000 I-0.650 J-0.300 K0.000
G1 X43.531 Y31.250 Z-3.000
G1 X44.781 Y32.500 Z-3.000
G1 X42.235 Y32.500 Z-3.000
G1 X40.985 Y31.250 Z-3.000
G1 X38.440 Y31.250 Z-3.000
G1 X39.690 Y32.500 Z-3.000
G1 X37.144 Y32.500 Z-3.000
G1 X35.894 Y31.250 Z-3.000
G1 X33.348 Y31.250 Z-3.000
G1 X34.598 Y32.500 Z-3.000
G1 X32.053 Y32.500 Z-3.000
G1 X30.803 Y31.250 Z-3.000
G1 X28.257 Y31.250 Z-3.000
G1 X29.507 Y32.500 Z-3.000
G1 X26.962 Y32.500 Z-3.000
G1 X25.712 Y31.250 Z-3.000
G1 X23.166 Y31.250 Z-3.000
G1 X24.416 Y32.500 Z-3.000
G1 X21.871 Y32.500 Z-3.000
G1 X20.621 Y31.250 Z-3.000
G1 X18.075 Y31.250 Z-3.000
G1 X19.325 Y32.500 Z-3.000
G1 X16.779 Y32.500 Z-3.000
G1 X15.529 Y31.250 Z-3.000
G1 X12.984 Y31.250 Z-3.000
G1 X14.234 Y32.500 Z-3.000
G1 X11.688 Y32.500 Z-3.000
G1 X10.438 Y31.250 Z-3.000
G1 X7.893 Y31.250 Z-3.000
G1 X9.143 Y32.500 Z-3.000
G1 X6.597 Y32.500 Z-3.000
G1 X5.347 Y31.250 Z-3.000
G3 X4.768 Y31.213 Z-3.000 I-0.174 J-1.846 K0.000
G3 X4.313 Y30.216 Z-3.000 I0.222 J-0.704 K0.000
G1 X2.597 Y28.500 Z-3.000
G1 X0.051 Y28.500 Z-3.000
G1 X4.051 Y32.500 Z-3.000
G1 X1.506 Y32.500 Z-3.000
G1 X-2.494 Y28.500 Z-3.000
G1 X-5.040 Y28.500 Z-3.000
G1 X-1.040 Y32.500 Z-3.000
G1 X-3.585 Y32.500 Z-3.000
G1 X-4.858 Y31.227 Z-3.000
G1 X-5.000 Y31.250 Z-3.000
G1 X-7.381 Y31.250 Z-3.000
G1 X-6.131 Y32.500 Z-3.000
G1 X-8.676 Y32.500 Z-3.000
G1 X-9.926 Y31.250 Z-3.000
G1 X-12.472 Y31.250 Z-3.000
G1 X-11.222 Y32.500 Z-3.000
G1 X-13.768 Y32.500 Z-3.000
G1 X-15.018 Y31.250 Z-3.000
G1 X-17.563 Y31.250 Z-3.000
G1 X-16.313 Y32.500 Z-3.000
G1 X-18.859 Y32.500 Z-3.000
G1 X-20.109 Y31.250 Z-3.000
G1 X-22.654 Y31.250 Z-3.000
G1 X-21.404 Y32.500 Z-3.000
G1 X-23.950 Y32.500 Z-3.000
G1 X-25.200 Y31.250 Z-3.000
G1 X-27.746 Y31.250 Z-3.000
G1 X-26.496 Y32.500 Z-3.000
G1 X-29.041 Y32.500 Z-3.000
G1 X-30.291 Y31.250 Z-3.000
G1 X-32.837 Y31.250 Z-3.000
G1 X-31.587 Y32.500 Z-3.000
G1 X-34.132 Y32.500 Z-3.000
G1 X-35.382 Y31.250 Z-3.000
G1 X-37.928 Y31.250 Z-3.000
G1 X-36.678 Y32.500 Z-3.000
G1 X-39.223 Y32.500 Z-3.000
G1 X-40.473 Y31.250 Z-3.000
G1 X-43.019 Y31.250 Z-3.000
G1 X-41.769 Y32.500 Z-3.000
G0 Z5.000
G0 X-49.432 Y32.474 Z5.000
G0 X-49.432 Y32.474 Z3.000
G1 X-49.432 Y32.474 Z-3.000
G3 X-53.974 Y27.932 Z-3.000 I0.410 J-4.951 K0.000
G1 X-49.432 Y32.474 Z-3.000
G1 X-49.000 Y32.500 Z-3.000
G1 X-46.860 Y32.500 Z-3.000
G1 X-54.000 Y25.360 Z-3.000
G1 X-54.000 Y22.815 Z-3.000
G1 X-50.000 Y26.815 Z-3.000
G1 X-50.000 Y27.500 Z-3.000
G2 X-49.259 Y28.466 Z-3.000 I1.000 J0.000 K0.000
G2 X-48.315 Y28.500 Z-3.000 I0.602 J-3.569 K0.000
G1 X-44.315 Y32.500 Z-3.000
G1 X-41.769 Y32.500 Z-3.000
G1 X-43.019 Y31.250 Z-3.000
G1 X-45.000 Y31.250 Z-3.000
G3 X-45.232 Y29.787 Z-3.000 I0.000 J-0.750 K0.000
G3 X-44.519 Y29.750 Z-3.000 I0.472 J2.232 K0.000
G1 X-45.769 Y28.500 Z-3.000
G1 X-43.223 Y28.500 Z-3.000
G1 X-41.973 Y29.750 Z-3.000
G1 X-39.428 Y29.750 Z-3.000
G1 X-40.678 Y28.500 Z-3.000
G1 X-38.132 Y28.500 Z-3.000
G1 X-36.882 Y29.750 Z-3.000
G1 X-34.337 Y29.750 Z-3.000
G1 X-35.587 Y28.500 Z-3.000
G1 X-33.041 Y28.500 Z-3.000
G1 X-31.791 Y29.750 Z-3.000
G1 X-29.246 Y29.750 Z-3.000
G1 X-30.496 Y28.500 Z-3.000
G1 X-27.950 Y28.500 Z-3.000
G1 X-26.700 Y29.750 Z-3.000
G1 X-24.154 Y29.750 Z-3.000
G1 X-25.404 Y28.500 Z-3.000
G1 X-22.859 Y28.500 Z-3.000
G1 X-21.609 Y29.750 Z-3.000
G1 X-19.063 Y29.750 Z-3.000
G1 X-20.313 Y28.500 Z-3.000
G1 X-17.768 Y28.500 Z-3.000
G1 X-16.518 Y29.750 Z-3.000
G1 X-13.972 Y29.750 Z-3.000
G1 X-15.222 Y28.500 Z-3.000
G1 X-12.676 Y28.500 Z-3.000
G1 X-11.426 Y29.750 Z-3.000
G1 X-8.881 Y29.750 Z-3.000
G1 X-10.131 Y28.500 Z-3.000
G1 X-7.585 Y28.500 Z-3.000
G1 X-6.335 Y29.750 Z-3.000
G0 Z5.000
G0 X2.597 Y28.500 Z5.000
G0 X2.597 Y28.500 Z3.000
G1 X2.597 Y28.500 Z-3.000
G1 X4.313 Y30.216 Z-3.000
G3 X5.000 Y29.750 Z-3.000 I0.680 J0.263 K0.000
G1 X6.393 Y29.750 Z-3.000
G1 X5.143 Y28.500 Z-3.000
G1 X7.688 Y28.500 Z-3.000
G1 X8.938 Y29.750 Z-3.000
G1 X11.484 Y29.750 Z-3.000
G1 X10.234 Y28.500 Z-3.000
G1 X12.779 Y28.500 Z-3.000
G1 X14.029 Y29.750 Z-3.000
G1 X16.575 Y29.750 Z-3.000
G1 X15.325 Y28.500 Z-3.000
G1 X17.871 Y28.500 Z-3.000
G1 X19.121 Y29.750 Z-3.000
G1 X21.666 Y29.750 Z-3.000
G1 X20.416 Y28.500 Z-3.000
G1 X22.962 Y28.500 Z-3.000
G1 X24.212 Y29.750 Z-3.000
G1 X26.757 Y29.750 Z-3.000
G1 X25.507 Y28.500 Z-3.000
G1 X28.053 Y28.500 Z-3.000
G1 X29.303 Y29.750 Z-3.000
G1 X31.848 Y29.750 Z-3.000
G1 X30.598 Y28.500 Z-3.000
G1 X33.144 Y28.500 Z-3.000
G1 X34.394 Y29.750 Z-3.000
G1 X36.940 Y29.750 Z-3.000
G1 X35.690 Y28.500 Z-3.000
G1 X38.235 Y28.500 Z-3.000
G1 X39.485 Y29.750 Z-3.000
G1 X42.031 Y29.750 Z-3.000
G1 X40.781 Y28.500 Z-3.000
G1 X43.326 Y28.500 Z-3.000
G1 X44.576 Y29.750 Z-3.000
G0 Z5.000
G0 X47.420 Y-28.500 Z5.000
G0 X47.420 Y-28.500 Z3.000
G1 X47.420 Y-28.500 Z-3.000
G1 X46.170 Y-29.750 Z-3.000
G1 X43.625 Y-29.750 Z-3.000
G1 X44.875 Y-28.500 Z-3.000
G1 X42.329 Y-28.500 Z-3.000
G1 X41.079 Y-29.750 Z-3.000
G1 X38.534 Y-29.750 Z-3.000
G1 X39.784 Y-28.500 Z-3.000
G1 X37.238 Y-28.500 Z-3.000
G1 X35.988 Y-29.750 Z-3.000
G1 X33.443 Y-29.750 Z-3.000
G1 X34.693 Y-28.500 Z-3.000
G1 X32.147 Y-28.500 Z-3.000
G1 X30.897 Y-29.750 Z-3.000
G1 X28.351 Y-29.750 Z-3.000
G1 X29.601 Y-28.500 Z-3.000
G1 X27.056 Y-28.500 Z-3.000
G1 X25.806 Y-29.750 Z-3.000
G1 X23.260 Y-29.750 Z-3.000
G1 X24.510 Y-28.500 Z-3.000
G1 X21.965 Y-28.500 Z-3.000
G1 X20.715 Y-29.750 Z-3.000
G1 X18.169 Y-29.750 Z-3.000
G1 X19.419 Y-28.500 Z-3.000
G1 X16.873 Y-28.500 Z-3.000
G1 X15.623 Y-29.750 Z-3.000
G1 X13.078 Y-29.750 Z-3.000
G1 X14.328 Y-28.500 Z-3.000
G1 X11.782 Y-28.500 Z-3.000
G1 X10.532 Y-29.750 Z-3.000
G1 X7.987 Y-29.750 Z-3.000
G1 X9.237 Y-28.500 Z-3.000
G1 X6.691 Y-28.500 Z-3.000
G1 X5.441 Y-29.750 Z-3.000
G3 X4.768 Y-29.787 Z-3.000 I-0.221 J-2.142 K0.000
G3 X4.345 Y-30.846 Z-3.000 I0.221 J-0.703 K0.000
G1 X2.691 Y-32.500 Z-3.000
G1 X0.146 Y-32.500 Z-3.000
G1 X4.146 Y-28.500 Z-3.000
G1 X1.600 Y-28.500 Z-3.000
G1 X-2.400 Y-32.500 Z-3.000
G1 X-4.946 Y-32.500 Z-3.000
G1 X-0.946 Y-28.500 Z-3.000
G1 X-3.491 Y-28.500 Z-3.000
G1 X-4.777 Y-29.785 Z-3.000
G1 X-5.000 Y-29.750 Z-3.000
G1 X-7.287 Y-29.750 Z-3.000
G1 X-6.037 Y-28.500 Z-3.000
G1 X-8.582 Y-28.500 Z-3.000
G1 X-9.832 Y-29.750 Z-3.000
G1 X-12.378 Y-29.750 Z-3.000
G1 X-11.128 Y-28.500 Z-3.000
G1 X-13.674 Y-28.500 Z-3.000
G1 X-14.924 Y-29.750 Z-3.000
G1 X-17.469 Y-29.750 Z-3.000
G1 X-16.219 Y-28.500 Z-3.000
G1 X-18.765 Y-28.500 Z-3.000
G1 X-20.015 Y-29.750 Z-3.000
G1 X-22.560 Y-29.750 Z-3.000
G1 X-21.310 Y-28.500 Z-3.000
G1 X-23.856 Y-28.500 Z-3.000
G1 X-25.106 Y-29.750 Z-3.000
G1 X-27.652 Y-29.750 Z-3.000
G1 X-26.402 Y-28.500 Z-3.000
G1 X-28.947 Y-28.500 Z-3.000
G1 X-30.197 Y-29.750 Z-3.000
G1 X-32.743 Y-29.750 Z-3.000
G1 X-31.493 Y-28.500 Z-3.000
G1 X-34.038 Y-28.500 Z-3.000
G1 X-35.288 Y-29.750 Z-3.000
G1 X-37.834 Y-29.750 Z-3.000
G1 X-36.584 Y-28.500 Z-3.000
G1 X-39.129 Y-28.500 Z-3.000
G1 X-40.379 Y-29.750 Z-3.000
G1 X-42.925 Y-29.750 Z-3.000
G1 X-41.675 Y-28.500 Z-3.000
G0 Z5.000
G0 X-6.241 Y-31.250 Z5.000
G0 X-6.241 Y-31.250 Z3.000
G1 X-6.241 Y-31.250 Z-3.000
G1 X-7.491 Y-32.500 Z-3.000
G1 X-10.037 Y-32.500 Z-3.000
G1 X-8.787 Y-31.250 Z-3.000
G1 X-11.332 Y-31.250 Z-3.000
G1 X-12.582 Y-32.500 Z-3.000
G1 X-15.128 Y-32.500 Z-3.000
G1 X-13.878 Y-31.250 Z-3.000
G1 X-16.424 Y-31.250 Z-3.000
G1 X-17.674 Y-32.500 Z-3.000
G1 X-20.219 Y-32.500 Z-3.000
G1 X-18.969 Y-31.250 Z-3.000
G1 X-21.515 Y-31.250 Z-3.000
G1 X-22.765 Y-32.500 Z-3.000
G1 X-25.310 Y-32.500 Z-3.000
G1 X-24.060 Y-31.250 Z-3.000
G1 X-26.606 Y-31.250 Z-3.000
G1 X-27.856 Y-32.500 Z-3.000
G1 X-30.402 Y-32.500 Z-3.000
G1 X-29.152 Y-31.250 Z-3.000
G1 X-31.697 Y-31.250 Z-3.000
G1 X-32.947 Y-32.500 Z-3.000
G1 X-35.493 Y-32.500 Z-3.000
G1 X-34.243 Y-31.250 Z-3.000
G1 X-36.788 Y-31.250 Z-3.000
G1 X-38.038 Y-32.500 Z-3.000
G1 X-40.584 Y-32.500 Z-3.000
G1 X-39.334 Y-31.250 Z-3.000
G1 X-41.879 Y-31.250 Z-3.000
G1 X-43.129 Y-32.500 Z-3.000
G1 X-45.675 Y-32.500 Z-3.000
G1 X-44.425 Y-31.250 Z-3.000
G2 X-45.232 Y-31.213 Z-3.000 I-0.287 J2.565 K0.000
G2 X-45.000 Y-29.750 Z-3.000 I0.232 J0.713 K0.000
G1 X-42.925 Y-29.750 Z-3.000
G1 X-41.675 Y-28.500 Z-3.000
G1 X-44.221 Y-28.500 Z-3.000
G1 X-48.221 Y-32.500 Z-3.000
G2 X-50.520 Y-32.254 Z-3.000 I-0.537 J5.845 K0.000
G1 X-46.766 Y-28.500 Z-3.000
G1 X-49.000 Y-28.500 Z-3.000
G2 X-49.272 Y-28.460 Z-3.000 I-0.062 J0.528 K0.000
G1 X-52.169 Y-31.357 Z-3.000
G2 X-53.334 Y-29.977 Z-3.000 I2.837 J3.577 K0.000
G1 X-50.000 Y-26.643 Z-3.000
G1 X-50.000 Y-24.097 Z-3.000
G1 X-53.966 Y-28.063 Z-3.000
G2 X-54.000 Y-25.551 Z-3.000 I20.743 J1.537 K0.000
G1 X-50.000 Y-21.551 Z-3.000
G1 X-50.000 Y-19.006 Z-3.000
G1 X-54.000 Y-23.006 Z-3.000
G1 X-54.000 Y-20.460 Z-3.000
G1 X-50.000 Y-16.460 Z-3.000
G1 X-50.000 Y-13.915 Z-3.000
G1 X-54.000 Y-17.915 Z-3.000
G1 X-54.000 Y-15.369 Z-3.000
G1 X-50.000 Y-11.369 Z-3.000
G1 X-50.000 Y-8.824 Z-3.000
G1 X-54.000 Y-12.824 Z-3.000
G1 X-54.000 Y-10.278 Z-3.000
G1 X-50.000 Y-6.278 Z-3.000
G1 X-50.000 Y-3.732 Z-3.000
G1 X-54.000 Y-7.732 Z-3.000
G1 X-54.000 Y-5.187 Z-3.000
G1 X-50.000 Y-1.187 Z-3.000
G1 X-50.000 Y1.359 Z-3.000
G1 X-54.000 Y-2.641 Z-3.000
G1 X-54.000 Y-0.096 Z-3.000
G1 X-50.000 Y3.904 Z-3.000
G1 X-50.000 Y6.450 Z-3.000
G1 X-54.000 Y2.450 Z-3.000
G1 X-54.000 Y4.996 Z-3.000
G1 X-50.000 Y8.996 Z-3.000
G1 X-50.000 Y11.541 Z-3.000
G1 X-54.000 Y7.541 Z-3.000
G1 X-54.000 Y10.087 Z-3.000
G1 X-50.000 Y14.087 Z-3.000
G1 X-50.000 Y16.632 Z-3.000
G1 X-54.000 Y12.632 Z-3.000
G1 X-54.000 Y15.178 Z-3.000
G1 X-50.000 Y19.178 Z-3.000
G1 X-50.000 Y21.723 Z-3.000
G1 X-54.000 Y17.723 Z-3.000
G1 X-54.000 Y20.269 Z-3.000
G1 X-50.000 Y24.269 Z-3.000
G1 X-50.000 Y26.815 Z-3.000
G1 X-54.000 Y22.815 Z-3.000
G0 Z5.000
G0 X2.691 Y-32.500 Z5.000
G0 X2.691 Y-32.500 Z3.000
G1 X2.691 Y-32.500 Z-3.000
G1 X4.345 Y-30.846 Z-3.000
G3 X5.000 Y-31.250 Z-3.000 I0.643 J0.310 K0.000
G1 X6.487 Y-31.250 Z-3.000
G1 X5.237 Y-32.500 Z-3.000
G1 X7.782 Y-32.500 Z-3.000
G1 X9.032 Y-31.250 Z-3.000
G1 X11.578 Y-31.250 Z-3.000
G1 X10.328 Y-32.500 Z-3.000
G1 X12.873 Y-32.500 Z-3.000
G1 X14.123 Y-31.250 Z-3.000
G1 X16.669 Y-31.250 Z-3.000
G1 X15.419 Y-32.500 Z-3.000
G1 X17.965 Y-32.500 Z-3.000
G1 X19.215 Y-31.250 Z-3.000
G1 X21.760 Y-31.250 Z-3.000
G1 X20.510 Y-32.500 Z-3.000
G1 X23.056 Y-32.500 Z-3.000
G1 X24.306 Y-31.250 Z-3.000
G1 X26.851 Y-31.250 Z-3.000
G1 X25.601 Y-32.500 Z-3.000
G1 X28.147 Y-32.500 Z-3.000
G1 X29.397 Y-31.250 Z-3.000
G1 X31.943 Y-31.250 Z-3.000
G1 X30.693 Y-32.500 Z-3.000
G1 X33.238 Y-32.500 Z-3.000
G1 X34.488 Y-31.250 Z-3.000
G1 X37.034 Y-31.250 Z-3.000
G1 X35.784 Y-32.500 Z-3.000
G1 X38.329 Y-32.500 Z-3.000
G1 X39.579 Y-31.250 Z-3.000
G1 X42.125 Y-31.250 Z-3.000
G1 X40.875 Y-32.500 Z-3.000
G1 X43.420 Y-32.500 Z-3.000
G1 X44.670 Y-31.250 Z-3.000
G1 X47.216 Y-31.250 Z-3.000
G1 X45.966 Y-32.500 Z-3.000
G1 X48.512 Y-32.500 Z-3.000
G1 X49.762 Y-31.250 Z-3.000
G1 X52.307 Y-31.250 Z-3.000
G1 X52.307 Y-31.250 Z-3.500
G1 X49.762 Y-31.250 Z-3.500
G1 X48.512 Y-32.500 Z-3.500
G1 X45.966 Y-32.500 Z-3.500
G1 X47.216 Y-31.250 Z-3.500
G1 X44.670 Y-31.250 Z-3.500
G1 X43.420 Y-32.500 Z-3.500
G1 X40.875 Y-32.500 Z-3.500
G1 X42.125 Y-31.250 Z-3.500
G1 X39.579 Y-31.250 Z-3.500
G1 X38.329 Y-32.500 Z-3.500
G1 X35.784 Y-32.500 Z-3.500
G1 X37.034 Y-31.250 Z-3.500
G1 X34.488 Y-31.250 Z-3.500
G1 X33.238 Y-32.500 Z-3.500
G1 X30.693 Y-32.500 Z-3.500
G1 X31.943 Y-31.250 Z-3.500
G1 X29.397 Y-31.250 Z-3.500
G1 X28.147 Y-32.500 Z-3.500
G1 X25.601 Y-32.500 Z-3.500
G1 X26.851 Y-31.250 Z-3.500
G1 X24.306 Y-31.250 Z-3.500
G1 X23.056 Y-32.500 Z-3.500
G1 X20.510 Y-32.500 Z-3.500
G1 X21.760 Y-31.250 Z-3.500
G1 X19.215 Y-31.250 Z-3.500
G1 X17.965 Y-32.500 Z-3.500
G1 X15.419 Y-32.500 Z-3.500
G1 X16.669 Y-31.250 Z-3.500
G1 X14.123 Y-31.250 Z-3.500
G1 X12.873 Y-32.500 Z-3.500
G1 X10.328 Y-32.500 Z-3.500
G1 X11.578 Y-31.250 Z-3.500
G1 X9.032 Y-31.250 Z-3.500
G1 X7.782 Y-32.500 Z-3.500
G1 X5.237 Y-32.500 Z-3.500
G1 X6.487 Y-31.250 Z-3.500
G1 X5.000 Y-31.250 Z-3.500
G2 X4.345 Y-30.846 Z-3.500 I-0.012 J0.714 K0.000
G1 X2.691 Y-32.500 Z-3.500
G0 Z5.000
G0 X-6.241 Y-31.250 Z5.000
G0 X-6.241 Y-31.250 Z3.000
G1 X-6.241 Y-31.250 Z-3.500
G1 X-7.491 Y-32.500 Z-3.500
G1 X-10.037 Y-32.500 Z-3.500
G1 X-8.787 Y-31.250 Z-3.500
G1 X-11.332 Y-31.250 Z-3.500
G1 X-12.582 Y-32.500 Z-3.500
G1 X-15.128 Y-32.500 Z-3.500
G1 X-13.878 Y-31.250 Z-3.500
G1 X-16.424 Y-31.250 Z-3.500
G1 X-17.674 Y-32.500 Z-3.500
G1 X-20.219 Y-32.500 Z-3.500
G1 X-18.969 Y-31.250 Z-3.500
G1 X-21.515 Y-31.250 Z-3.500
G1 X-22.765 Y-32.500 Z-3.500
G1 X-25.310 Y-32.500 Z-3.500
G1 X-24.060 Y-31.250 Z-3.500
G1 X-26.606 Y-31.250 Z-3.500
G1 X-27.856 Y-32.500 Z-3.500
G1 X-30.402 Y-32.500 Z-3.500
G1 X-29.152 Y-31.250 Z-3.500
G1 X-31.697 Y-31.250 Z-3.500
G1 X-32.947 Y-32.500 Z-3.500
G1 X-35.493 Y-32.500 Z-3.500
G1 X-34.243 Y-31.250 Z-3.500
G1 X-36.788 Y-31.250 Z-3.500
G1 X-38.038 Y-32.500 Z-3.500
G1 X-40.584 Y-32.500 Z-3.500
G1 X-39.334 Y-31.250 Z-3.500
G1 X-41.879 Y-31.250 Z-3.500
G1 X-43.129 Y-32.500 Z-3.500
G1 X-45.675 Y-32.500 Z-3.500
G1 X-44.425 Y-31.250 Z-3.500
G2 X-45.232 Y-31.213 Z-3.500 I-0.287 J2.565 K0.000
G2 X-45.000 Y-29.750 Z-3.500 I0.232 J0.713 K0.000
G1 X-42.925 Y-29.750 Z-3.500
G1 X-41.675 Y-28.500 Z-3.500
G1 X-44.221 Y-28.500 Z-3.500
G1 X-48.221 Y-32.500 Z-3.500
G2 X-50.520 Y-32.254 Z-3.500 I-0.537 J5.845 K0.000
G1 X-46.766 Y-28.500 Z-3.500
G1 X-49.000 Y-28.500 Z-3.500
G2 X-49.272 Y-28.460 Z-3.500 I-0.062 J0.528 K0.000
G1 X-52.169 Y-31.357 Z-3.500
G2 X-53.334 Y-29.977 Z-3.500 I2.837 J3.577 K0.000
G1 X-50.000 Y-26.643 Z-3.500
G1 X-50.000 Y-24.097 Z-3.500
G1 X-53.966 Y-28.063 Z-3.500
G2 X-54.000 Y-25.551 Z-3.500 I20.743 J1.537 K0.000
G1 X-50.000 Y-21.551 Z-3.500
G1 X-50.000 Y-19.006 Z-3.500
G1 X-54.000 Y-23.006 Z-3.500
G1 X-54.000 Y-20.460 Z-3.500
G1 X-50.000 Y-16.460 Z-3.500
G1 X-50.000 Y-13.915 Z-3.500
G1 X-54.000 Y-17.915 Z-3.500
G1 X-54.000 Y-15.369 Z-3.500
G1 X-50.000 Y-11.369 Z-3.500
G1 X-50.000 Y-8.824 Z-3.500
G1 X-54.000 Y-12.824 Z-3.500
G1 X-54.000 Y-10.278 Z-3.500
G1 X-50.000 Y-6.278 Z-3.500
G1 X-50.000 Y-3.732 Z-3.500
G1 X-54.000 Y-7.732 Z-3.500
G1 X-54.000 Y-5.187 Z-3.500
G1 X-50.000 Y-1.187 Z-3.500
G1 X-50.000 Y1.359 Z-3.500
G1 X-54.000 Y-2.641 Z-3.500
G1 X-54.000 Y-0.096 Z-3.500
G1 X-50.000 Y3.904 Z-3.500
G1 X-50.000 Y6.450 Z-3.500
G1 X-54.000 Y2.450 Z-3.500
G1 X-54.000 Y4.996 Z-3.500
G1 X-50.000 Y8.996 Z-3.500
G1 X-50.000 Y11.541 Z-3.500
G1 X-54.000 Y7.541 Z-3.500
G1 X-54.000 Y10.087 Z-3.500
G1 X-50.000 Y14.087 Z-3.500
G1 X-50.000 Y16.632 Z-3.500
G1 X-54.000 Y12.632 Z-3.500
G1 X-54.000 Y15.178 Z-3.500
G1 X-50.000 Y19.178 Z-3.500
G1 X-50.000 Y21.723 Z-3.500
G1 X-54.000 Y17.723 Z-3.500
G1 X-54.000 Y20.269 Z-3.500
G1 X-50.000 Y24.269 Z-3.500
G1 X-50.000 Y26.815 Z-3.500
G1 X-54.000 Y22.815 Z-3.500
G0 Z5.000
G0 X-49.432 Y32.474 Z5.000
G0 X-49.432 Y32.474 Z3.000
G1 X-49.432 Y32.474 Z-3.500
G3 X-53.974 Y27.932 Z-3.500 I0.410 J-4.951 K0.000
G1 X-49.432 Y32.474 Z-3.500
G1 X-49.000 Y32.500 Z-3.500
G1 X-46.860 Y32.500 Z-3.500
G1 X-54.000 Y25.360 Z-3.500
G1 X-54.000 Y22.815 Z-3.500
G1 X-50.000 Y26.815 Z-3.500
G1 X-50.000 Y27.500 Z-3.500
G2 X-49.259 Y28.466 Z-3.500 I1.000 J0.000 K0.000
G2 X-48.315 Y28.500 Z-3.500 I0.602 J-3.569 K0.000
G1 X-44.315 Y32.500 Z-3.500
G1 X-41.769 Y32.500 Z-3.500
G1 X-43.019 Y31.250 Z-3.500
G1 X-45.000 Y31.250 Z-3.500
G3 X-45.232 Y29.787 Z-3.500 I0.000 J-0.750 K0.000
G3 X-44.519 Y29.750 Z-3.500 I0.472 J2.232 K0.000
G1 X-45.769 Y28.500 Z-3.500
G1 X-43.223 Y28.500 Z-3.500
G1 X-41.973 Y29.750 Z-3.500
G1 X-39.428 Y29.750 Z-3.500
G1 X-40.678 Y28.500 Z-3.500
G1 X-38.132 Y28.500 Z-3.500
G1 X-36.882 Y29.750 Z-3.500
G1 X-34.337 Y29.750 Z-3.500
G1 X-35.587 Y28.500 Z-3.500
G1 X-33.041 Y28.500 Z-3.500
G1 X-31.791 Y29.750 Z-3.500
G1 X-29.246 Y29.750 Z-3.500
G1 X-30.496 Y28.500 Z-3.500
G1 X-27.950 Y28.500 Z-3.500
G1 X-26.700 Y29.750 Z-3.500
G1 X-24.154 Y29.750 Z-3.500
G1 X-25.404 Y28.500 Z-3.500
G1 X-22.859 Y28.500 Z-3.500
G1 X-21.609 Y29.750 Z-3.500
G1 X-19.063 Y29.750 Z-3.500
G1 X-20.313 Y28.500 Z-3.500
G1 X-17.768 Y28.500 Z-3.500
G1 X-16.518 Y29.750 Z-3.500
G1 X-13.972 Y29.750 Z-3.500
G1 X-15.222 Y28.500 Z-3.500
G1 X-12.676 Y28.500 Z-3.500
G1 X-11.426 Y29.750 Z-3.500
G1 X-8.881 Y29.750 Z-3.500
G1 X-10.131 Y28.500 Z-3.500
G1 X-7.585 Y28.500 Z-3.500
G1 X-6.335 Y29.750 Z-3.500
G0 Z5.000
G0 X2.597 Y28.500 Z5.000
G0 X2.597 Y28.500 Z3.000
G1 X2.597 Y28.500 Z-3.500
G1 X4.313 Y30.216 Z-3.500
G3 X5.000 Y29.750 Z-3.500 I0.680 J0.263 K0.000
G1 X6.393 Y29.750 Z-3.500
G1 X5.143 Y28.500 Z-3.500
G1 X7.688 Y28.500 Z-3.500
G1 X8.938 Y29.750 Z-3.500
G1 X11.484 Y29.750 Z-3.500
G1 X10.234 Y28.500 Z-3.500
G1 X12.779 Y28.500 Z-3.500
G1 X14.029 Y29.750 Z-3.500
G1 X16.575 Y29.750 Z-3.500
G1 X15.325 Y28.500 Z-3.500
G1 X17.871 Y28.500 Z-3.500
G1 X19.121 Y29.750 Z-3.500
G1 X21.666 Y29.750 Z-3.500
G1 X20.416 Y28.500 Z-3.500
G1 X22.962 Y28.500 Z-3.500
G1 X24.212 Y29.750 Z-3.500
G1 X26.757 Y29.750 Z-3.500
G1 X25.507 Y28.500 Z-3.500
G1 X28.053 Y28.500 Z-3.500
G1 X29.303 Y29.750 Z-3.500
G1 X31.848 Y29.750 Z-3.500
G1 X30.598 Y28.500 Z-3.500
G1 X33.144 Y28.500 Z-3.500
G1 X34.394 Y29.750 Z-3.500
G1 X36.940 Y29.750 Z-3.500
G1 X35.690 Y28.500 Z-3.500
G1 X38.235 Y28.500 Z-3.500
G1 X39.485 Y29.750 Z-3.500
G1 X42.031 Y29.750 Z-3.500
G1 X40.781 Y28.500 Z-3.500
G1 X43.326 Y28.500 Z-3.500
G1 X44.576 Y29.750 Z-3.500
G0 Z5.000
G0 X47.420 Y-28.500 Z5.000
G0 X47.420 Y-28.500 Z3.000
G1 X47.420 Y-28.500 Z-3.500
G1 X46.170 Y-29.750 Z-3.500
G1 X43.625 Y-29.750 Z-3.500
G1 X44.875 Y-28.500 Z-3.500
G1 X42.329 Y-28.500 Z-3.500
G1 X41.079 Y-29.750 Z-3.500
G1 X38.534 Y-29.750 Z-3.500
G1 X39.784 Y-28.500 Z-3.500
G1 X37.238 Y-28.500 Z-3.500
G1 X35.988 Y-29.750 Z-3.500
G1 X33.443 Y-29.750 Z-3.500
G1 X34.693 Y-28.500 Z-3.500
G1 X32.147 Y-28.500 Z-3.500
G1 X30.897 Y-29.750 Z-3.500
G1 X28.351 Y-29.750 Z-3.500
G1 X29.601 Y-28.500 Z-3.500
G1 X27.056 Y-28.500 Z-3.500
G1 X25.806 Y-29.750 Z-3.500
G1 X23.260 Y-29.750 Z-3.500
G1 X24.510 Y-28.500 Z-3.500
G1 X21.965 Y-28.500 Z-3.500
G1 X20.715 Y-29.750 Z-3.500
G1 X18.169 Y-29.750 Z-3.500
G1 X19.419 Y-28.500 Z-3.500
G1 X16.873 Y-28.500 Z-3.500
G1 X15.623 Y-29.750 Z-3.500
G1 X13.078 Y-29.750 Z-3.500
G1 X14.328 Y-28.500 Z-3.500
G1 X11.782 Y-28.500 Z-3.500
G1 X10.532 Y-29.750 Z-3.500
G1 X7.987 Y-29.750 Z-3.500
G1 X9.237 Y-28.500 Z-3.500
G1 X6.691 Y-28.500 Z-3.500
G1 X5.441 Y-29.750 Z-3.500
G3 X4.768 Y-29.787 Z-3.500 I-0.221 J-2.142 K0.000
G3 X4.345 Y-30.846 Z-3.500 I0.221 J-0.703 K0.000
G1 X2.691 Y-32.500 Z-3.500
G1 X0.146 Y-32.500 Z-3.500
G1 X4.146 Y-28.500 Z-3.500
G1 X1.600 Y-28.500 Z-3.500
G1 X-2.400 Y-32.500 Z-3.500
G1 X-4.946 Y-32.500 Z-3.500
G1 X-0.946 Y-28.500 Z-3.500
G1 X-3.491 Y-28.500 Z-3.500
G1 X-4.777 Y-29.785 Z-3.500
G1 X-5.000 Y-29.750 Z-3.500
G1 X-7.287 Y-29.750 Z-3.500
G1 X-6.037 Y-28.500 Z-3.500
G1 X-8.582 Y-28.500 Z-3.500
G1 X-9.832 Y-29.750 Z-3.500
G1 X-12.378 Y-29.750 Z-3.500
G1 X-11.128 Y-28.500 Z-3.500
G1 X-13.674 Y-28.500 Z-3.500
G1 X-14.924 Y-29.750 Z-3.500
G1 X-17.469 Y-29.750 Z-3.500
G1 X-16.219 Y-28.500 Z-3.500
G1 X-18.765 Y-28.500 Z-3.500
G1 X-20.015 Y-29.750 Z-3.500
G1 X-22.560 Y-29.750 Z-3.500
G1 X-21.310 Y-28.500 Z-3.500
G1 X-23.856 Y-28.500 Z-3.500
G1 X-25.106 Y-29.750 Z-3.500
G1 X-27.652 Y-29.750 Z-3.500
G1 X-26.402 Y-28.500 Z-3.500
G1 X-28.947 Y-28.500 Z-3.500
G1 X-30.197 Y-29.750 Z-3.500
G1 X-32.743 Y-29.750 Z-3.500
G1 X-31.493 Y-28.500 Z-3.500
G1 X-34.038 Y-28.500 Z-3.500
G1 X-35.288 Y-29.750 Z-3.500
G1 X-37.834 Y-29.750 Z-3.500
G1 X-36.584 Y-28.500 Z-3.500
G1 X-39.129 Y-28.500 Z-3.500
G1 X-40.379 Y-29.750 Z-3.500
G1 X-42.925 Y-29.750 Z-3.500
G1 X-41.675 Y-28.500 Z-3.500
G0 Z5.000
G0 X-41.769 Y32.500 Z5.000
G0 X-41.769 Y32.500 Z3.000
G1 X-41.769 Y32.500 Z-3.500
G1 X-43.019 Y31.250 Z-3.500
G1 X-40.473 Y31.250 Z-3.500
G1 X-39.223 Y32.500 Z-3.500
G1 X-36.678 Y32.500 Z-3.500
G1 X-37.928 Y31.250 Z-3.500
G1 X-35.382 Y31.250 Z-3.500
G1 X-34.132 Y32.500 Z-3.500
G1 X-31.587 Y32.500 Z-3.500
G1 X-32.837 Y31.250 Z-3.500
G1 X-30.291 Y31.250 Z-3.500
G1 X-29.041 Y32.500 Z-3.500
G1 X-26.496 Y32.500 Z-3.500
G1 X-27.746 Y31.250 Z-3.500
G1 X-25.200 Y31.250 Z-3.500
G1 X-23.950 Y32.500 Z-3.500
G1 X-21.404 Y32.500 Z-3.500
G1 X-22.654 Y31.250 Z-3.500
G1 X-20.109 Y31.250 Z-3.500
G1 X-18.859 Y32.500 Z-3.500
G1 X-16.313 Y32.500 Z-3.500
G1 X-17.563 Y31.250 Z-3.500
G1 X-15.018 Y31.250 Z-3.500
G1 X-13.768 Y32.500 Z-3.500
G1 X-11.222 Y32.500 Z-3.500
G1 X-12.472 Y31.250 Z-3.500
G1 X-9.926 Y31.250 Z-3.500
G1 X-8.676 Y32.500 Z-3.500
G1 X-6.131 Y32.500 Z-3.500
G1 X-7.381 Y31.250 Z-3.500
G1 X-5.000 Y31.250 Z-3.500
G1 X-4.858 Y31.227 Z-3.500
G1 X-3.585 Y32.500 Z-3.500
G1 X-1.040 Y32.500 Z-3.500
G1 X-5.040 Y28.500 Z-3.500
G1 X-2.494 Y28.500 Z-3.500
G1 X1.506 Y32.500 Z-3.500
G1 X4.051 Y32.500 Z-3.500
G1 X0.051 Y28.500 Z-3.500
G1 X2.597 Y28.500 Z-3.500
G1 X4.313 Y30.216 Z-3.500
G2 X4.768 Y31.213 Z-3.500 I0.677 J0.293 K0.000
G2 X5.347 Y31.250 Z-3.500 I0.405 J-1.809 K0.000
G1 X6.597 Y32.500 Z-3.500
G1 X9.143 Y32.500 Z-3.500
G1 X7.893 Y31.250 Z-3.500
G1 X10.438 Y31.250 Z-3.500
G1 X11.688 Y32.500 Z-3.500
G1 X14.234 Y32.500 Z-3.500
G1 X12.984 Y31.250 Z-3.500
G1 X15.529 Y31.250 Z-3.500
G1 X16.779 Y32.500 Z-3.500
G1 X19.325 Y32.500 Z-3.500
G1 X18.075 Y31.250 Z-3.500
G1 X20.621 Y31.250 Z-3.500
G1 X21.871 Y32.500 Z-3.500
G1 X24.416 Y32.500 Z-3.500
G1 X23.166 Y31.250 Z-3.500
G1 X25.712 Y31.250 Z-3.500
G1 X26.962 Y32.500 Z-3.500
G1 X29.507 Y32.500 Z-3.500
G1 X28.257 Y31.250 Z-3.500
G1 X30.803 Y31.250 Z-3.500
G1 X32.053 Y32.500 Z-3.500
G1 X34.598 Y32.500 Z-3.500
G1 X33.348 Y31.250 Z-3.500
G1 X35.894 Y31.250 Z-3.500
G1 X37.144 Y32.500 Z-3.500
G1 X39.690 Y32.500 Z-3.500
G1 X38.440 Y31.250 Z-3.500
G1 X40.985 Y31.250 Z-3.500
G1 X42.235 Y32.500 Z-3.500
G1 X44.781 Y32.500 Z-3.500
G1 X43.531 Y31.250 Z-3.500
G1 X45.000 Y31.250 Z-3.500
G2 X45.661 Y30.835 Z-3.500 I0.011 J-0.716 K0.000
G1 X47.326 Y32.500 Z-3.500
G1 X49.000 Y32.500 Z-3.500
G2 X49.799 Y32.427 Z-3.500 I0.101 J-3.328 K0.000
G1 X45.872 Y28.500 Z-3.500
G1 X48.418 Y28.500 Z-3.500
G1 X51.648 Y31.731 Z-3.500
G2 X52.978 Y30.515 Z-3.500 I-2.329 J-3.882 K0.000
G1 X49.996 Y27.533 Z-3.500
G1 X50.000 Y27.500 Z-3.500
G1 X50.000 Y24.991 Z-3.500
G1 X53.819 Y28.810 Z-3.500
G2 X53.964 Y28.103 Z-3.500 I-2.842 J-0.948 K0.000
G2 X54.000 Y26.446 Z-3.500 I-13.679 J-1.130 K0.000
G1 X50.000 Y22.446 Z-3.500
G1 X50.000 Y19.900 Z-3.500
G1 X54.000 Y23.900 Z-3.500
G1 X54.000 Y21.354 Z-3.500
G1 X50.000 Y17.354 Z-3.500
G1 X50.000 Y14.809 Z-3.500
G1 X54.000 Y18.809 Z-3.500
G1 X54.000 Y16.263 Z-3.500
G1 X50.000 Y12.263 Z-3.500
G1 X50.000 Y9.718 Z-3.500
G1 X54.000 Y13.718 Z-3.500
G1 X54.000 Y11.172 Z-3.500
G1 X50.000 Y7.172 Z-3.500
G1 X50.000 Y4.627 Z-3.500
G1 X54.000 Y8.627 Z-3.500
G1 X54.000 Y6.081 Z-3.500
G1 X50.000 Y2.081 Z-3.500
G1 X50.000 Y-0.465 Z-3.500
G1 X54.000 Y3.535 Z-3.500
G1 X54.000 Y0.990 Z-3.500
G1 X50.000 Y-3.010 Z-3.500
G1 X50.000 Y-5.556 Z-3.500
G1 X54.000 Y-1.556 Z-3.500
G1 X54.000 Y-4.101 Z-3.500
G1 X50.000 Y-8.101 Z-3.500
G1 X50.000 Y-10.647 Z-3.500
G1 X54.000 Y-6.647 Z-3.500
G1 X54.000 Y-9.193 Z-3.500
G1 X50.000 Y-13.193 Z-3.500
G1 X50.000 Y-15.738 Z-3.500
G1 X54.000 Y-11.738 Z-3.500
G1 X54.000 Y-14.284 Z-3.500
G1 X50.000 Y-18.284 Z-3.500
G1 X50.000 Y-20.829 Z-3.500
G1 X54.000 Y-16.829 Z-3.500
G1 X54.000 Y-19.375 Z-3.500
G1 X50.000 Y-23.375 Z-3.500
G1 X50.000 Y-25.920 Z-3.500
G1 X54.000 Y-21.920 Z-3.500
G1 X54.000 Y-24.466 Z-3.500
G1 X48.716 Y-29.750 Z-3.500
G1 X51.262 Y-29.750 Z-3.500
G1 X54.000 Y-27.012 Z-3.500
G2 X53.465 Y-29.750 Z-3.500 I-5.415 J-0.364 K0.000
G1 X51.262 Y-29.750 Z-3.500
G1 X51.262 Y-29.750 Z-4.000
G1 X53.465 Y-29.750 Z-4.000
G3 X54.000 Y-27.012 Z-4.000 I-4.880 J2.375 K0.000
G1 X51.262 Y-29.750 Z-4.000
G1 X48.716 Y-29.750 Z-4.000
G1 X54.000 Y-24.466 Z-4.000
G1 X54.000 Y-21.920 Z-4.000
G1 X50.000 Y-25.920 Z-4.000
G1 X50.000 Y-23.375 Z-4.000
G1 X54.000 Y-19.375 Z-4.000
G1 X54.000 Y-16.829 Z-4.000
G1 X50.000 Y-20.829 Z-4.000
G1 X50.000 Y-18.284 Z-4.000
G1 X54.000 Y-14.284 Z-4.000
G1 X54.000 Y-11.738 Z-4.000
G1 X50.000 Y-15.738 Z-4.000
G1 X50.000 Y-13.193 Z-4.000
G1 X54.000 Y-9.193 Z-4.000
G1 X54.000 Y-6.647 Z-4.000
G1 X50.000 Y-10.647 Z-4.000
G1 X50.000 Y-8.101 Z-4.000
G1 X54.000 Y-4.101 Z-4.000
G1 X54.000 Y-1.556 Z-4.000
G1 X50.000 Y-5.556 Z-4.000
G1 X50.000 Y-3.010 Z-4.000
G1 X54.000 Y0.990 Z-4.000
G1 X54.000 Y3.535 Z-4.000
G1 X50.000 Y-0.465 Z-4.000
G1 X50.000 Y2.081 Z-4.000
G1 X54.000 Y6.081 Z-4.000
G1 X54.000 Y8.627 Z-4.000
G1 X50.000 Y4.627 Z-4.000
G1 X50.000 Y7.172 Z-4.000
G1 X54.000 Y11.172 Z-4.000
G1 X54.000 Y13.718 Z-4.000
G1 X50.000 Y9.718 Z-4.000
G1 X50.000 Y12.263 Z-4.000
G1 X54.000 Y16.263 Z-4.000
G1 X54.000 Y18.809 Z-4.000
G1 X50.000 Y14.809 Z-4.000
G1 X50.000 Y17.354 Z-4.000
G1 X54.000 Y21.354 Z-4.000
G1 X54.000 Y23.900 Z-4.000
G1 X50.000 Y19.900 Z-4.000
G1 X50.000 Y22.446 Z-4.000
G1 X54.000 Y26.446 Z-4.000
G3 X53.964 Y28.103 Z-4.000 I-13.715 J0.527 K0.000
G3 X53.819 Y28.810 Z-4.000 I-2.987 J-0.240 K0.000
G1 X50.000 Y24.991 Z-4.000
G1 X50.000 Y27.500 Z-4.000
G1 X49.996 Y27.533 Z-4.000
G1 X52.978 Y30.515 Z-4.000
G3 X51.648 Y31.731 Z-4.000 I-3.659 J-2.666 K0.000
G1 X48.418 Y28.500 Z-4.000
G1 X45.872 Y28.500 Z-4.000
G1 X49.799 Y32.427 Z-4.000
G3 X49.000 Y32.500 Z-4.000 I-0.698 J-3.256 K0.000
G1 X47.326 Y32.500 Z-4.000
G1 X45.661 Y30.835 Z-4.000
G3 X45.000 Y31.250 Z-4.000 I-0.650 J-0.300 K0.000
G1 X43.531 Y31.250 Z-4.000
G1 X44.781 Y32.500 Z-4.000
G1 X42.235 Y32.500 Z-4.000
G1 X40.985 Y31.250 Z-4.000
G1 X38.440 Y31.250 Z-4.000
G1 X39.690 Y32.500 Z-4.000
G1 X37.144 Y32.500 Z-4.000
G1 X35.894 Y31.250 Z-4.000
G1 X33.348 Y31.250 Z-4.000
G1 X34.598 Y32.500 Z-4.000
G1 X32.053 Y32.500 Z-4.000
G1 X30.803 Y31.250 Z-4.000
G1 X28.257 Y31.250 Z-4.000
G1 X29.507 Y32.500 Z-4.000
G1 X26.962 Y32.500 Z-4.000
G1 X25.712 Y31.250 Z-4.000
G1 X23.166 Y31.250 Z-4.000
G1 X24.416 Y32.500 Z-4.000
G1 X21.871 Y32.500 Z-4.000
G1 X20.621 Y31.250 Z-4.000
G1 X18.075 Y31.250 Z-4.000
G1 X19.325 Y32.500 Z-4.000
G1 X16.779 Y32.500 Z-4.000
G1 X15.529 Y31.250 Z-4.000
G1 X12.984 Y31.250 Z-4.000
G1 X14.234 Y32.500 Z-4.000
G1 X11.688 Y32.500 Z-4.000
G1 X10.438 Y31.250 Z-4.000
G1 X7.893 Y31.250 Z-4.000
G1 X9.143 Y32.500 Z-4.000
G1 X6.597 Y32.500 Z-4.000
G1 X5.347 Y31.250 Z-4.000
G3 X4.768 Y31.213 Z-4.000 I-0.174 J-1.846 K0.000
G3 X4.313 Y30.216 Z-4.000 I0.222 J-0.704 K0.000
G1 X2.597 Y28.500 Z-4.000
G1 X0.051 Y28.500 Z-4.000
G1 X4.051 Y32.500 Z-4.000
G1 X1.506 Y32.500 Z-4.000
G1 X-2.494 Y28.500 Z-4.000
G1 X-5.040 Y28.500 Z-4.000
G1 X-1.040 Y32.500 Z-4.000
G1 X-3.585 Y32.500 Z-4.000
G1 X-4.858 Y31.227 Z-4.000
G1 X-5.000 Y31.250 Z-4.000
G1 X-7.381 Y31.250 Z-4.000
G1 X-6.131 Y32.500 Z-4.000
G1 X-8.676 Y32.500 Z-4.000
G1 X-9.926 Y31.250 Z-4.000
G1 X-12.472 Y31.250 Z-4.000
G1 X-11.222 Y32.500 Z-4.000
G1 X-13.768 Y32.500 Z-4.000
G1 X-15.018 Y31.250 Z-4.000
G1 X-17.563 Y31.250 Z-4.000
G1 X-16.313 Y32.500 Z-4.000
G1 X-18.859 Y32.500 Z-4.000
G1 X-20.109 Y31.250 Z-4.000
G1 X-22.654 Y31.250 Z-4.000
G1 X-21.404 Y32.500 Z-4.000
G1 X-23.950 Y32.500 Z-4.000
G1 X-25.200 Y31.250 Z-4.000
G1 X-27.746 Y31.250 Z-4.000
G1 X-26.496 Y32.500 Z-4.000
G1 X-29.041 Y32.500 Z-4.000
G1 X-30.291 Y31.250 Z-4.000
G1 X-32.837 Y31.250 Z-4.000
G1 X-31.587 Y32.500 Z-4.000
G1 X-34.132 Y32.500 Z-4.000
G1 X-35.382 Y31.250 Z-4.000
G1 X-37.928 Y31.250 Z-4.000
G1 X-36.678 Y32.500 Z-4.000
G1 X-39.223 Y32.500 Z-4.000
G1 X-40.473 Y31.250 Z-4.000
G1 X-43.019 Y31.250 Z-4.000
G1 X-41.769 Y32.500 Z-4.000
G0 Z5.000
G0 X-49.432 Y32.474 Z5.000
G0 X-49.432 Y32.474 Z3.000
G1 X-49.432 Y32.474 Z-4.000
G3 X-53.974 Y27.932 Z-4.000 I0.410 J-4.951 K0.000
G1 X-49.432 Y32.474 Z-4.000
G1 X-49.000 Y32.500 Z-4.000
G1 X-46.860 Y32.500 Z-4.000
G1 X-54.000 Y25.360 Z-4.000
G1 X-54.000 Y22.815 Z-4.000
G1 X-50.000 Y26.815 Z-4.000
G1 X-50.000 Y27.500 Z-4.000
G2 X-49.259 Y28.466 Z-4.000 I1.000 J0.000 K0.000
G2 X-48.315 Y28.500 Z-4.000 I0.602 J-3.569 K0.000
G1 X-44.315 Y32.500 Z-4.000
G1 X-41.769 Y32.500 Z-4.000
G1 X-43.019 Y31.250 Z-4.000
G1 X-45.000 Y31.250 Z-4.000
G3 X-45.232 Y29.787 Z-4.000 I0.000 J-0.750 K0.000
G3 X-44.519 Y29.750 Z-4.000 I0.472 J2.232 K0.000
G1 X-45.769 Y28.500 Z-4.000
G1 X-43.223 Y28.500 Z-4.000
G1 X-41.973 Y29.750 Z-4.000
G1 X-39.428 Y29.750 Z-4.000
G1 X-40.678 Y28.500 Z-4.000
G1 X-38.132 Y28.500 Z-4.000
G1 X-36.882 Y29.750 Z-4.000
G1 X-34.337 Y29.750 Z-4.000
G1 X-35.587 Y28.500 Z-4.000
G1 X-33.041 Y28.500 Z-4.000
G1 X-31.791 Y29.750 Z-4.000
G1 X-29.246 Y29.750 Z-4.000
G1 X-30.496 Y28.500 Z-4.000
G1 X-27.950 Y28.500 Z-4.000
G1 X-26.700 Y29.750 Z-4.000
G1 X-24.154 Y29.750 Z-4.000
G1 X-25.404 Y28.500 Z-4.000
G1 X-22.859 Y28.500 Z-4.000
G1 X-21.609 Y29.750 Z-4.000
G1 X-19.063 Y29.750 Z-4.000
G1 X-20.313 Y28.500 Z-4.000
G1 X-17.768 Y28.500 Z-4.000
G1 X-16.518 Y29.750 Z-4.000
G1 X-13.972 Y29.750 Z-4.000
G1 X-15.222 Y28.500 Z-4.000
G1 X-12.676 Y28.500 Z-4.000
G1 X-11.426 Y29.750 Z-4.000
G1 X-8.881 Y29.750 Z-4.000
G1 X-10.131 Y28.500 Z-4.000
G1 X-7.585 Y28.500 Z-4.000
G1 X-6.335 Y29.750 Z-4.000
G0 Z5.000
G0 X2.597 Y28.500 Z5.000
G0 X2.597 Y28.500 Z3.000
G1 X2.597 Y28.500 Z-4.000
G1 X4.313 Y30.216 Z-4.000
G3 X5.000 Y29.750 Z-4.000 I0.680 J0.263 K0.000
G1 X6.393 Y29.750 Z-4.000
G1 X5.143 Y28.500 Z-4.000
G1 X7.688 Y28.500 Z-4.000
G1 X8.938 Y29.750 Z-4.000
G1 X11.484 Y29.750 Z-4.000
G1 X10.234 Y28.500 Z-4.000
G1 X12.779 Y28.500 Z-4.000
G1 X14.029 Y29.750 Z-4.000
G1 X16.575 Y29.750 Z-4.000
G1 X15.325 Y28.500 Z-4.000
G1 X17.871 Y28.500 Z-4.000
G1 X19.121 Y29.750 Z-4.000
G1 X21.666 Y29.750 Z-4.000
G1 X20.416 Y28.500 Z-4.000
G1 X22.962 Y28.500 Z-4.000
G1 X24.212 Y29.750 Z-4.000
G1 X26.757 Y29.750 Z-4.000
G1 X25.507 Y28.500 Z-4.000
G1 X28.053 Y28.500 Z-4.000
G1 X29.303 Y29.750 Z-4.000
G1 X31.848 Y29.750 Z-4.000
G1 X30.598 Y28.500 Z-4.000
G1 X33.144 Y28.500 Z-4.000
G1 X34.394 Y29.750 Z-4.000
G1 X36.940 Y29.750 Z-4.000
G1 X35.690 Y28.500 Z-4.000
G1 X38.235 Y28.500 Z-4.000
G1 X39.485 Y29.750 Z-4.000
G1 X42.031 Y29.750 Z-4.000
G1 X40.781 Y28.500 Z-4.000
G1 X43.326 Y28.500 Z-4.000
G1 X44.576 Y29.750 Z-4.000
G0 Z5.000
G0 X47.420 Y-28.500 Z5.000
G0 X47.420 Y-28.500 Z3.000
G1 X47.420 Y-28.500 Z-4.000
G1 X46.170 Y-29.750 Z-4.000
G1 X43.625 Y-29.750 Z-4.000
G1 X44.875 Y-28.500 Z-4.000
G1 X42.329 Y-28.500 Z-4.000
G1 X41.079 Y-29.750 Z-4.000
G1 X38.534 Y-29.750 Z-4.000
G1 X39.784 Y-28.500 Z-4.000
G1 X37.238 Y-28.500 Z-4.000
G1 X35.988 Y-29.750 Z-4.000
G1 X33.443 Y-29.750 Z-4.000
G1 X34.693 Y-28.500 Z-4.000
G1 X32.147 Y-28.500 Z-4.000
G1 X30.897 Y-29.750 Z-4.000
G1 X28.351 Y-29.750 Z-4.000
G1 X29.601 Y-28.500 Z-4.000
G1 X27.056 Y-28.500 Z-4.000
G1 X25.806 Y-29.750 Z-4.000
G1 X23.260 Y-29.750 Z-4.000
G1 X24.510 Y-28.500 Z-4.000
G1 X21.965 Y-28.500 Z-4.000
G1 X20.715 Y-29.750 Z-4.000
G1 X18.169 Y-29.750 Z-4.000
G1 X19.419 Y-28.500 Z-4.000
G1 X16.873 Y-28.500 Z-4.000
G1 X15.623 Y-29.750 Z-4.000
G1 X13.078 Y-29.750 Z-4.000
G1 X14.328 Y-28.500 Z-4.000
G1 X11.782 Y-28.500 Z-4.000
G1 X10.532 Y-29.750 Z-4.000
G1 X7.987 Y-29.750 Z-4.000
G1 X9.237 Y-28.500 Z-4.000
G1 X6.691 Y-28.500 Z-4.000
G1 X5.441 Y-29.750 Z-4.000
G3 X4.768 Y-29.787 Z-4.000 I-0.221 J-2.142 K0.000
G3 X4.345 Y-30.846 Z-4.000 I0.221 J-0.703 K0.000
G1 X2.691 Y-32.500 Z-4.000
G1 X0.146 Y-32.500 Z-4.000
G1 X4.146 Y-28.500 Z-4.000
G1 X1.600 Y-28.500 Z-4.000
G1 X-2.400 Y-32.500 Z-4.000
G1 X-4.946 Y-32.500 Z-4.000
G1 X-0.946 Y-28.500 Z-4.000
G1 X-3.491 Y-28.500 Z-4.000
G1 X-4.777 Y-29.785 Z-4.000
G1 X-5.000 Y-29.750 Z-4.000
G1 X-7.287 Y-29.750 Z-4.000
G1 X-6.037 Y-28.500 Z-4.000
G1 X-8.582 Y-28.500 Z-4.000
G1 X-9.832 Y-29.750 Z-4.000
G1 X-12.378 Y-29.750 Z-4.000
G1 X-11.128 Y-28.500 Z-4.000
G1 X-13.674 Y-28.500 Z-4.000
G1 X-14.924 Y-29.750 Z-4.000
G1 X-17.469 Y-29.750 Z-4.000
G1 X-16.219 Y-28.500 Z-4.000
G1 X-18.765 Y-28.500 Z-4.000
G1 X-20.015 Y-29.750 Z-4.000
G1 X-22.560 Y-29.750 Z-4.000
G1 X-21.310 Y-28.500 Z-4.000
G1 X-23.856 Y-28.500 Z-4.000
G1 X-25.106 Y-29.750 Z-4.000
G1 X-27.652 Y-29.750 Z-4.000
G1 X-26.402 Y-28.500 Z-4.000
G1 X-28.947 Y-28.500 Z-4.000
G1 X-30.197 Y-29.750 Z-4.000
G1 X-32.743 Y-29.750 Z-4.000
G1 X-31.493 Y-28.500 Z-4.000
G1 X-34.038 Y-28.500 Z-4.000
G1 X-35.288 Y-29.750 Z-4.000
G1 X-37.834 Y-29.750 Z-4.000
G1 X-36.584 Y-28.500 Z-4.000
G1 X-39.129 Y-28.500 Z-4.000
G1 X-40.379 Y-29.750 Z-4.000
G1 X-42.925 Y-29.750 Z-4.000
G1 X-41.675 Y-28.500 Z-4.000
G0 Z5.000
G0 X-6.241 Y-31.250 Z5.000
G0 X-6.241 Y-31.250 Z3.000
G1 X-6.241 Y-31.250 Z-4.000
G1 X-7.491 Y-32.500 Z-4.000
G1 X-10.037 Y-32.500 Z-4.000
G1 X-8.787 Y-31.250 Z-4.000
G1 X-11.332 Y-31.250 Z-4.000
G1 X-12.582 Y-32.500 Z-4.000
G1 X-15.128 Y-32.500 Z-4.000
G1 X-13.878 Y-31.250 Z-4.000
G1 X-16.424 Y-31.250 Z-4.000
G1 X-17.674 Y-32.500 Z-4.000
G1 X-20.219 Y-32.500 Z-4.000
G1 X-18.969 Y-31.250 Z-4.000
G1 X-21.515 Y-31.250 Z-4.000
G1 X-22.765 Y-32.500 Z-4.000
G1 X-25.310 Y-32.500 Z-4.000
G1 X-24.060 Y-31.250 Z-4.000
G1 X-26.606 Y-31.250 Z-4.000
G1 X-27.856 Y-32.500 Z-4.000
G1 X-30.402 Y-32.500 Z-4.000
G1 X-29.152 Y-31.250 Z-4.000
G1 X-31.697 Y-31.250 Z-4.000
G1 X-32.947 Y-32.500 Z-4.000
G1 X-35.493 Y-32.500 Z-4.000
G1 X-34.243 Y-31.250 Z-4.000
G1 X-36.788 Y-31.250 Z-4.000
G1 X-38.038 Y-32.500 Z-4.000
G1 X-40.584 Y-32.500 Z-4.000
G1 X-39.334 Y-31.250 Z-4.000
G1 X-41.879 Y-31.250 Z-4.000
G1 X-43.129 Y-32.500 Z-4.000
G1 X-45.675 Y-32.500 Z-4.000
G1 X-44.425 Y-31.250 Z-4.000
G2 X-45.232 Y-31.213 Z-4.000 I-0.287 J2.565 K0.000
G2 X-45.000 Y-29.750 Z-4.000 I0.232 J0.713 K0.000
G1 X-42.925 Y-29.750 Z-4.000
G1 X-41.675 Y-28.500 Z-4.000
G1 X-44.221 Y-28.500 Z-4.000
G1 X-48.221 Y-32.500 Z-4.000
G2 X-50.520 Y-32.254 Z-4.000 I-0.537 J5.845 K0.000
G1 X-46.766 Y-28.500 Z-4.000
G1 X-49.000 Y-28.500 Z-4.000
G2 X-49.272 Y-28.460 Z-4.000 I-0.062 J0.528 K0.000
G1 X-52.169 Y-31.357 Z-4.000
G2 X-53.334 Y-29.977 Z-4.000 I2.837 J3.577 K0.000
G1 X-50.000 Y-26.643 Z-4.000
G1 X-50.000 Y-24.097 Z-4.000
G1 X-53.966 Y-28.063 Z-4.000
G2 X-54.000 Y-25.551 Z-4.000 I20.743 J1.537 K0.000
G1 X-50.000 Y-21.551 Z-4.000
G1 X-50.000 Y-19.006 Z-4.000
G1 X-54.000 Y-23.006 Z-4.000
G1 X-54.000 Y-20.460 Z-4.000
G1 X-50.000 Y-16.460 Z-4.000
G1 X-50.000 Y-13.915 Z-4.000
G1 X-54.000 Y-17.915 Z-4.000
G1 X-54.000 Y-15.369 Z-4.000
G1 X-50.000 Y-11.369 Z-4.000
G1 X-50.000 Y-8.824 Z-4.000
G1 X-54.000 Y-12.824 Z-4.000
G1 X-54.000 Y-10.278 Z-4.000
G1 X-50.000 Y-6.278 Z-4.000
G1 X-50.000 Y-3.732 Z-4.000
G1 X-54.000 Y-7.732 Z-4.000
G1 X-54.000 Y-5.187 Z-4.000
G1 X-50.000 Y-1.187 Z-4.000
G1 X-50.000 Y1.359 Z-4.000
G1 X-54.000 Y-2.641 Z-4.000
G1 X-54.000 Y-0.096 Z-4.000
G1 X-50.000 Y3.904 Z-4.000
G1 X-50.000 Y6.450 Z-4.000
G1 X-54.000 Y2.450 Z-4.000
G1 X-54.000 Y4.996 Z-4.000
G1 X-50.000 Y8.996 Z-4.000
G1 X-50.000 Y11.541 Z-4.000
G1 X-54.000 Y7.541 Z-4.000
G1 X-54.000 Y10.087 Z-4.000
G1 X-50.000 Y14.087 Z-4.000
G1 X-50.000 Y16.632 Z-4.000
G1 X-54.000 Y12.632 Z-4.000
G1 X-54.000 Y15.178 Z-4.000
G1 X-50.000 Y19.178 Z-4.000
G1 X-50.000 Y21.723 Z-4.000
G1 X-54.000 Y17.723 Z-4.000
G1 X-54.000 Y20.269 Z-4.000
G1 X-50.000 Y24.269 Z-4.000
G1 X-50.000 Y26.815 Z-4.000
G1 X-54.000 Y22.815 Z-4.000
G0 Z5.000
G0 X2.691 Y-32.500 Z5.000
G0 X2.691 Y-32.500 Z3.000
G1 X2.691 Y-32.500 Z-4.000
G1 X4.345 Y-30.846 Z-4.000
G3 X5.000 Y-31.250 Z-4.000 I0.643 J0.310 K0.000
G1 X6.487 Y-31.250 Z-4.000
G1 X5.237 Y-32.500 Z-4.000
G1 X7.782 Y-32.500 Z-4.000
G1 X9.032 Y-31.250 Z-4.000
G1 X11.578 Y-31.250 Z-4.000
G1 X10.328 Y-32.500 Z-4.000
G1 X12.873 Y-32.500 Z-4.000
G1 X14.123 Y-31.250 Z-4.000
G1 X16.669 Y-31.250 Z-4.000
G1 X15.419 Y-32.500 Z-4.000
G1 X17.965 Y-32.500 Z-4.000
G1 X19.215 Y-31.250 Z-4.000
G1 X21.760 Y-31.250 Z-4.000
G1 X20.510 Y-32.500 Z-4.000
G1 X23.056 Y-32.500 Z-4.000
G1 X24.306 Y-31.250 Z-4.000
G1 X26.851 Y-31.250 Z-4.000
G1 X25.601 Y-32.500 Z-4.000
G1 X28.147 Y-32.500 Z-4.000
G1 X29.397 Y-31.250 Z-4.000
G1 X31.943 Y-31.250 Z-4.000
G1 X30.693 Y-32.500 Z-4.000
G1 X33.238 Y-32.500 Z-4.000
G1 X34.488 Y-31.250 Z-4.000
