; generated by PrusaSlicer 2.7.4 on 2024-05-01 at 18:06:13 UTC

; 

; external perimeters extrusion width = 0.42mm
; perimeters extrusion width = 0.44mm
; infill extrusion width = 0.44mm
; solid infill extrusion width = 0.44mm
; top infill extrusion width = 0.40mm
; support material extrusion width = 0.36mm
; first layer extrusion width = 0.42mm

; external perimeters extrusion width = 0.42mm
; perimeters extrusion width = 0.44mm
; infill extrusion width = 0.44mm
; solid infill extrusion width = 0.44mm
; top infill extrusion width = 0.40mm
; support material extrusion width = 0.36mm
; first layer extrusion width = 0.42mm

; external perimeters extrusion width = 0.42mm
; perimeters extrusion width = 0.44mm
; infill extrusion width = 0.44mm
; solid infill extrusion width = 0.44mm
; top infill extrusion width = 0.40mm
; support material extrusion width = 0.36mm
; first layer extrusion width = 0.42mm

M201 X500 Y500 Z100 E5000 ; sets maximum accelerations, mm/sec^2
M203 X500 Y500 Z10 E60 ; sets maximum feedrates, mm / sec
M204 S500 T1000 ; sets acceleration (S) and retract acceleration (R), mm/sec^2
M205 X8.00 Y8.00 Z0.40 E5.00 ; sets the jerk limits, mm/sec
M205 S0 T0 ; sets the minimum extruding and travel feed rate, mm/sec

; printing object Bottom-AssemblyBody.stl id:0 copy 0
; stop printing object Bottom-AssemblyBody.stl id:0 copy 0
; printing object Cover-AssemblyBody.stl id:1 copy 0
; stop printing object Cover-AssemblyBody.stl id:1 copy 0
; printing object Top-AssemblyBody.stl id:2 copy 0
; stop printing object Top-AssemblyBody.stl id:2 copy 0

;TYPE:Custom
G90 ; use absolute coordinates
M83 ; extruder relative mode
M104 S150 ; set temporary nozzle temp to prevent oozing during homing
M140 S90 ; set final bed temp
G4 S30 ; allow partial nozzle warmup
G28 ; home all axis
G1 Z50 F240
G1 X2.0 Y10 F3000
M104 S245 ; set final nozzle temp
M190 S90 ; wait for bed temp to stabilize
M109 S245 ; wait for nozzle temp to stabilize
G1 Z0.28 F240
G92 E0
G1 X2.0 Y140 E10 F1500 ; prime the nozzle
G1 X2.3 Y140 F5000
G92 E0
G1 X2.3 Y10 E10 F1200 ; prime the nozzle
G92 E0
G21 ; set units to millimeters
G90 ; use absolute coordinates
M83 ; use relative distances for extrusion
; Filament gcode
M107
;LAYER_CHANGE
;Z:0.2
;HEIGHT:0.2
G1 E-5 F3600
G1 Z.2 F9000
G1 X67.134 Y91.709
G1 Z.2
G1 E5 F2400
M204 S500
;TYPE:Skirt/Brim
;WIDTH:0.42
G1 F1200
G1 X68.803 Y90.669 E.06166
G1 X70.5 Y90.365 E.05406
G1 X160.5 Y90.365 E2.82189
G1 X162.427 Y90.761 E.06168
G1 X164.041 Y91.884 E.06165
G1 X165.081 Y93.553 E.06166
G1 X165.385 Y95.25 E.05406
G1 X165.385 Y104.75 E.29787
G1 X165.023 Y106.597 E.05901
G1 X149.313 Y145.064 E1.30281
G1 X148.218 Y146.698 E.06167
G1 X146.567 Y147.767 E.06167
G1 X144.79 Y148.102 E.0567
G1 X90.161 Y148.102 E1.71285
G1 X88.235 Y147.706 E.06165
G1 X86.62 Y146.583 E.06168
G1 X85.811 Y145.44 E.04391
G1 X66.15 Y106.973 E1.35451
G1 X65.615 Y104.75 E.07169
G1 X65.615 Y95.25 E.29787
G1 X66.011 Y93.323 E.06168
G1 X67.1 Y91.758 E.05978
G1 X67.1 Y91.758 F9000
G1 X67.421 Y91.994
G1 F1200
G1 X67.505 Y91.881 E.00441
G1 X69.147 Y90.949 E.0592
G1 X70.5 Y90.742 E.04292
G1 X160.5 Y90.742 E2.82189
G1 X162.347 Y91.137 E.05922
G1 X163.869 Y92.255 E.05921
G1 X164.801 Y93.897 E.0592
G1 X165.008 Y95.25 E.04292
G1 X165.008 Y104.75 E.29787
G1 X164.674 Y106.455 E.05448
G1 X148.964 Y144.921 E1.30278
G1 X147.899 Y146.481 E.05922
G1 X146.289 Y147.469 E.05923
G1 X144.79 Y147.725 E.04768
G1 X90.161 Y147.725 E1.71285
G1 X88.315 Y147.33 E.05919
G1 X86.792 Y146.212 E.05924
G1 X86.147 Y145.269 E.03582
G1 X66.486 Y106.802 E1.35451
G1 X65.992 Y104.75 E.06618
G1 X65.992 Y95.25 E.29787
G1 X66.387 Y93.403 E.05922
G1 X67.386 Y92.043 E.05291
G1 X67.386 Y92.043 F9000
G1 X67.699 Y92.286
G1 F1200
G1 X67.874 Y92.061 E.00894
G1 X69.486 Y91.245 E.05665
G1 X70.5 Y91.119 E.03204
G1 X160.5 Y91.119 E2.82189
G1 X162.263 Y91.514 E.05665
G1 X163.689 Y92.624 E.05666
G1 X164.505 Y94.236 E.05665
G1 X164.631 Y95.25 E.03204
G1 X164.631 Y104.75 E.29787
G1 X164.325 Y106.312 E.04991
G1 X148.615 Y144.779 E1.30281
G1 X147.582 Y146.262 E.05667
G1 X146.016 Y147.162 E.05663
G1 X144.79 Y147.348 E.03888
G1 X90.161 Y147.348 E1.71285
G1 X88.398 Y146.953 E.05665
G1 X86.483 Y145.097 E.08362
G1 X66.821 Y106.63 E1.35453
G1 X66.369 Y104.75 E.06063
G1 X66.369 Y95.25 E.29787
G1 X66.764 Y93.487 E.05665
G1 X67.662 Y92.333 E.04585
G1 X67.662 Y92.333 F9000
G1 X67.964 Y92.585
G1 F1200
G1 X68.242 Y92.251 E.01363
G1 X70.5 Y91.496 E.07465
G1 X160.5 Y91.496 E2.82189
G1 X162.176 Y91.891 E.05399
G1 X163.499 Y92.992 E.05397
G1 X164.254 Y95.25 E.07465
G1 X164.254 Y104.75 E.29787
G1 X163.975 Y106.169 E.04534
G1 X148.266 Y144.636 E1.3028
G1 X147.267 Y146.038 E.05398
G1 X145.747 Y146.847 E.05399
G1 X144.79 Y146.971 E.03026
G1 X90.161 Y146.971 E1.71285
G1 X88.486 Y146.576 E.05396
G1 X86.818 Y144.925 E.07359
G1 X67.157 Y106.459 E1.35449
G1 X66.746 Y104.75 E.05511
G1 X66.746 Y95.25 E.29787
G1 X67.141 Y93.574 E.05399
G1 X67.925 Y92.631 E.03845
G1 X67.925 Y92.631 F9000
G1 X68.214 Y92.891
G1 F1200
G1 X68.607 Y92.453 E.01845
G1 X70.5 Y91.873 E.06208
G1 X160.5 Y91.873 E2.82189
G1 X162.083 Y92.267 E.05115
G1 X163.297 Y93.357 E.05116
G1 X163.877 Y95.25 E.06208
G1 X163.877 Y104.75 E.29787
G1 X163.626 Y106.027 E.04081
G1 X147.916 Y144.494 E1.30281
G1 X146.953 Y145.81 E.05113
G1 X144.79 Y146.594 E.07214
G1 X90.161 Y146.594 E1.71285
G1 X88.578 Y146.2 E.05115
G1 X87.154 Y144.754 E.06363
G1 X67.493 Y106.287 E1.35451
G1 X67.123 Y104.75 E.04957
G1 X67.123 Y95.25 E.29787
G1 X67.517 Y93.667 E.05115
G1 X68.174 Y92.935 E.03084
G1 E-3.5 F3600
;WIPE_START
G1 F7200
G1 X68.214 Y92.891 E-.02825
G1 X68.607 Y92.453 E-.27952
G1 X70.5 Y91.873 E-.94043
G1 X71.03 Y91.873 E-.2518
;WIPE_END
; printing object Cover-AssemblyBody.stl id:1 copy 0
G1 X144.79 Y143.217 F9000
G1 E5 F2400
;TYPE:Support material
G1 F1200
G1 X90.161 Y143.217 E1.71285
G1 X90.161 Y138.962 E.13341
G1 X142.591 Y138.962 E1.64391
G1 X142.862 Y138.691 E.01202
G1 X142.862 Y136.337 E.07381
G1 X144.79 Y136.337 E.06045
G1 X144.79 Y143.16 E.21393
G1 X144.79 Y143.16 F9000
G1 X144.409 Y143.047
G1 F1200
G1 X144.409 Y136.676 E.19976
G1 X143.99 Y136.676 E.01314
G1 X143.99 Y142.877 E.19443
G1 X143.571 Y142.877 E.01314
G1 X143.571 Y136.676 E.19443
G1 X143.201 Y136.676 E.0116
G1 X143.152 Y142.877 E.19443
G1 X142.734 Y142.877 E.01311
G1 X142.734 Y139.3 E.11215
G1 X142.315 Y139.301 E.01314
G1 X142.315 Y142.877 E.11212
G1 X141.896 Y142.877 E.01314
G1 X141.896 Y139.301 E.11212
G1 X141.477 Y139.301 E.01314
G1 X141.477 Y142.877 E.11212
G1 X141.058 Y142.877 E.01314
G1 X141.058 Y139.301 E.11212
G1 X140.639 Y139.301 E.01314
G1 X140.639 Y142.877 E.11212
G1 X140.22 Y142.877 E.01314
G1 X140.22 Y139.301 E.11212
G1 X139.801 Y139.301 E.01314
G1 X139.801 Y142.877 E.11212
G1 X139.382 Y142.877 E.01314
G1 X139.382 Y139.301 E.11212
G1 X138.963 Y139.301 E.01314
G1 X138.963 Y142.877 E.11212
G1 X138.544 Y142.877 E.01314
G1 X138.544 Y139.301 E.11212
G1 X138.125 Y139.301 E.01314
G1 X138.125 Y142.877 E.11212
G1 X137.706 Y142.877 E.01314
G1 X137.706 Y139.301 E.11212
G1 X137.287 Y139.301 E.01314
G1 X137.287 Y142.877 E.11212
G1 X136.868 Y142.877 E.01314
G1 X136.868 Y139.301 E.11212
G1 X136.449 Y139.301 E.01314
G1 X136.449 Y142.877 E.11212
G1 X136.03 Y142.877 E.01314
G1 X136.03 Y139.301 E.11212
G1 X135.611 Y139.301 E.01314
G1 X135.611 Y142.877 E.11212
G1 X135.192 Y142.877 E.01314
G1 X135.192 Y139.301 E.11212
G1 X134.773 Y139.301 E.01314
G1 X134.773 Y142.877 E.11212
G1 X134.354 Y142.877 E.01314
G1 X134.354 Y139.301 E.11212
G1 X133.935 Y139.301 E.01314
G1 X133.935 Y142.877 E.11212
G1 X133.516 Y142.877 E.01314
G1 X133.516 Y139.301 E.11212
G1 X133.097 Y139.301 E.01314
G1 X133.097 Y142.877 E.11212
G1 X132.678 Y142.877 E.01314
G1 X132.678 Y139.301 E.11212
G1 X132.259 Y139.301 E.01314
G1 X132.259 Y142.877 E.11212
G1 X131.84 Y142.877 E.01314
G1 X131.84 Y139.301 E.11212
G1 X131.421 Y139.301 E.01314
G1 X131.421 Y142.877 E.11212
G1 X131.002 Y142.877 E.01314
G1 X131.002 Y139.301 E.11212
G1 X130.583 Y139.301 E.01314
G1 X130.583 Y142.877 E.11212
G1 X130.164 Y142.877 E.01314
G1 X130.164 Y139.301 E.11212
G1 X129.745 Y139.301 E.01314
G1 X129.745 Y142.877 E.11212
G1 X129.326 Y142.877 E.01314
G1 X129.326 Y139.301 E.11212
G1 X128.907 Y139.301 E.01314
G1 X128.907 Y142.877 E.11212
G1 X128.488 Y142.877 E.01314
G1 X128.488 Y139.301 E.11212
G1 X128.069 Y139.301 E.01314
G1 X128.069 Y142.877 E.11212
G1 X127.65 Y142.877 E.01314
G1 X127.65 Y139.301 E.11212
G1 X127.231 Y139.301 E.01314
G1 X127.231 Y142.877 E.11212
G1 X126.812 Y142.877 E.01314
G1 X126.812 Y139.301 E.11212
G1 X126.393 Y139.301 E.01314
G1 X126.393 Y142.877 E.11212
G1 X125.974 Y142.877 E.01314
G1 X125.974 Y139.301 E.11212
G1 X125.555 Y139.301 E.01314
G1 X125.555 Y142.877 E.11212
G1 X125.136 Y142.877 E.01314
G1 X125.136 Y139.301 E.11212
G1 X124.717 Y139.301 E.01314
G1 X124.717 Y142.877 E.11212
G1 X124.299 Y142.877 E.01311
G1 X124.299 Y139.301 E.11212
G1 X123.88 Y139.301 E.01314
G1 X123.88 Y142.877 E.11212
G1 X123.461 Y142.877 E.01314
G1 X123.461 Y139.301 E.11212
G1 X123.042 Y139.301 E.01314
G1 X123.042 Y142.877 E.11212
G1 X122.623 Y142.877 E.01314
G1 X122.623 Y139.301 E.11212
G1 X122.204 Y139.301 E.01314
G1 X122.204 Y142.877 E.11212
G1 X121.785 Y142.877 E.01314
G1 X121.785 Y139.301 E.11212
G1 X121.366 Y139.301 E.01314
G1 X121.366 Y142.877 E.11212
G1 X120.947 Y142.877 E.01314
G1 X120.947 Y139.301 E.11212
G1 X120.528 Y139.301 E.01314
G1 X120.528 Y142.877 E.11212
G1 X120.109 Y142.877 E.01314
G1 X120.109 Y139.301 E.11212
G1 X119.69 Y139.301 E.01314
G1 X119.69 Y142.877 E.11212
G1 X119.271 Y142.877 E.01314
G1 X119.271 Y139.301 E.11212
G1 X118.852 Y139.301 E.01314
G1 X118.852 Y142.877 E.11212
G1 X118.433 Y142.877 E.01314
G1 X118.433 Y139.301 E.11212
G1 X118.014 Y139.301 E.01314
G1 X118.014 Y142.877 E.11212
G1 X117.595 Y142.877 E.01314
G1 X117.595 Y139.301 E.11212
G1 X117.176 Y139.301 E.01314
G1 X117.176 Y142.877 E.11212
G1 X116.757 Y142.877 E.01314
G1 X116.757 Y139.301 E.11212
G1 X116.338 Y139.301 E.01314
G1 X116.338 Y142.877 E.11212
G1 X115.919 Y142.877 E.01314
G1 X115.919 Y139.301 E.11212
G1 X115.5 Y139.301 E.01314
G1 X115.5 Y142.877 E.11212
G1 X115.081 Y142.877 E.01314
G1 X115.081 Y139.301 E.11212
G1 X114.662 Y139.301 E.01314
G1 X114.662 Y142.877 E.11212
G1 X114.243 Y142.877 E.01314
G1 X114.243 Y139.301 E.11212
G1 X113.824 Y139.301 E.01314
G1 X113.824 Y142.877 E.11212
G1 X113.405 Y142.877 E.01314
G1 X113.405 Y139.301 E.11212
G1 X112.986 Y139.301 E.01314
G1 X112.986 Y142.877 E.11212
G1 X112.567 Y142.877 E.01314
G1 X112.567 Y139.301 E.11212
G1 X112.148 Y139.301 E.01314
G1 X112.148 Y142.877 E.11212
G1 X111.729 Y142.877 E.01314
G1 X111.729 Y139.301 E.11212
G1 X111.31 Y139.301 E.01314
G1 X111.31 Y142.877 E.11212
G1 X110.891 Y142.877 E.01314
G1 X110.891 Y139.301 E.11212
G1 X110.472 Y139.301 E.01314
G1 X110.472 Y142.877 E.11212
G1 X110.053 Y142.877 E.01314
G1 X110.053 Y139.301 E.11212
G1 X109.634 Y139.301 E.01314
G1 X109.634 Y142.877 E.11212
G1 X109.215 Y142.877 E.01314
G1 X109.215 Y139.301 E.11212
G1 X108.796 Y139.301 E.01314
G1 X108.796 Y142.877 E.11212
G1 X108.377 Y142.877 E.01314
G1 X108.377 Y139.301 E.11212
G1 X107.958 Y139.301 E.01314
G1 X107.958 Y142.877 E.11212
G1 X107.539 Y142.877 E.01314
G1 X107.539 Y139.301 E.11212
G1 X107.12 Y139.301 E.01314
G1 X107.12 Y142.877 E.11212
G1 X106.701 Y142.877 E.01314
G1 X106.701 Y139.301 E.11212
G1 X106.283 Y139.301 E.01311
G1 X106.283 Y142.877 E.11212
G1 X105.864 Y142.877 E.01314
G1 X105.864 Y139.301 E.11212
G1 X105.445 Y139.301 E.01314
G1 X105.445 Y142.877 E.11212
G1 X105.026 Y142.877 E.01314
G1 X105.026 Y139.301 E.11212
G1 X104.607 Y139.301 E.01314
G1 X104.607 Y142.877 E.11212
G1 X104.188 Y142.877 E.01314
G1 X104.188 Y139.301 E.11212
G1 X103.769 Y139.301 E.01314
G1 X103.769 Y142.877 E.11212
G1 X103.35 Y142.877 E.01314
G1 X103.35 Y139.301 E.11212
G1 X102.931 Y139.301 E.01314
G1 X102.931 Y142.877 E.11212
G1 X102.512 Y142.877 E.01314
G1 X102.512 Y139.301 E.11212
G1 X102.093 Y139.301 E.01314
G1 X102.093 Y142.877 E.11212
G1 X101.674 Y142.877 E.01314
G1 X101.674 Y139.301 E.11212
G1 X101.255 Y139.301 E.01314
G1 X101.255 Y142.877 E.11212
G1 X100.836 Y142.877 E.01314
G1 X100.836 Y139.301 E.11212
G1 X100.417 Y139.301 E.01314
G1 X100.417 Y142.877 E.11212
G1 X99.998 Y142.877 E.01314
G1 X99.998 Y139.301 E.11212
G1 X99.579 Y139.301 E.01314
G1 X99.579 Y142.877 E.11212
G1 X99.16 Y142.877 E.01314
G1 X99.16 Y139.301 E.11212
G1 X98.741 Y139.301 E.01314
G1 X98.741 Y142.877 E.11212
G1 X98.322 Y142.877 E.01314
G1 X98.322 Y139.301 E.11212
G1 X97.903 Y139.301 E.01314
G1 X97.903 Y142.877 E.11212
G1 X97.484 Y142.877 E.01314
G1 X97.484 Y139.301 E.11212
G1 X97.065 Y139.301 E.01314
G1 X97.065 Y142.877 E.11212
G1 X96.646 Y142.877 E.01314
G1 X96.646 Y139.301 E.11212
G1 X96.227 Y139.301 E.01314
G1 X96.227 Y142.877 E.11212
G1 X95.808 Y142.877 E.01314
G1 X95.808 Y139.301 E.11212
G1 X95.389 Y139.301 E.01314
G1 X95.389 Y142.877 E.11212
G1 X94.97 Y142.877 E.01314
G1 X94.97 Y139.301 E.11212
G1 X94.551 Y139.301 E.01314
G1 X94.551 Y142.877 E.11212
G1 X94.132 Y142.877 E.01314
G1 X94.132 Y139.301 E.11212
G1 X93.713 Y139.301 E.01314
G1 X93.713 Y142.877 E.11212
G1 X93.294 Y142.877 E.01314
G1 X93.294 Y139.301 E.11212
G1 X92.875 Y139.301 E.01314
G1 X92.875 Y142.877 E.11212
G1 X92.456 Y142.877 E.01314
G1 X92.456 Y139.301 E.11212
G1 X92.037 Y139.301 E.01314
G1 X92.037 Y142.877 E.11212
G1 X91.618 Y142.877 E.01314
G1 X91.618 Y139.301 E.11212
G1 X91.199 Y139.301 E.01314
G1 X91.199 Y142.877 E.11212
G1 X90.78 Y142.877 E.01314
G1 X90.78 Y139.132 E.11742
G1 E-3.5 F3600
;WIPE_START
G1 F7200
G1 X90.78 Y142.29 E-1.5
;WIPE_END
G1 X144.79 Y133.663 F9000
G1 E5 F2400
G1 F1200
G1 X142.862 Y133.663 E.06045
G1 X142.862 Y131.309 E.07381
G1 X142.591 Y131.038 E.01202
G1 X90.161 Y131.038 E1.64391
G1 X90.161 Y126.783 E.13341
G1 X144.79 Y126.783 E1.71285
G1 X144.79 Y133.606 E.21393
G1 X144.79 Y133.606 F9000
G1 X144.409 Y133.493
G1 F1200
G1 X144.409 Y127.123 E.19973
G1 X143.99 Y127.123 E.01314
G1 X143.99 Y133.324 E.19443
G1 X143.571 Y133.324 E.01314
G1 X143.571 Y127.123 E.19443
G1 X143.152 Y127.123 E.01314
G1 X143.152 Y131.12 E.12532
G1 X142.734 Y130.7 E.01858
G1 X142.734 Y127.123 E.11215
G1 X142.315 Y127.123 E.01314
G1 X142.315 Y130.699 E.11212
G1 X141.896 Y130.699 E.01314
G1 X141.896 Y127.123 E.11212
G1 X141.477 Y127.123 E.01314
G1 X141.477 Y130.699 E.11212
G1 X141.058 Y130.699 E.01314
G1 X141.058 Y127.123 E.11212
G1 X140.639 Y127.123 E.01314
G1 X140.639 Y130.699 E.11212
G1 X140.22 Y130.699 E.01314
G1 X140.22 Y127.123 E.11212
G1 X139.801 Y127.123 E.01314
G1 X139.801 Y130.699 E.11212
G1 X139.382 Y130.699 E.01314
G1 X139.382 Y127.123 E.11212
G1 X138.963 Y127.123 E.01314
G1 X138.963 Y130.699 E.11212
G1 X138.544 Y130.699 E.01314
G1 X138.544 Y127.123 E.11212
G1 X138.125 Y127.123 E.01314
G1 X138.125 Y130.699 E.11212
G1 X137.706 Y130.699 E.01314
G1 X137.706 Y127.123 E.11212
G1 X137.287 Y127.123 E.01314
G1 X137.287 Y130.699 E.11212
G1 X136.868 Y130.699 E.01314
G1 X136.868 Y127.123 E.11212
G1 X136.449 Y127.123 E.01314
G1 X136.449 Y130.699 E.11212
G1 X136.03 Y130.699 E.01314
G1 X136.03 Y127.123 E.11212
G1 X135.611 Y127.123 E.01314
G1 X135.611 Y130.699 E.11212
G1 X135.192 Y130.699 E.01314
G1 X135.192 Y127.123 E.11212
G1 X134.773 Y127.123 E.01314
G1 X134.773 Y130.699 E.11212
G1 X134.354 Y130.699 E.01314
G1 X134.354 Y127.123 E.11212
G1 X133.935 Y127.123 E.01314
G1 X133.935 Y130.699 E.11212
G1 X133.516 Y130.699 E.01314
G1 X133.516 Y127.123 E.11212
G1 X133.097 Y127.123 E.01314
G1 X133.097 Y130.699 E.11212
G1 X132.678 Y130.699 E.01314
G1 X132.678 Y127.123 E.11212
G1 X132.259 Y127.123 E.01314
G1 X132.259 Y130.699 E.11212
G1 X131.84 Y130.699 E.01314
G1 X131.84 Y127.123 E.11212
G1 X131.421 Y127.123 E.01314
G1 X131.421 Y130.699 E.11212
G1 X131.002 Y130.699 E.01314
G1 X131.002 Y127.123 E.11212
G1 X130.583 Y127.123 E.01314
G1 X130.583 Y130.699 E.11212
G1 X130.164 Y130.699 E.01314
G1 X130.164 Y127.123 E.11212
G1 X129.745 Y127.123 E.01314
G1 X129.745 Y130.699 E.11212
G1 X129.326 Y130.699 E.01314
G1 X129.326 Y127.123 E.11212
G1 X128.907 Y127.123 E.01314
G1 X128.907 Y130.699 E.11212
G1 X128.488 Y130.699 E.01314
