; generated by PrusaSlicer 2.7.4 on 2024-04-28 at 22:38:15 UTC

; 

; external perimeters extrusion width = 0.42mm
; perimeters extrusion width = 0.44mm
; infill extrusion width = 0.44mm
; solid infill extrusion width = 0.44mm
; top infill extrusion width = 0.40mm
; first layer extrusion width = 0.42mm

; external perimeters extrusion width = 0.42mm
; perimeters extrusion width = 0.44mm
; infill extrusion width = 0.44mm
; solid infill extrusion width = 0.44mm
; top infill extrusion width = 0.40mm
; first layer extrusion width = 0.42mm

M201 X500 Y500 Z100 E5000 ; sets maximum accelerations, mm/sec^2
M203 X500 Y500 Z10 E60 ; sets maximum feedrates, mm / sec
M204 S500 T1000 ; sets acceleration (S) and retract acceleration (R), mm/sec^2
M205 X8.00 Y8.00 Z0.40 E5.00 ; sets the jerk limits, mm/sec
M205 S0 T0 ; sets the minimum extruding and travel feed rate, mm/sec

; printing object ButtonMold-Body1 id:0 copy 0
; stop printing object ButtonMold-Body1 id:0 copy 0
; printing object ButtonMold-Body2 id:1 copy 0
; stop printing object ButtonMold-Body2 id:1 copy 0

;TYPE:Custom
G90 ; use absolute coordinates
M83 ; extruder relative mode
M104 S150 ; set temporary nozzle temp to prevent oozing during homing
M140 S70 ; set final bed temp
G4 S30 ; allow partial nozzle warmup
G28 ; home all axis
G1 Z50 F240
G1 X2.0 Y10 F3000
M104 S240 ; set final nozzle temp
M190 S70 ; wait for bed temp to stabilize
M109 S240 ; wait for nozzle temp to stabilize
G1 Z0.28 F240
G92 E0
G1 X2.0 Y140 E10 F1500 ; prime the nozzle
G1 X2.3 Y140 F5000
G92 E0
G1 X2.3 Y10 E10 F1200 ; prime the nozzle
G92 E0
G21 ; set units to millimeters
G90 ; use absolute coordinates
M83 ; use relative distances for extrusion
; Filament gcode
M107
;LAYER_CHANGE
;Z:0.2
;HEIGHT:0.2
G1 E-5 F3600
G1 Z.2 F9000
G1 X89.634 Y96.959
G1 Z.2
G1 E5 F2400
M204 S500
;TYPE:Skirt/Brim
;WIDTH:0.42
G1 F1200
G1 X91.303 Y95.919 E.06166
G1 X93 Y95.615 E.05406
G1 X138 Y95.615 E1.41094
G1 X139.927 Y96.011 E.06168
G1 X141.541 Y97.134 E.06165
G1 X142.581 Y98.803 E.06166
G1 X142.885 Y100.5 E.05406
G1 X142.885 Y130.5 E.94063
G1 X142.489 Y132.427 E.06168
G1 X141.366 Y134.041 E.06165
G1 X139.697 Y135.081 E.06166
G1 X138 Y135.385 E.05406
G1 X93 Y135.385 E1.41094
G1 X91.073 Y134.989 E.06168
G1 X89.459 Y133.866 E.06165
G1 X88.419 Y132.197 E.06166
G1 X88.115 Y130.5 E.05406
G1 X88.115 Y100.5 E.94063
G1 X88.511 Y98.573 E.06168
G1 X89.6 Y97.008 E.05978
G1 X89.6 Y97.008 F9000
G1 X89.921 Y97.244
G1 F1200
G1 X90.005 Y97.131 E.00441
G1 X91.647 Y96.199 E.0592
G1 X93 Y95.992 E.04292
G1 X138 Y95.992 E1.41094
G1 X139.847 Y96.387 E.05922
G1 X141.369 Y97.505 E.05921
G1 X142.301 Y99.147 E.0592
G1 X142.508 Y100.5 E.04292
G1 X142.508 Y130.5 E.94063
G1 X142.113 Y132.347 E.05922
G1 X140.995 Y133.869 E.05921
G1 X139.353 Y134.801 E.0592
G1 X138 Y135.008 E.04292
G1 X93 Y135.008 E1.41094
G1 X91.153 Y134.613 E.05922
G1 X89.631 Y133.495 E.05921
G1 X88.699 Y131.853 E.0592
G1 X88.492 Y130.5 E.04292
G1 X88.492 Y100.5 E.94063
G1 X88.887 Y98.653 E.05922
G1 X89.886 Y97.293 E.05291
G1 X89.886 Y97.293 F9000
G1 X90.199 Y97.536
G1 F1200
G1 X90.374 Y97.311 E.00894
G1 X91.986 Y96.495 E.05665
G1 X93 Y96.369 E.03204
G1 X138 Y96.369 E1.41094
G1 X139.763 Y96.764 E.05665
G1 X141.189 Y97.874 E.05666
G1 X142.005 Y99.486 E.05665
G1 X142.131 Y100.5 E.03204
G1 X142.131 Y130.5 E.94063
G1 X141.736 Y132.263 E.05665
G1 X140.626 Y133.689 E.05666
G1 X139.014 Y134.505 E.05665
G1 X138 Y134.631 E.03204
G1 X93 Y134.631 E1.41094
G1 X91.237 Y134.236 E.05665
G1 X89.811 Y133.126 E.05666
G1 X88.995 Y131.514 E.05665
G1 X88.869 Y130.5 E.03204
G1 X88.869 Y100.5 E.94063
G1 X89.264 Y98.737 E.05665
G1 X90.162 Y97.583 E.04585
G1 X90.162 Y97.583 F9000
G1 X90.464 Y97.835
G1 F1200
G1 X90.742 Y97.501 E.01363
G1 X93 Y96.746 E.07465
G1 X138 Y96.746 E1.41094
G1 X139.676 Y97.141 E.05399
G1 X140.999 Y98.242 E.05397
G1 X141.754 Y100.5 E.07465
G1 X141.754 Y130.5 E.94063
G1 X141.359 Y132.176 E.05399
G1 X140.258 Y133.499 E.05397
G1 X138 Y134.254 E.07465
G1 X93 Y134.254 E1.41094
G1 X91.324 Y133.859 E.05399
G1 X90.001 Y132.758 E.05397
G1 X89.246 Y130.5 E.07465
G1 X89.246 Y100.5 E.94063
G1 X89.641 Y98.824 E.05399
G1 X90.425 Y97.881 E.03845
G1 X90.425 Y97.881 F9000
G1 X90.714 Y98.141
G1 F1200
G1 X91.107 Y97.703 E.01845
G1 X93 Y97.123 E.06208
G1 X138 Y97.123 E1.41094
G1 X139.583 Y97.517 E.05115
G1 X140.797 Y98.607 E.05116
G1 X141.377 Y100.5 E.06208
G1 X141.377 Y130.5 E.94063
G1 X140.983 Y132.083 E.05115
G1 X139.893 Y133.297 E.05116
G1 X138 Y133.877 E.06208
G1 X93 Y133.877 E1.41094
G1 X91.417 Y133.483 E.05115
G1 X90.203 Y132.393 E.05116
G1 X89.623 Y130.5 E.06208
G1 X89.623 Y100.5 E.94063
G1 X90.017 Y98.917 E.05115
G1 X90.674 Y98.185 E.03084
G1 E-3.5 F3600
;WIPE_START
G1 F7200
G1 X90.714 Y98.141 E-.02825
G1 X91.107 Y97.703 E-.27952
G1 X93 Y97.123 E-.94043
G1 X93.53 Y97.123 E-.2518
;WIPE_END
; printing object ButtonMold-Body1 id:0 copy 0
G1 X94.064 Y101.564 F9000
G1 E5 F2400
;TYPE:Perimeter
;WIDTH:0.419999
G1 F1200
G1 X136.936 Y101.564 E1.34422
G1 X136.936 Y103.468 E.0597
G1 X136.936 Y109.436 E.18712
G1 X94.064 Y109.436 E1.34422
G1 X94.064 Y101.624 E.24494
G1 X94.064 Y101.624 F9000
G1 X93.687 Y101.187
G1 F1200
G1 X137.313 Y101.187 E1.36786
G1 X137.313 Y103.468 E.07152
G1 X137.313 Y109.813 E.19894
G1 X93.687 Y109.813 E1.36786
G1 X93.687 Y101.247 E.26858
G1 X93.31 Y100.81 F9000
;TYPE:External perimeter
G1 F1200
G1 X137.69 Y100.81 E1.3915
G1 X137.69 Y103.468 E.08334
G1 X137.69 Y110.19 E.21076
G1 X93.31 Y110.19 E1.3915
G1 X93.31 Y100.87 E.29222
G1 E-3.5 F3600
;WIPE_START
G1 F7200
G1 X93.31 Y100.81 E-.0285
G1 X96.408 Y100.81 E-1.4715
;WIPE_END
G1 X127.965 Y103.801 F9000
G1 E5 F2400
;TYPE:Perimeter
G1 F1200
G1 X128.025 Y103.699 E.00371
G1 X128.431 Y103.244 E.01912
G1 X128.919 Y102.879 E.01911
G1 X129.52 Y102.605 E.02071
G1 X130.152 Y102.464 E.0203
G1 X130.789 Y102.452 E.01998
G1 X131.386 Y102.57 E.01908
G1 X131.949 Y102.803 E.0191
G1 X132.454 Y103.144 E.01911
G1 X132.882 Y103.578 E.01911
G1 X133.216 Y104.088 E.01911
G1 X133.442 Y104.654 E.01911
G1 X133.551 Y105.254 E.01912
G1 X133.54 Y105.863 E.0191
G1 X133.407 Y106.458 E.01912
G1 X133.16 Y107.015 E.0191
G1 X132.807 Y107.512 E.01911
G1 X132.362 Y107.93 E.01914
G1 X131.844 Y108.25 E.01909
G1 X131.272 Y108.462 E.01913
G1 X130.67 Y108.556 E.0191
G1 X130.061 Y108.53 E.01911
G1 X129.47 Y108.382 E.0191
G1 X128.919 Y108.121 E.01912
G1 X128.431 Y107.756 E.01911
G1 X128.025 Y107.301 E.01912
G1 X127.752 Y106.839 E.01683
G1 X127.52 Y106.198 E.02137
G1 X127.44 Y105.594 E.0191
G1 X127.482 Y104.986 E.01911
G1 X127.52 Y104.802 E.00589
G1 X127.717 Y104.225 E.01912
G1 X127.935 Y103.853 E.01352
G1 X127.935 Y103.853 F9000
G1 X128.283 Y103.995
G1 F1200
G1 X128.314 Y103.941 E.00195
G1 X128.666 Y103.539 E.01675
G1 X129.091 Y103.214 E.01678
G1 X129.602 Y102.973 E.01771
G1 X130.234 Y102.832 E.0203
G1 X130.779 Y102.829 E.01709
G1 X131.302 Y102.937 E.01674
G1 X131.793 Y103.147 E.01674
G1 X132.234 Y103.45 E.01678
G1 X132.606 Y103.834 E.01676
G1 X132.894 Y104.285 E.01678
G1 X133.088 Y104.783 E.01676
G1 X133.178 Y105.31 E.01676
G1 X133.163 Y105.844 E.01675
G1 X133.042 Y106.365 E.01677
G1 X132.82 Y106.852 E.01678
G1 X132.506 Y107.285 E.01677
G1 X132.113 Y107.647 E.01675
G1 X131.655 Y107.924 E.01678
G1 X131.152 Y108.105 E.01676
G1 X130.623 Y108.182 E.01676
G1 X130.089 Y108.153 E.01677
G1 X129.572 Y108.02 E.01674
G1 X129.091 Y107.786 E.01677
G1 X128.666 Y107.461 E.01678
G1 X128.314 Y107.059 E.01675
G1 X128.048 Y106.595 E.01677
G1 X127.88 Y106.087 E.01678
G1 X127.816 Y105.556 E.01677
G1 X127.88 Y104.913 E.02026
G1 X128.048 Y104.405 E.01678
G1 X128.253 Y104.047 E.01293
G1 X128.253 Y104.047 F9000
G1 X128.603 Y104.184
;TYPE:External perimeter
G1 F1200
G1 X128.901 Y103.834 E.01441
G1 X129.263 Y103.55 E.01443
G1 X129.684 Y103.341 E.01474
G1 X130.316 Y103.2 E.0203
G1 X130.806 Y103.211 E.01537
G1 X131.253 Y103.317 E.0144
G1 X131.671 Y103.509 E.01442
G1 X132.042 Y103.781 E.01442
G1 X132.352 Y104.121 E.01443
G1 X132.589 Y104.515 E.01442
G1 X132.743 Y104.948 E.01441
G1 X132.807 Y105.404 E.01444
G1 X132.781 Y105.863 E.01441
G1 X132.631 Y106.374 E.0167
G1 X132.461 Y106.72 E.01209
G1 X132.18 Y107.084 E.01442
G1 X131.833 Y107.386 E.01442
G1 X131.433 Y107.613 E.01442
G1 X130.996 Y107.756 E.01442
G1 X130.539 Y107.809 E.01442
G1 X130.081 Y107.771 E.01441
G1 X129.639 Y107.643 E.01443
G1 X129.231 Y107.43 E.01443
G1 X128.874 Y107.14 E.01442
G1 X128.581 Y106.785 E.01443
G1 X128.365 Y106.38 E.01439
G1 X128.233 Y105.939 E.01443
G1 X128.191 Y105.481 E.01442
G1 X128.24 Y105.024 E.01441
G1 X128.415 Y104.521 E.0167
G1 X128.573 Y104.236 E.01022
G1 E-3.5 F3600
;WIPE_START
G1 F7200
G1 X128.603 Y104.184 E-.02852
G1 X128.901 Y103.834 E-.21835
G1 X129.263 Y103.55 E-.21855
G1 X129.684 Y103.341 E-.22326
G1 X130.316 Y103.2 E-.30758
G1 X130.806 Y103.211 E-.23281
G1 X131.253 Y103.317 E-.21821
G1 X131.354 Y103.363 E-.05272
;WIPE_END
G1 X125.494 Y105.567 F9000
G1 E5 F2400
;TYPE:Perimeter
G1 F1200
G1 X125.469 Y105.794 E.00716
G1 X125.29 Y106.113 E.01147
G1 X124.106 Y107.291 E.05237
G1 X123.472 Y107.693 E.02354
G1 X123.184 Y107.801 E.00964
G1 X122.565 Y107.906 E.01969
G1 X118.429 Y107.905 E.12968
G1 X117.785 Y107.791 E.02051
G1 X117.474 Y107.665 E.01052
G1 X116.986 Y107.357 E.01809
G1 X116.625 Y107.009 E.01572
G1 X116.368 Y106.578 E.01573
G1 X116.202 Y106.184 E.01341
G1 X116.125 Y105.855 E.01059
G1 X116.105 Y105.53 E.01021
G1 X116.164 Y104.932 E.01884
G1 X116.392 Y104.338 E.01995
G1 X116.739 Y103.869 E.01829
G1 X116.985 Y103.644 E.01045
G1 X117.473 Y103.335 E.01811
G1 X117.784 Y103.209 E.01052
G1 X118.429 Y103.095 E.02054
G1 X122.5 Y103.096 E.12764
G1 X123.039 Y103.159 E.01701
G1 X123.649 Y103.393 E.02049
G1 X124.167 Y103.764 E.01998
G1 X125.239 Y104.832 E.04745
G1 X125.434 Y105.115 E.01078
G1 X125.512 Y105.406 E.00945
G1 X125.501 Y105.507 E.00319
G1 X125.501 Y105.507 F9000
G1 X125.133 Y105.522
G1 F1200
G1 X125.137 Y105.556 E.00107
G1 X125.066 Y105.78 E.00737
G1 X124.708 Y106.164 E.01646
G1 X123.84 Y107.023 E.03829
G1 X123.283 Y107.366 E.02051
G1 X122.675 Y107.518 E.01965
G1 X122.565 Y107.529 E.00347
G1 X118.429 Y107.528 E.12968
G1 X117.862 Y107.422 E.01809
G1 X117.675 Y107.346 E.00633
G1 X117.187 Y107.038 E.01809
G1 X116.876 Y106.716 E.01404
G1 X116.616 Y106.245 E.01687
G1 X116.492 Y105.769 E.01542
G1 X116.521 Y105.086 E.02143
G1 X116.682 Y104.605 E.0159
G1 X116.98 Y104.176 E.01638
G1 X117.186 Y103.963 E.00929
G1 X117.675 Y103.654 E.01814
G1 X117.861 Y103.578 E.0063
G1 X118.429 Y103.472 E.01812
G1 X122.5 Y103.473 E.12764
G1 X122.925 Y103.518 E.0134
G1 X123.437 Y103.705 E.01709
G1 X123.901 Y104.031 E.01778
G1 X124.973 Y105.099 E.04745
G1 X125.111 Y105.323 E.00825
G1 X125.126 Y105.462 E.00438
G1 X125.126 Y105.462 F9000
G1 X124.761 Y105.519
;TYPE:External perimeter
G1 F1200
G1 X124.707 Y105.634 E.00398
G1 X123.575 Y106.755 E.04995
G1 X123.095 Y107.04 E.0175
G1 X122.565 Y107.152 E.01698
G1 X118.429 Y107.151 E.12968
G1 X117.877 Y107.028 E.01773
G1 X117.389 Y106.719 E.01811
G1 X117.183 Y106.496 E.00952
G1 X116.946 Y106.051 E.01581
G1 X116.859 Y105.682 E.01189
G1 X116.897 Y105.118 E.01772
G1 X117.06 Y104.692 E.0143
G1 X117.388 Y104.281 E.01649
G1 X117.876 Y103.972 E.01811
G1 X118.429 Y103.849 E.01776
G1 X122.5 Y103.85 E.12764
G1 X122.812 Y103.878 E.00982
G1 X123.226 Y104.017 E.01369
G1 X123.635 Y104.298 E.01556
G1 X124.707 Y105.366 E.04745
G1 X124.741 Y105.462 E.00319
G1 E-3.5 F3600
;WIPE_START
G1 F7200
G1 X124.761 Y105.519 E-.02869
G1 X124.707 Y105.634 E-.06035
G1 X123.575 Y106.755 E-.75674
G1 X123.095 Y107.04 E-.26516
G1 X122.565 Y107.152 E-.25731
G1 X122.288 Y107.152 E-.13175
;WIPE_END
G1 X112.921 Y103.143 F9000
G1 E5 F2400
;TYPE:Perimeter
G1 F1200
G1 X113.035 Y103.155 E.00359
G1 X113.527 Y103.335 E.01643
G1 X114.015 Y103.644 E.01811
G1 X114.32 Y103.947 E.01348
G1 X114.608 Y104.338 E.01523
G1 X114.843 Y104.997 E.02194
G1 X114.904 Y105.515 E.01635
G1 X114.793 Y106.201 E.02179
G1 X114.617 Y106.641 E.01486
G1 X114.249 Y107.146 E.01959
G1 X114.015 Y107.356 E.00986
G1 X113.527 Y107.665 E.01811
G1 X113.216 Y107.791 E.01052
G1 X112.571 Y107.905 E.02054
G1 X108.429 Y107.905 E.12987
G1 X107.785 Y107.791 E.02051
G1 X107.474 Y107.665 E.01052
G1 X106.986 Y107.357 E.01809
G1 X106.625 Y107.009 E.01572
G1 X106.368 Y106.578 E.01573
G1 X106.212 Y106.224 E.01213
G1 X106.125 Y105.855 E.01189
G1 X106.103 Y105.56 E.00928
G1 X106.146 Y105.054 E.01592
G1 X106.204 Y104.797 E.00826
G1 X106.392 Y104.338 E.01555
G1 X106.739 Y103.869 E.01829
G1 X106.985 Y103.644 E.01045
G1 X107.473 Y103.335 E.01811
G1 X107.784 Y103.209 E.01052
G1 X108.429 Y103.095 E.02054
G1 X112.5 Y103.096 E.12764
G1 X112.862 Y103.136 E.01142
G1 X112.862 Y103.136 F9000
G1 X112.873 Y103.512
G1 F1200
G1 X112.932 Y103.518 E.00186
G1 X113.325 Y103.654 E.01304
G1 X113.814 Y103.963 E.01814
G1 X114.24 Y104.463 E.0206
G1 X114.407 Y104.876 E.01397
G1 X114.511 Y105.255 E.01232
G1 X114.516 Y105.687 E.01355
G1 X114.384 Y106.245 E.01798
G1 X114.204 Y106.597 E.0124
G1 X113.814 Y107.037 E.01844
G1 X113.325 Y107.346 E.01814
G1 X113.139 Y107.422 E.0063
G1 X112.571 Y107.528 E.01812
G1 X108.429 Y107.528 E.12987
G1 X107.862 Y107.422 E.01809
G1 X107.675 Y107.346 E.00633
G1 X107.187 Y107.038 E.01809
G1 X106.876 Y106.716 E.01404
G1 X106.616 Y106.245 E.01687
G1 X106.492 Y105.769 E.01542
G1 X106.521 Y105.086 E.02143
G1 X106.682 Y104.605 E.0159
G1 X106.98 Y104.176 E.01638
G1 X107.186 Y103.963 E.00929
G1 X107.675 Y103.654 E.01814
G1 X107.861 Y103.578 E.0063
G1 X108.429 Y103.472 E.01812
G1 X112.5 Y103.473 E.12764
G1 X112.814 Y103.506 E.0099
G1 X112.814 Y103.506 F9000
G1 X112.829 Y103.881
;TYPE:External perimeter
G1 F1200
G1 X113.124 Y103.972 E.00968
G1 X113.612 Y104.281 E.01811
G1 X113.94 Y104.692 E.01649
G1 X114.126 Y105.23 E.01785
G1 X114.147 Y105.609 E.0119
G1 X114.042 Y106.087 E.01534
G1 X113.909 Y106.362 E.00958
G1 X113.612 Y106.719 E.01456
G1 X113.124 Y107.028 E.01811
G1 X112.571 Y107.151 E.01776
G1 X108.429 Y107.151 E.12987
G1 X107.877 Y107.028 E.01773
G1 X107.389 Y106.719 E.01811
G1 X107.183 Y106.496 E.00952
G1 X106.946 Y106.051 E.01581
G1 X106.859 Y105.682 E.01189
G1 X106.897 Y105.118 E.01772
G1 X107.06 Y104.692 E.0143
G1 X107.388 Y104.281 E.01649
G1 X107.876 Y103.972 E.01811
G1 X108.429 Y103.849 E.01776
G1 X112.5 Y103.85 E.12764
G1 X112.77 Y103.875 E.0085
G1 E-3.5 F3600
;WIPE_START
G1 F7200
G1 X112.829 Y103.881 E-.02817
G1 X113.124 Y103.972 E-.14664
G1 X113.612 Y104.281 E-.27436
G1 X113.94 Y104.692 E-.24977
G1 X114.126 Y105.23 E-.27039
G1 X114.147 Y105.609 E-.1803
G1 X114.042 Y106.087 E-.23246
G1 X113.934 Y106.311 E-.11791
;WIPE_END
G1 X95.498 Y105.421 F9000
G1 E5 F2400
;TYPE:Perimeter
G1 F1200
G1 X95.498 Y105.337 E.00263
G1 X95.761 Y104.832 E.01785
G1 X96.846 Y103.751 E.04802
G1 X97.227 Y103.463 E.01497
G1 X97.809 Y103.2 E.02002
G1 X98.404 Y103.097 E.01893
G1 X102.571 Y103.095 E.13065
G1 X103.105 Y103.178 E.01694
G1 X103.763 Y103.459 E.02243
G1 X104.26 Y103.869 E.0202
G1 X104.608 Y104.338 E.01831
G1 X104.833 Y104.919 E.01954
G1 X104.897 Y105.56 E.0202
G1 X104.875 Y105.855 E.00928
G1 X104.726 Y106.403 E.01781
G1 X104.499 Y106.831 E.01519
G1 X104.249 Y107.146 E.01261
G1 X104.014 Y107.357 E.0099
G1 X103.526 Y107.665 E.01809
G1 X103.215 Y107.791 E.01052
G1 X102.571 Y107.905 E.02051
G1 X98.435 Y107.906 E.12968
G1 X97.816 Y107.801 E.01969
G1 X97.296 Y107.58 E.01772
G1 X96.833 Y107.236 E.01809
G1 X95.761 Y106.168 E.04745
G1 X95.498 Y105.663 E.01785
G1 X95.498 Y105.481 E.00571
G1 X95.498 Y105.481 F9000
G1 X95.877 Y105.439
G1 F1200
G1 X95.882 Y105.346 E.00292
G1 X96.027 Y105.099 E.00898
G1 X97.112 Y104.019 E.048
G1 X97.4 Y103.797 E.0114
G1 X97.885 Y103.57 E.01679
G1 X98.404 Y103.474 E.01655
G1 X102.571 Y103.472 E.13065
G1 X102.974 Y103.532 E.01278
G1 X103.542 Y103.764 E.01924
G1 X103.961 Y104.097 E.01678
G1 X104.281 Y104.526 E.01678
G1 X104.466 Y105.005 E.0161
G1 X104.521 Y105.591 E.01845
G1 X104.421 Y106.137 E.0174
G1 X104.204 Y106.597 E.01595
G1 X103.813 Y107.038 E.01848
G1 X103.325 Y107.346 E.01809
G1 X103.138 Y107.422 E.00633
G1 X102.571 Y107.528 E.01809
G1 X98.435 Y107.529 E.12968
G1 X97.889 Y107.431 E.01739
G1 X97.365 Y107.181 E.0182
G1 X96.812 Y106.683 E.02333
