; generated by PrusaSlicer 2.7.4 on 2024-04-14 at 22:25:28 UTC

; 

; external perimeters extrusion width = 0.42mm
; perimeters extrusion width = 0.44mm
; infill extrusion width = 0.44mm
; solid infill extrusion width = 0.44mm
; top infill extrusion width = 0.40mm
; first layer extrusion width = 0.42mm

; external perimeters extrusion width = 0.42mm
; perimeters extrusion width = 0.44mm
; infill extrusion width = 0.44mm
; solid infill extrusion width = 0.44mm
; top infill extrusion width = 0.40mm
; first layer extrusion width = 0.42mm

M201 X500 Y500 Z100 E5000 ; sets maximum accelerations, mm/sec^2
M203 X500 Y500 Z10 E60 ; sets maximum feedrates, mm / sec
M204 S500 T1000 ; sets acceleration (S) and retract acceleration (R), mm/sec^2
M205 X8.00 Y8.00 Z0.40 E5.00 ; sets the jerk limits, mm/sec
M205 S0 T0 ; sets the minimum extruding and travel feed rate, mm/sec

; printing object ButtonMold-Body id:1 copy 0
; stop printing object ButtonMold-Body id:1 copy 0
; printing object ButtonMold-Body id:0 copy 0
; stop printing object ButtonMold-Body id:0 copy 0

;TYPE:Custom
G90 ; use absolute coordinates
M83 ; extruder relative mode
M104 S150 ; set temporary nozzle temp to prevent oozing during homing
M140 S60 ; set final bed temp
G4 S30 ; allow partial nozzle warmup
G28 ; home all axis
G1 Z50 F240
G1 X2.0 Y10 F3000
M104 S215 ; set final nozzle temp
M190 S60 ; wait for bed temp to stabilize
M109 S215 ; wait for nozzle temp to stabilize
G1 Z0.28 F240
G92 E0
G1 X2.0 Y140 E10 F1500 ; prime the nozzle
G1 X2.3 Y140 F5000
G92 E0
G1 X2.3 Y10 E10 F1200 ; prime the nozzle
G92 E0
G21 ; set units to millimeters
G90 ; use absolute coordinates
M83 ; use relative distances for extrusion
; Filament gcode
M107
;LAYER_CHANGE
;Z:0.2
;HEIGHT:0.2
G1 E-5 F3600
G1 Z.2 F9000
G1 X90.134 Y101.959
G1 Z.2
G1 E5 F2400
M204 S500
;TYPE:Skirt/Brim
;WIDTH:0.42
G1 F1200
G1 X91.803 Y100.919 E.06166
G1 X93.5 Y100.615 E.05406
G1 X137.5 Y100.615 E1.37959
G1 X139.427 Y101.011 E.06168
G1 X141.041 Y102.134 E.06165
G1 X142.081 Y103.803 E.06166
G1 X142.385 Y105.5 E.05406
G1 X142.385 Y150.5 E1.41094
G1 X141.989 Y152.427 E.06168
G1 X140.866 Y154.041 E.06165
G1 X139.197 Y155.081 E.06166
G1 X137.5 Y155.385 E.05406
G1 X93.5 Y155.385 E1.37959
G1 X91.573 Y154.989 E.06168
G1 X89.959 Y153.866 E.06165
G1 X88.919 Y152.197 E.06166
G1 X88.615 Y150.5 E.05406
G1 X88.615 Y105.5 E1.41094
G1 X89.011 Y103.573 E.06168
G1 X90.1 Y102.008 E.05978
G1 X90.1 Y102.008 F9000
G1 X90.421 Y102.244
G1 F1200
G1 X90.505 Y102.131 E.00441
G1 X92.147 Y101.199 E.0592
G1 X93.5 Y100.992 E.04292
G1 X137.5 Y100.992 E1.37959
G1 X139.347 Y101.387 E.05922
G1 X140.869 Y102.505 E.05921
G1 X141.801 Y104.147 E.0592
G1 X142.008 Y105.5 E.04292
G1 X142.008 Y150.5 E1.41094
G1 X141.613 Y152.347 E.05922
G1 X140.495 Y153.869 E.05921
G1 X138.853 Y154.801 E.0592
G1 X137.5 Y155.008 E.04292
G1 X93.5 Y155.008 E1.37959
G1 X91.653 Y154.613 E.05922
G1 X90.131 Y153.495 E.05921
G1 X89.199 Y151.853 E.0592
G1 X88.992 Y150.5 E.04292
G1 X88.992 Y105.5 E1.41094
G1 X89.387 Y103.653 E.05922
G1 X90.386 Y102.293 E.05291
G1 X90.386 Y102.293 F9000
G1 X90.699 Y102.536
G1 F1200
G1 X90.874 Y102.311 E.00894
G1 X92.486 Y101.495 E.05665
G1 X93.5 Y101.369 E.03204
G1 X137.5 Y101.369 E1.37959
G1 X139.263 Y101.764 E.05665
G1 X140.689 Y102.874 E.05666
G1 X141.505 Y104.486 E.05665
G1 X141.631 Y105.5 E.03204
G1 X141.631 Y150.5 E1.41094
G1 X141.236 Y152.263 E.05665
G1 X140.126 Y153.689 E.05666
G1 X138.514 Y154.505 E.05665
G1 X137.5 Y154.631 E.03204
G1 X93.5 Y154.631 E1.37959
G1 X91.737 Y154.236 E.05665
G1 X90.311 Y153.126 E.05666
G1 X89.495 Y151.514 E.05665
G1 X89.369 Y150.5 E.03204
G1 X89.369 Y105.5 E1.41094
G1 X89.764 Y103.737 E.05665
G1 X90.662 Y102.583 E.04585
G1 X90.662 Y102.583 F9000
G1 X90.964 Y102.835
G1 F1200
G1 X91.242 Y102.501 E.01363
G1 X93.5 Y101.746 E.07465
G1 X137.5 Y101.746 E1.37959
G1 X139.176 Y102.141 E.05399
G1 X140.499 Y103.242 E.05397
G1 X141.254 Y105.5 E.07465
G1 X141.254 Y150.5 E1.41094
G1 X140.859 Y152.176 E.05399
G1 X139.758 Y153.499 E.05397
G1 X137.5 Y154.254 E.07465
G1 X93.5 Y154.254 E1.37959
G1 X91.824 Y153.859 E.05399
G1 X90.501 Y152.758 E.05397
G1 X89.746 Y150.5 E.07465
G1 X89.746 Y105.5 E1.41094
G1 X90.141 Y103.824 E.05399
G1 X90.925 Y102.881 E.03845
G1 X90.925 Y102.881 F9000
G1 X91.214 Y103.141
G1 F1200
G1 X91.607 Y102.703 E.01845
G1 X93.5 Y102.123 E.06208
G1 X137.5 Y102.123 E1.37959
G1 X139.083 Y102.517 E.05115
G1 X140.297 Y103.607 E.05116
G1 X140.877 Y105.5 E.06208
G1 X140.877 Y150.5 E1.41094
G1 X140.483 Y152.083 E.05115
G1 X139.393 Y153.297 E.05116
G1 X137.5 Y153.877 E.06208
G1 X93.5 Y153.877 E1.37959
G1 X91.917 Y153.483 E.05115
G1 X90.703 Y152.393 E.05116
G1 X90.123 Y150.5 E.06208
G1 X90.123 Y105.5 E1.41094
G1 X90.517 Y103.917 E.05115
G1 X91.174 Y103.185 E.03084
G1 E-3.5 F3600
;WIPE_START
G1 F7200
G1 X91.214 Y103.141 E-.02825
G1 X91.607 Y102.703 E-.27952
G1 X93.5 Y102.123 E-.94043
G1 X94.03 Y102.123 E-.2518
;WIPE_END
; printing object ButtonMold-Body id:0 copy 0
G1 X94.564 Y106.564 F9000
G1 E5 F2400
;TYPE:Perimeter
;WIDTH:0.419999
G1 F1200
G1 X103.572 Y106.564 E.28244
G1 X103.35 Y106.731 E.00871
G1 X102.918 Y107.176 E.01945
G1 X102.577 Y107.694 E.01944
G1 X102.338 Y108.266 E.01944
G1 X102.21 Y108.873 E.01945
G1 X102.198 Y109.493 E.01944
G1 X102.301 Y110.105 E.01946
G1 X102.516 Y110.686 E.01942
G1 X102.836 Y111.218 E.01947
G1 X103.25 Y111.68 E.01945
G1 X103.743 Y112.057 E.01946
G1 X104.339 Y112.347 E.02078
G1 X105.217 Y112.548 E.02824
G1 X105.821 Y112.546 E.01894
G1 X106.43 Y112.428 E.01945
G1 X107.043 Y112.175 E.02079
G1 X107.766 Y111.665 E.02774
G1 X108.176 Y111.2 E.01944
G1 X108.445 Y110.77 E.0159
G1 X108.656 Y110.254 E.01748
G1 X108.787 Y109.648 E.01944
G1 X108.804 Y109.028 E.01945
G1 X108.705 Y108.416 E.01944
G1 X108.493 Y107.833 E.01945
G1 X108.176 Y107.3 E.01944
G1 X107.766 Y106.835 E.01944
G1 X107.424 Y106.564 E.01368
G1 X123.572 Y106.564 E.50631
G1 X123.35 Y106.731 E.00871
G1 X122.918 Y107.176 E.01945
G1 X122.577 Y107.694 E.01944
G1 X122.338 Y108.266 E.01944
G1 X122.21 Y108.873 E.01945
G1 X122.198 Y109.493 E.01944
G1 X122.301 Y110.105 E.01946
G1 X122.516 Y110.686 E.01942
G1 X122.836 Y111.218 E.01947
G1 X123.25 Y111.68 E.01945
G1 X123.743 Y112.057 E.01946
G1 X124.339 Y112.347 E.02078
G1 X125.217 Y112.548 E.02824
G1 X125.821 Y112.546 E.01894
G1 X126.43 Y112.428 E.01945
G1 X127.006 Y112.199 E.01944
G1 X127.529 Y111.867 E.01942
G1 X127.982 Y111.442 E.01948
G1 X128.347 Y110.941 E.01944
G1 X128.624 Y110.338 E.02081
G1 X128.785 Y109.659 E.02188
G1 X128.804 Y109.028 E.01979
G1 X128.705 Y108.416 E.01944
G1 X128.493 Y107.833 E.01945
G1 X128.176 Y107.3 E.01944
G1 X127.766 Y106.835 E.01944
G1 X127.424 Y106.564 E.01368
G1 X136.436 Y106.564 E.28256
G1 X136.436 Y110.428 E.12115
G1 X136.436 Y124.436 E.43921
G1 X127.404 Y124.436 E.28319
G1 X127.766 Y124.165 E.01418
G1 X128.176 Y123.7 E.01944
G1 X128.493 Y123.167 E.01944
G1 X128.705 Y122.584 E.01945
G1 X128.804 Y121.972 E.01944
G1 X128.776 Y121.293 E.02131
G1 X128.656 Y120.746 E.01756
G1 X128.413 Y120.175 E.01946
G1 X128.068 Y119.66 E.01944
G1 X127.634 Y119.218 E.01942
G1 X127.124 Y118.864 E.01947
G1 X126.514 Y118.602 E.02082
G1 X125.641 Y118.442 E.02783
G1 X125.04 Y118.471 E.01887
G1 X124.422 Y118.619 E.01992
G1 X123.858 Y118.875 E.01942
G1 X123.35 Y119.231 E.01945
G1 X122.918 Y119.676 E.01945
G1 X122.577 Y120.194 E.01944
G1 X122.338 Y120.766 E.01944
G1 X122.21 Y121.373 E.01945
G1 X122.198 Y121.993 E.01944
G1 X122.301 Y122.605 E.01946
G1 X122.539 Y123.224 E.02079
G1 X123.033 Y123.959 E.02777
G1 X123.572 Y124.436 E.02257
G1 X107.404 Y124.436 E.50694
G1 X107.766 Y124.165 E.01418
G1 X108.176 Y123.7 E.01944
G1 X108.493 Y123.167 E.01944
G1 X108.705 Y122.584 E.01945
G1 X108.804 Y121.972 E.01944
G1 X108.787 Y121.352 E.01945
G1 X108.656 Y120.746 E.01944
G1 X108.413 Y120.175 E.01946
G1 X108.068 Y119.66 E.01944
G1 X107.634 Y119.218 E.01942
G1 X107.124 Y118.864 E.01947
G1 X106.514 Y118.602 E.02082
G1 X105.641 Y118.442 E.02783
G1 X105.04 Y118.471 E.01887
G1 X104.422 Y118.619 E.01992
G1 X103.858 Y118.875 E.01942
G1 X103.35 Y119.231 E.01945
G1 X102.918 Y119.676 E.01945
G1 X102.577 Y120.194 E.01944
G1 X102.338 Y120.766 E.01944
G1 X102.21 Y121.373 E.01945
G1 X102.205 Y122.037 E.02082
G1 X102.395 Y122.9 E.02771
G1 X102.657 Y123.446 E.01899
G1 X103.032 Y123.958 E.0199
G1 X103.572 Y124.436 E.02261
G1 X94.564 Y124.436 E.28244
G1 X94.564 Y106.624 E.55848
G1 X94.564 Y106.624 F9000
G1 X94.187 Y106.187
G1 F1200
G1 X104.068 Y106.187 E.30981
;WIDTH:0.469097
G1 X104.188 Y106.212 E.00434
;WIDTH:0.518194
G1 X104.308 Y106.236 E.00484
;WIDTH:0.567292
G1 X104.429 Y106.261 E.00539
;WIDTH:0.616389
G1 X104.549 Y106.285 E.00584
;WIDTH:0.665486
G1 X104.669 Y106.31 E.00635
G1 X104.604 Y106.354 E.00406
;WIDTH:0.616803
G1 X104.54 Y106.398 E.00371
;WIDTH:0.56812
G1 X104.382 Y106.495 E.0081
;WIDTH:0.518747
G1 X104.224 Y106.592 E.00734
;WIDTH:0.469373
G1 X104.066 Y106.689 E.00657
;WIDTH:0.419999
G1 X103.614 Y107.001 E.01722
G1 X103.227 Y107.392 E.01725
G1 X102.921 Y107.849 E.01724
G1 X102.705 Y108.354 E.01722
G1 X102.587 Y108.891 E.01724
G1 X102.571 Y109.44 E.01722
G1 X102.658 Y109.983 E.01724
G1 X102.844 Y110.5 E.01723
G1 X103.124 Y110.974 E.01726
G1 X103.487 Y111.386 E.01722
G1 X103.921 Y111.724 E.01725
G1 X104.435 Y111.983 E.01805
G1 X105.226 Y112.171 E.02549
G1 X105.759 Y112.174 E.01671
G1 X106.3 Y112.074 E.01725
G1 X106.835 Y111.861 E.01806
G1 X107.49 Y111.408 E.02497
G1 X107.845 Y111.017 E.01656
G1 X108.113 Y110.591 E.01578
G1 X108.305 Y110.116 E.01606
G1 X108.417 Y109.578 E.01723
G1 X108.427 Y109.028 E.01725
G1 X108.334 Y108.486 E.01724
G1 X108.142 Y107.971 E.01723
G1 X107.857 Y107.501 E.01723
G1 X107.49 Y107.092 E.01723
G1 X107.052 Y106.759 E.01725
G1 X106.561 Y106.513 E.01722
;WIDTH:0.46479
G1 X106.434 Y106.454 E.00491
;WIDTH:0.509581
G1 X106.308 Y106.395 E.0054
;WIDTH:0.554372
G1 X106.181 Y106.336 E.00596
;WIDTH:0.599162
G1 X106.055 Y106.277 E.00643
G1 X106.166 Y106.254 E.00524
;WIDTH:0.554372
G1 X106.277 Y106.232 E.00481
;WIDTH:0.509581
G1 X106.388 Y106.209 E.0044
;WIDTH:0.46479
G1 X106.499 Y106.187 E.00397
;WIDTH:0.419999
G1 X124.068 Y106.187 E.55086
;WIDTH:0.469097
G1 X124.188 Y106.212 E.00434
;WIDTH:0.518194
G1 X124.308 Y106.236 E.00484
;WIDTH:0.567292
G1 X124.429 Y106.261 E.00539
;WIDTH:0.616389
G1 X124.549 Y106.285 E.00584
;WIDTH:0.665486
G1 X124.669 Y106.31 E.00635
G1 X124.604 Y106.354 E.00406
;WIDTH:0.616803
G1 X124.54 Y106.398 E.00371
;WIDTH:0.56812
G1 X124.382 Y106.495 E.0081
;WIDTH:0.518747
G1 X124.224 Y106.592 E.00734
;WIDTH:0.469373
G1 X124.066 Y106.689 E.00657
;WIDTH:0.419999
G1 X123.614 Y107.001 E.01722
G1 X123.227 Y107.392 E.01725
G1 X122.921 Y107.849 E.01724
G1 X122.705 Y108.354 E.01722
G1 X122.587 Y108.891 E.01724
G1 X122.571 Y109.44 E.01722
G1 X122.658 Y109.983 E.01724
G1 X122.844 Y110.5 E.01723
G1 X123.124 Y110.974 E.01726
G1 X123.487 Y111.386 E.01722
G1 X123.921 Y111.724 E.01725
G1 X124.435 Y111.983 E.01805
G1 X125.226 Y112.171 E.02549
G1 X125.759 Y112.174 E.01671
G1 X126.3 Y112.074 E.01725
G1 X126.812 Y111.876 E.01721
G1 X127.279 Y111.585 E.01725
G1 X127.683 Y111.212 E.01724
G1 X128.011 Y110.771 E.01723
G1 X128.257 Y110.25 E.01806
G1 X128.416 Y109.584 E.02147
G1 X128.427 Y109.028 E.01744
G1 X128.334 Y108.486 E.01724
G1 X128.142 Y107.971 E.01723
G1 X127.857 Y107.501 E.01723
G1 X127.49 Y107.092 E.01723
G1 X127.052 Y106.759 E.01725
G1 X126.561 Y106.513 E.01722
;WIDTH:0.46479
G1 X126.434 Y106.454 E.00491
;WIDTH:0.509581
G1 X126.308 Y106.395 E.0054
;WIDTH:0.554372
G1 X126.181 Y106.336 E.00596
;WIDTH:0.599162
G1 X126.055 Y106.277 E.00643
G1 X126.166 Y106.254 E.00524
;WIDTH:0.554372
G1 X126.277 Y106.232 E.00481
;WIDTH:0.509581
G1 X126.388 Y106.209 E.0044
;WIDTH:0.46479
G1 X126.499 Y106.187 E.00397
;WIDTH:0.419999
G1 X136.813 Y106.187 E.32339
G1 X136.813 Y110.428 E.13297
G1 X136.813 Y124.813 E.45103
G1 X126.786 Y124.813 E.31439
;WIDTH:0.462837
G1 X126.673 Y124.792 E.00401
;WIDTH:0.505674
G1 X126.56 Y124.77 E.00443
;WIDTH:0.548512
G1 X126.447 Y124.749 E.00483
;WIDTH:0.591349
G1 X126.334 Y124.727 E.00525
;WIDTH:0.634186
G1 X126.221 Y124.706 E.00565
G1 X126.273 Y124.675 E.00298
;WIDTH:0.601504
G1 X126.325 Y124.644 E.00281
;WIDTH:0.568822
G1 X126.495 Y124.55 E.00849
;WIDTH:0.519215
G1 X126.665 Y124.456 E.00769
;WIDTH:0.469607
G1 X126.835 Y124.361 E.00691
;WIDTH:0.419999
G1 X127.49 Y123.908 E.02497
G1 X127.857 Y123.499 E.01723
G1 X128.142 Y123.029 E.01723
G1 X128.334 Y122.514 E.01723
G1 X128.427 Y121.972 E.01724
G1 X128.417 Y121.422 E.01725
G1 X128.305 Y120.884 E.01723
G1 X128.094 Y120.377 E.01722
G1 X127.793 Y119.917 E.01724
G1 X127.411 Y119.522 E.01723
G1 X126.961 Y119.204 E.01728
G1 X126.435 Y118.97 E.01805
G1 X125.649 Y118.819 E.0251
G1 X125.118 Y118.84 E.01666
G1 X124.569 Y118.966 E.01766
G1 X124.066 Y119.189 E.01725
G1 X123.614 Y119.501 E.01722
G1 X123.227 Y119.892 E.01725
G1 X122.921 Y120.349 E.01724
G1 X122.705 Y120.854 E.01722
G1 X122.587 Y121.391 E.01724
G1 X122.571 Y121.94 E.01722
G1 X122.658 Y122.483 E.01724
G1 X122.858 Y123.023 E.01806
G1 X123.213 Y123.586 E.02087
G1 X123.614 Y123.999 E.01805
G1 X124.066 Y124.311 E.01722
G1 X124.569 Y124.534 E.01725
;WIDTH:0.459047
G1 X124.699 Y124.584 E.00482
;WIDTH:0.498094
G1 X124.828 Y124.634 E.00524
;WIDTH:0.537141
G1 X124.958 Y124.685 E.00574
;WIDTH:0.576188
G1 X125.088 Y124.735 E.00618
G1 X124.977 Y124.754 E.00499
;WIDTH:0.537141
G1 X124.866 Y124.774 E.00463
;WIDTH:0.498094
G1 X124.755 Y124.793 E.00426
;WIDTH:0.459047
G1 X124.644 Y124.813 E.0039
;WIDTH:0.419999
G1 X106.786 Y124.813 E.55992
;WIDTH:0.462837
G1 X106.673 Y124.792 E.00401
;WIDTH:0.505674
G1 X106.56 Y124.77 E.00443
;WIDTH:0.548512
G1 X106.447 Y124.749 E.00483
;WIDTH:0.591349
G1 X106.334 Y124.727 E.00525
;WIDTH:0.634186
G1 X106.221 Y124.706 E.00565
G1 X106.273 Y124.675 E.00298
;WIDTH:0.601504
G1 X106.325 Y124.644 E.00281
;WIDTH:0.568822
G1 X106.495 Y124.55 E.00849
;WIDTH:0.519215
G1 X106.665 Y124.456 E.00769
;WIDTH:0.469607
G1 X106.835 Y124.361 E.00691
;WIDTH:0.419999
G1 X107.49 Y123.908 E.02497
G1 X107.857 Y123.499 E.01723
G1 X108.142 Y123.029 E.01723
G1 X108.334 Y122.514 E.01723
G1 X108.427 Y121.972 E.01724
G1 X108.417 Y121.422 E.01725
G1 X108.305 Y120.884 E.01723
G1 X108.094 Y120.377 E.01722
G1 X107.793 Y119.917 E.01724
G1 X107.411 Y119.522 E.01723
G1 X106.961 Y119.204 E.01728
G1 X106.435 Y118.97 E.01805
G1 X105.649 Y118.819 E.0251
G1 X105.118 Y118.84 E.01666
G1 X104.569 Y118.966 E.01766
G1 X104.066 Y119.189 E.01725
G1 X103.614 Y119.501 E.01722
G1 X103.227 Y119.892 E.01725
G1 X102.921 Y120.349 E.01724
G1 X102.705 Y120.854 E.01722
G1 X102.587 Y121.391 E.01724
G1 X102.575 Y121.967 E.01806
G1 X102.699 Y122.621 E.02087
G1 X102.915 Y123.14 E.01763
G1 X103.226 Y123.606 E.01757
G1 X103.614 Y123.999 E.01732
G1 X104.066 Y124.311 E.01722
G1 X104.569 Y124.534 E.01725
;WIDTH:0.459047
G1 X104.699 Y124.584 E.00482
;WIDTH:0.498094
G1 X104.828 Y124.634 E.00524
;WIDTH:0.537141
G1 X104.958 Y124.685 E.00574
;WIDTH:0.576188
G1 X105.088 Y124.735 E.00618
G1 X104.977 Y124.754 E.00499
;WIDTH:0.537141
G1 X104.866 Y124.774 E.00463
;WIDTH:0.498094
G1 X104.755 Y124.793 E.00426
;WIDTH:0.459047
G1 X104.644 Y124.813 E.0039
;WIDTH:0.419999
G1 X94.187 Y124.813 E.32787
G1 X94.187 Y106.247 E.58212
G1 X93.81 Y105.81 F9000
;TYPE:External perimeter
G1 F1200
G1 X137.19 Y105.81 E1.36015
G1 X137.19 Y110.428 E.14479
G1 X137.19 Y125.19 E.46285
G1 X93.81 Y125.19 E1.36015
G1 X93.81 Y105.87 E.60576
G1 E-3.5 F3600
;WIPE_START
G1 F7200
G1 X93.81 Y105.81 E-.0285
G1 X96.908 Y105.81 E-1.4715
;WIPE_END
G1 X123.083 Y108.408 F9000
G1 E5 F2400
G1 F1200
G1 X123.282 Y107.972 E.01503
G1 X123.559 Y107.581 E.01502
G1 X123.905 Y107.249 E.01504
G1 X124.306 Y106.986 E.01504
G1 X124.757 Y106.802 E.01527
G1 X125.402 Y106.694 E.02051
G1 X125.936 Y106.728 E.01678
G1 X126.398 Y106.853 E.01501
G1 X126.829 Y107.063 E.01503
G1 X127.214 Y107.349 E.01504
G1 X127.538 Y107.702 E.01502
G1 X127.791 Y108.109 E.01503
G1 X127.964 Y108.556 E.01503
G1 X128.05 Y109.028 E.01504
G1 X128.045 Y109.515 E.01527
G1 X127.89 Y110.163 E.02089
G1 X127.655 Y110.63 E.01639
G1 X127.306 Y111.056 E.01727
G1 X127 Y111.324 E.01275
G1 X126.587 Y111.567 E.01502
