; generated by PrusaSlicer 2.7.4 on 2024-06-02 at 22:34:10 UTC

; 

; external perimeters extrusion width = 0.42mm
; perimeters extrusion width = 0.44mm
; infill extrusion width = 0.44mm
; solid infill extrusion width = 0.44mm
; top infill extrusion width = 0.40mm
; support material extrusion width = 0.36mm
; first layer extrusion width = 0.42mm

M201 X500 Y500 Z100 E5000 ; sets maximum accelerations, mm/sec^2
M203 X500 Y500 Z10 E60 ; sets maximum feedrates, mm / sec
M204 S500 T1000 ; sets acceleration (S) and retract acceleration (R), mm/sec^2
M205 X8.00 Y8.00 Z0.40 E5.00 ; sets the jerk limits, mm/sec
M205 S0 T0 ; sets the minimum extruding and travel feed rate, mm/sec

; printing object Compartment-Part.stl id:0 copy 0
; stop printing object Compartment-Part.stl id:0 copy 0

;TYPE:Custom
G90 ; use absolute coordinates
M83 ; extruder relative mode
M104 S150 ; set temporary nozzle temp to prevent oozing during homing
M140 S60 ; set final bed temp
G4 S30 ; allow partial nozzle warmup
G28 ; home all axis
G1 Z50 F240
G1 X2.0 Y10 F3000
M104 S215 ; set final nozzle temp
M190 S60 ; wait for bed temp to stabilize
M109 S215 ; wait for nozzle temp to stabilize
G1 Z0.28 F240
G92 E0
G1 X2.0 Y140 E10 F1500 ; prime the nozzle
G1 X2.3 Y140 F5000
G92 E0
G1 X2.3 Y10 E10 F1200 ; prime the nozzle
G92 E0
G21 ; set units to millimeters
G90 ; use absolute coordinates
M83 ; use relative distances for extrusion
; Filament gcode
M107
;LAYER_CHANGE
;Z:0.2
;HEIGHT:0.2
G1 E-5 F3600
G1 Z.2 F9000
G1 X88.174 Y101.846
G1 Z.2
G1 E5 F2400
M204 S500
;TYPE:Skirt/Brim
;WIDTH:0.42
G1 F1200
G1 X89.817 Y100.763 E.0617
G1 X91.629 Y100.415 E.05785
G1 X139.371 Y100.415 E1.49692
G1 X141.298 Y100.811 E.06168
G1 X142.826 Y101.846 E.05787
G1 X145.754 Y104.774 E.12983
G1 X146.837 Y106.417 E.0617
G1 X147.185 Y108.229 E.05785
G1 X147.185 Y122.771 E.45595
G1 X146.789 Y124.698 E.06168
G1 X145.754 Y126.226 E.05787
G1 X142.826 Y129.154 E.12983
G1 X141.183 Y130.237 E.0617
G1 X139.371 Y130.585 E.05785
G1 X91.629 Y130.585 E1.49692
G1 X89.702 Y130.189 E.06168
G1 X88.174 Y129.154 E.05787
G1 X85.246 Y126.226 E.12983
G1 X84.163 Y124.583 E.0617
G1 X83.815 Y122.771 E.05785
G1 X83.815 Y108.229 E.45595
G1 X84.211 Y106.302 E.06168
G1 X85.246 Y104.774 E.05787
G1 X88.132 Y101.888 E.12797
G1 X88.399 Y102.155 F9000
G1 F1200
G1 X88.441 Y102.112 E.00188
G1 X90.027 Y101.086 E.05923
G1 X91.629 Y100.792 E.05107
G1 X139.371 Y100.792 E1.49692
G1 X141.218 Y101.187 E.05922
G1 X142.559 Y102.112 E.05108
G1 X145.488 Y105.041 E.12988
G1 X146.514 Y106.627 E.05923
G1 X146.808 Y108.229 E.05107
G1 X146.808 Y122.771 E.45595
G1 X146.413 Y124.618 E.05922
G1 X145.488 Y125.959 E.05108
G1 X142.559 Y128.888 E.12988
G1 X140.973 Y129.914 E.05923
G1 X139.371 Y130.208 E.05107
G1 X91.629 Y130.208 E1.49692
G1 X89.782 Y129.813 E.05922
G1 X88.441 Y128.888 E.05108
G1 X85.512 Y125.959 E.12988
G1 X84.486 Y124.373 E.05923
G1 X84.192 Y122.771 E.05107
G1 X84.192 Y108.229 E.45595
G1 X84.587 Y106.382 E.05922
G1 X85.512 Y105.041 E.05108
G1 X88.356 Y102.197 E.12611
G1 X88.356 Y102.197 F9000
G1 X88.623 Y102.464
G1 F1200
G1 X88.708 Y102.379 E.00377
G1 X90.234 Y101.411 E.05666
G1 X91.629 Y101.169 E.04439
G1 X139.371 Y101.169 E1.49692
G1 X141.134 Y101.564 E.05665
G1 X142.292 Y102.379 E.0444
G1 X145.221 Y105.308 E.12988
G1 X146.189 Y106.834 E.05666
G1 X146.431 Y108.229 E.04439
G1 X146.431 Y122.771 E.45595
G1 X146.036 Y124.534 E.05665
G1 X145.221 Y125.692 E.0444
G1 X142.292 Y128.621 E.12988
G1 X140.766 Y129.589 E.05666
G1 X139.371 Y129.831 E.04439
G1 X91.629 Y129.831 E1.49692
G1 X89.866 Y129.436 E.05665
G1 X88.708 Y128.621 E.0444
G1 X85.779 Y125.692 E.12988
G1 X84.811 Y124.166 E.05666
G1 X84.569 Y122.771 E.04439
G1 X84.569 Y108.229 E.45595
G1 X84.964 Y106.466 E.05665
G1 X85.779 Y105.308 E.0444
G1 X88.58 Y102.506 E.12422
G1 X88.58 Y102.506 F9000
G1 X88.847 Y102.773
G1 F1200
G1 X88.974 Y102.645 E.00565
G1 X90.438 Y101.74 E.05397
G1 X91.629 Y101.546 E.03784
G1 X139.371 Y101.546 E1.49692
G1 X141.047 Y101.941 E.05399
G1 X142.026 Y102.645 E.03781
G1 X144.955 Y105.574 E.12988
G1 X145.86 Y107.038 E.05397
G1 X146.054 Y108.229 E.03784
G1 X146.054 Y122.771 E.45595
G1 X145.659 Y124.447 E.05399
G1 X144.955 Y125.426 E.03781
G1 X142.026 Y128.355 E.12988
G1 X140.562 Y129.26 E.05397
G1 X139.371 Y129.454 E.03784
G1 X91.629 Y129.454 E1.49692
G1 X89.953 Y129.059 E.05399
G1 X88.974 Y128.355 E.03781
G1 X86.045 Y125.426 E.12988
G1 X85.14 Y123.962 E.05397
G1 X84.946 Y122.771 E.03784
G1 X84.946 Y108.229 E.45595
G1 X85.341 Y106.553 E.05399
G1 X86.045 Y105.574 E.03781
G1 X88.805 Y102.815 E.12236
G1 X88.805 Y102.815 F9000
G1 X89.071 Y103.082
G1 F1200
G1 X89.241 Y102.912 E.00754
G1 X90.639 Y102.071 E.05115
G1 X91.629 Y101.923 E.03139
G1 X139.371 Y101.923 E1.49692
G1 X140.954 Y102.317 E.05115
G1 X141.759 Y102.912 E.03139
G1 X144.688 Y105.841 E.12988
G1 X145.529 Y107.239 E.05115
G1 X145.677 Y108.229 E.03139
G1 X145.677 Y122.771 E.45595
G1 X145.283 Y124.354 E.05115
G1 X144.688 Y125.159 E.03139
G1 X141.759 Y128.088 E.12988
G1 X140.361 Y128.929 E.05115
G1 X139.371 Y129.077 E.03139
G1 X91.629 Y129.077 E1.49692
G1 X90.046 Y128.683 E.05115
G1 X89.241 Y128.088 E.03139
G1 X86.312 Y125.159 E.12988
G1 X85.471 Y123.761 E.05115
G1 X85.323 Y122.771 E.03139
G1 X85.323 Y108.229 E.45595
G1 X85.717 Y106.646 E.05115
G1 X86.312 Y105.841 E.03139
G1 X89.029 Y103.124 E.12048
G1 E-3.5 F3600
;WIPE_START
G1 F7200
G1 X89.071 Y103.082 E-.02821
G1 X89.241 Y102.912 E-.1142
G1 X90.639 Y102.071 E-.77495
G1 X91.629 Y101.923 E-.47548
G1 X91.855 Y101.923 E-.10716
;WIPE_END
G1 X91.055 Y106.365 F9000
G1 E5 F2400
G1 F1200
G1 X92.227 Y105.786 E.04099
G1 X93.29 Y105.587 E.03391
G1 X137.786 Y105.59 E1.39514
G1 X138.735 Y105.774 E.03031
G1 X139.643 Y106.165 E.031
G1 X140.862 Y107.188 E.0499
G1 X141.653 Y108.406 E.04554
G1 X142.014 Y109.792 E.04491
G1 X141.954 Y121.617 E.37077
G1 X141.571 Y122.774 E.03821
G1 X140.907 Y123.763 E.03735
G1 X139.945 Y124.635 E.04071
G1 X138.773 Y125.214 E.04099
G1 X137.71 Y125.413 E.03391
G1 X93.191 Y125.413 E1.39586
G1 X91.875 Y125.082 E.04255
G1 X90.724 Y124.381 E.04226
G1 X89.798 Y123.394 E.04243
G1 X89.186 Y122.174 E.0428
G1 X88.986 Y121.107 E.03404
G1 X89.034 Y109.456 E.36531
G1 X89.424 Y108.238 E.0401
G1 X90.092 Y107.238 E.03771
G1 X91.01 Y106.405 E.03887
G1 X91.01 Y106.405 F9000
G1 X91.264 Y106.684
G1 F1200
G1 X91.288 Y106.662 E.00102
G1 X92.368 Y106.136 E.03767
G1 X93.307 Y105.964 E.02993
G1 X137.768 Y105.967 E1.39404
G1 X138.641 Y106.14 E.0279
G1 X139.466 Y106.499 E.02821
G1 X140.597 Y107.458 E.04649
G1 X141.296 Y108.532 E.04018
G1 X141.637 Y109.816 E.04165
G1 X141.587 Y121.529 E.36726
G1 X141.242 Y122.587 E.03489
G1 X140.636 Y123.5 E.03436
G1 X139.712 Y124.338 E.03911
G1 X138.632 Y124.864 E.03767
G1 X137.693 Y125.036 E.02993
G1 X93.214 Y125.036 E1.39461
G1 X92.045 Y124.745 E.03777
G1 X90.981 Y124.104 E.03895
G1 X90.093 Y123.157 E.0407
G1 X89.536 Y122.032 E.03936
G1 X89.364 Y121.091 E.02999
G1 X89.402 Y109.541 E.36214
G1 X89.753 Y108.423 E.03674
G1 X90.363 Y107.501 E.03466
G1 X91.219 Y106.724 E.03625
G1 X91.219 Y106.724 F9000
G1 X91.469 Y106.997
G1 F1200
G1 X91.478 Y106.989 E.00038
G1 X92.509 Y106.487 E.03595
G1 X93.324 Y106.341 E.02596
G1 X137.748 Y106.344 E1.39288
G1 X138.546 Y106.505 E.02552
G1 X139.288 Y106.833 E.02544
G1 X140.33 Y107.726 E.04303
G1 X140.963 Y108.71 E.03669
G1 X141.259 Y109.839 E.0366
G1 X141.219 Y121.442 E.36381
G1 X140.912 Y122.403 E.03163
G1 X140.363 Y123.239 E.03136
G1 X139.522 Y124.011 E.03579
G1 X138.491 Y124.513 E.03595
G1 X137.677 Y124.659 E.02593
G1 X93.238 Y124.659 E1.39335
G1 X92.166 Y124.387 E.03468
G1 X91.201 Y123.796 E.03548
G1 X90.389 Y122.922 E.03741
G1 X89.887 Y121.891 E.03595
G1 X89.741 Y121.076 E.02596
G1 X89.771 Y109.625 E.35904
G1 X90.084 Y108.606 E.03342
G1 X90.636 Y107.762 E.03162
G1 X91.425 Y107.037 E.0336
G1 X91.425 Y107.037 F9000
G1 X91.68 Y107.315
G1 F1200
G1 X91.712 Y107.286 E.00135
G1 X92.648 Y106.838 E.03254
G1 X93.339 Y106.718 E.02199
G1 X137.729 Y106.721 E1.39182
G1 X138.448 Y106.87 E.02302
G1 X139.108 Y107.165 E.02267
G1 X140.062 Y107.992 E.03959
G1 X140.606 Y108.837 E.03151
G1 X140.882 Y109.864 E.03334
G1 X140.85 Y121.358 E.36039
G1 X140.581 Y122.22 E.02831
G1 X140.09 Y122.977 E.02829
G1 X139.288 Y123.714 E.03415
G1 X138.353 Y124.162 E.03251
G1 X137.661 Y124.282 E.02202
G1 X93.262 Y124.282 E1.3921
G1 X92.29 Y124.029 E.03149
G1 X91.423 Y123.49 E.03201
G1 X90.686 Y122.688 E.03415
G1 X90.238 Y121.753 E.03251
G1 X90.118 Y121.06 E.02205
G1 X90.14 Y109.706 E.356
G1 X90.416 Y108.787 E.03009
G1 X90.909 Y108.023 E.02851
G1 X91.636 Y107.356 E.03093
G1 X91.636 Y107.356 F9000
G1 X91.888 Y107.626
G1 F1200
G1 X91.901 Y107.614 E.00055
G1 X92.786 Y107.19 E.03077
G1 X93.354 Y107.095 E.01806
G1 X137.71 Y107.098 E1.39075
G1 X138.313 Y107.223 E.01931
G1 X138.928 Y107.497 E.02111
G1 X139.792 Y108.257 E.03608
G1 X140.272 Y109.014 E.0281
G1 X140.505 Y109.888 E.02836
G1 X140.482 Y121.275 E.35703
G1 X140.249 Y122.04 E.02507
G1 X139.815 Y122.719 E.02527
G1 X139.099 Y123.386 E.03068
G1 X138.214 Y123.81 E.03077
G1 X137.646 Y123.905 E.01806
G1 X93.287 Y123.905 E1.39085
G1 X92.415 Y123.673 E.02829
G1 X91.681 Y123.215 E.02713
G1 X91.014 Y122.499 E.03068
G1 X90.59 Y121.614 E.03077
G1 X90.495 Y121.046 E.01806
G1 X90.509 Y109.786 E.35305
G1 X90.749 Y108.966 E.02679
G1 X91.185 Y108.282 E.02543
G1 X91.844 Y107.667 E.02826
G1 X92.101 Y107.943 F9000
G1 F1200
G1 X92.136 Y107.91 E.00151
G1 X92.92 Y107.544 E.02713
G1 X93.369 Y107.472 E.01426
G1 X137.689 Y107.476 E1.38962
G1 X138.214 Y107.587 E.01682
G1 X138.745 Y107.828 E.01828
G1 X139.522 Y108.521 E.03264
G1 X139.916 Y109.141 E.02303
G1 X140.128 Y109.913 E.0251
G1 X140.113 Y121.192 E.35365
G1 X139.896 Y121.905 E.02337
G1 X139.54 Y122.459 E.02065
G1 X138.864 Y123.09 E.02899
G1 X138.08 Y123.456 E.02713
G1 X137.631 Y123.528 E.01426
G1 X93.313 Y123.528 E1.38956
G1 X92.542 Y123.317 E.02506
G1 X91.94 Y122.94 E.02227
G1 X91.31 Y122.264 E.02897
G1 X90.944 Y121.48 E.02713
G1 X90.872 Y121.032 E.01423
G1 X90.879 Y109.862 E.35023
G1 X91.083 Y109.142 E.02346
G1 X91.46 Y108.54 E.02227
G1 X92.057 Y107.984 E.02558
G1 X92.057 Y107.984 F9000
G1 X92.311 Y108.251
G1 F1200
G1 X92.324 Y108.238 E.00058
G1 X93.054 Y107.897 E.02526
G1 X137.668 Y107.853 E1.39884
G1 X138.111 Y107.95 E.01422
G1 X138.559 Y108.158 E.01549
G1 X139.25 Y108.783 E.02921
G1 X139.562 Y109.271 E.01816
G1 X139.751 Y109.94 E.0218
G1 X139.743 Y121.112 E.35029
G1 X139.562 Y121.728 E.02013
G1 X139.262 Y122.203 E.01762
G1 X138.676 Y122.762 E.02539
G1 X137.946 Y123.103 E.02526
G1 X93.34 Y123.151 E1.39859
G1 X92.671 Y122.962 E.0218
G1 X92.197 Y122.662 E.01759
G1 X91.638 Y122.076 E.02539
G1 X91.297 Y121.346 E.02526
G1 X91.249 Y109.94 E.35763
G1 X91.438 Y109.271 E.0218
G1 X91.738 Y108.797 E.01759
G1 X92.268 Y108.292 E.02295
G1 X92.268 Y108.292 F9000
G1 X92.517 Y108.564
G1 F1200
G1 X93.14 Y108.265 E.02167
G1 X93.396 Y108.226 E.00812
G1 X137.646 Y108.23 E1.38743
G1 X138.005 Y108.313 E.01155
G1 X138.371 Y108.485 E.01268
G1 X138.976 Y109.043 E.02581
G1 X139.208 Y109.405 E.01348
G1 X139.374 Y109.968 E.0184
G1 X139.374 Y121.032 E.3469
G1 X139.208 Y121.596 E.01843
G1 X138.983 Y121.949 E.01313
G1 X138.483 Y122.436 E.02188
G1 X137.86 Y122.735 E.02167
G1 X137.604 Y122.774 E.00812
G1 X93.368 Y122.774 E1.38699
G1 X92.804 Y122.608 E.01843
G1 X92.451 Y122.383 E.01313
G1 X91.964 Y121.883 E.02188
G1 X91.665 Y121.26 E.02167
G1 X91.626 Y121.004 E.00812
G1 X91.626 Y109.968 E.34603
G1 X91.792 Y109.404 E.01843
G1 X92.017 Y109.051 E.01313
G1 X92.474 Y108.606 E.02
G1 X92.474 Y108.606 F9000
G1 X92.713 Y108.887
G1 F1200
G1 X93.23 Y108.633 E.01806
G1 X137.624 Y108.607 E1.39194
G1 X138.182 Y108.813 E.01865
G1 X138.701 Y109.301 E.02234
G1 X138.997 Y109.998 E.02374
G1 X138.997 Y121.002 E.34502
G1 X138.702 Y121.698 E.0237
G1 X138.287 Y122.113 E.0184
G1 X137.77 Y122.367 E.01806
G1 X93.398 Y122.397 E1.39125
G1 X92.702 Y122.102 E.0237
G1 X92.287 Y121.687 E.0184
G1 X92.033 Y121.17 E.01806
G1 X92.003 Y109.998 E.35029
G1 X92.298 Y109.302 E.0237
G1 X92.671 Y108.93 E.01652
G1 X92.671 Y108.93 F9000
G1 X92.937 Y109.196
G1 F1200
G1 X92.957 Y109.176 E.00089
G1 X93.429 Y108.98 E.01602
G1 X137.719 Y109.011 E1.38868
G1 X137.992 Y109.14 E.00947
G1 X138.423 Y109.557 E.0188
G1 X138.62 Y110.029 E.01604
G1 X138.62 Y120.971 E.34308
G1 X138.422 Y121.444 E.01608
G1 X138.043 Y121.824 E.01683
G1 X137.571 Y122.02 E.01602
G1 X93.429 Y122.02 E1.38404
G1 X92.956 Y121.822 E.01608
G1 X92.576 Y121.443 E.01683
G1 X92.38 Y120.971 E.01602
G1 X92.38 Y110.029 E.34308
G1 X92.578 Y109.556 E.01608
G1 X92.895 Y109.239 E.01406
G1 X92.895 Y109.239 F9000
G1 X93.161 Y109.505
G1 F1200
G1 X93.2 Y109.467 E.00171
G1 X93.418 Y109.364 E.00756
G1 X137.582 Y109.364 E1.38473
G1 X137.8 Y109.467 E.00756
G1 X138.143 Y109.81 E.01521
G1 X138.243 Y110.064 E.00856
G1 X138.243 Y120.936 E.34088
G1 X138.143 Y121.19 E.00856
G1 X137.8 Y121.533 E.01521
G1 X137.582 Y121.636 E.00756
G1 X93.464 Y121.643 E1.38329
G1 X93.21 Y121.543 E.00856
G1 X92.867 Y121.2 E.01521
G1 X92.764 Y120.982 E.00756
G1 X92.757 Y110.064 E.34233
G1 X92.857 Y109.81 E.00856
G1 X93.119 Y109.548 E.01162
G1 X93.119 Y109.548 F9000
G1 X93.406 Y109.835
G1 F1200
G1 X93.506 Y109.734 E.00446
G1 X137.494 Y109.734 E1.37921
G1 X137.866 Y110.106 E.0165
G1 X137.866 Y120.894 E.33825
G1 X137.494 Y121.266 E.0165
G1 X93.506 Y121.266 E1.37921
G1 X93.134 Y120.894 E.0165
G1 X93.134 Y110.106 E.33825
G1 X93.364 Y109.877 E.01018
G1 X93.364 Y109.877 F9000
G1 X93.61 Y110.123
G1 F1200
G1 X93.622 Y110.111 E.00053
G1 X137.378 Y110.111 E1.37194
G1 X137.489 Y110.222 E.00492
G1 X137.489 Y120.778 E.33098
G1 X137.378 Y120.889 E.00492
G1 X93.622 Y120.889 E1.37194
G1 X93.511 Y120.778 E.00492
G1 X93.511 Y110.222 E.33098
G1 X93.567 Y110.166 E.00248
G1 E-3.5 F3600
;WIPE_START
G1 F7200
G1 X93.61 Y110.123 E-.02889
G1 X93.622 Y110.111 E-.00806
G1 X96.702 Y110.111 E-1.46305
;WIPE_END
; printing object Compartment-Part.stl id:0 copy 0
G1 X133.612 Y113.362 F9000
G1 E5 F2400
;TYPE:Support material
G1 F1200
G1 X134.051 Y113.407 E.01384
G1 X134.408 Y113.598 E.01269
G1 X134.665 Y113.911 E.0127
G1 X134.787 Y114.349 E.01426
G1 X134.752 Y116.871 E.07908
G1 X134.439 Y117.376 E.01863
G1 X134.142 Y117.561 E.01097
G1 X133.85 Y117.633 E.00943
G1 X102 Y117.637 E.99863
G1 X101.612 Y117.541 E.01253
G1 X101.324 Y117.342 E.01098
G1 X101.119 Y117.059 E.01096
G1 X101.016 Y116.687 E.0121
G1 X101.057 Y114.099 E.08116
G1 X101.392 Y113.598 E.0189
G1 X101.948 Y113.367 E.01888
G1 X133.555 Y113.362 E.99102
G1 X134.354 Y117.223 F9000
G1 F1200
G1 X134.354 Y114.05 E.09949
G1 X134.219 Y113.883 E.00673
G1 X133.935 Y113.727 E.01016
G1 X133.935 Y117.273 E.11118
G1 X133.516 Y117.299 E.01316
G1 X133.516 Y113.701 E.11281
G1 X133.097 Y113.701 E.01314
G1 X133.097 Y117.299 E.11281
G1 X132.678 Y117.299 E.01314
G1 X132.678 Y113.701 E.11281
G1 X132.259 Y113.701 E.01314
G1 X132.259 Y117.299 E.11281
G1 X131.84 Y117.299 E.01314
G1 X131.84 Y113.701 E.11281
G1 X131.421 Y113.701 E.01314
G1 X131.421 Y117.299 E.11281
G1 X131.002 Y117.299 E.01314
G1 X131.002 Y113.701 E.11281
G1 X130.583 Y113.701 E.01314
G1 X130.583 Y117.299 E.11281
G1 X130.164 Y117.299 E.01314
G1 X130.164 Y113.701 E.11281
G1 X129.745 Y113.701 E.01314
G1 X129.745 Y117.299 E.11281
G1 X129.326 Y117.299 E.01314
G1 X129.326 Y113.701 E.11281
G1 X128.907 Y113.701 E.01314
G1 X128.907 Y117.299 E.11281
G1 X128.488 Y117.299 E.01314
G1 X128.488 Y113.701 E.11281
G1 X128.069 Y113.701 E.01314
G1 X128.069 Y117.299 E.11281
G1 X127.65 Y117.299 E.01314
G1 X127.65 Y113.701 E.11281
G1 X127.231 Y113.701 E.01314
G1 X127.231 Y117.299 E.11281
G1 X126.812 Y117.299 E.01314
G1 X126.812 Y113.701 E.11281
G1 X126.393 Y113.701 E.01314
G1 X126.393 Y117.299 E.11281
G1 X125.974 Y117.299 E.01314
G1 X125.974 Y113.701 E.11281
G1 X125.555 Y113.701 E.01314
G1 X125.555 Y117.299 E.11281
G1 X125.136 Y117.299 E.01314
G1 X125.136 Y113.701 E.11281
G1 X124.717 Y113.701 E.01314
G1 X124.717 Y117.299 E.11281
G1 X124.299 Y117.299 E.01311
G1 X124.299 Y113.701 E.11281
G1 X123.88 Y113.701 E.01314
G1 X123.88 Y117.299 E.11281
G1 X123.461 Y117.299 E.01314
G1 X123.461 Y113.701 E.11281
G1 X123.042 Y113.701 E.01314
G1 X123.042 Y117.299 E.11281
