; generated by PrusaSlicer 2.7.4 on 2024-06-02 at 18:48:34 UTC

; 

; external perimeters extrusion width = 0.42mm
; perimeters extrusion width = 0.44mm
; infill extrusion width = 0.44mm
; solid infill extrusion width = 0.44mm
; top infill extrusion width = 0.40mm
; support material extrusion width = 0.36mm
; first layer extrusion width = 0.42mm

M201 X500 Y500 Z100 E5000 ; sets maximum accelerations, mm/sec^2
M203 X500 Y500 Z10 E60 ; sets maximum feedrates, mm / sec
M204 S500 T1000 ; sets acceleration (S) and retract acceleration (R), mm/sec^2
M205 X8.00 Y8.00 Z0.40 E5.00 ; sets the jerk limits, mm/sec
M205 S0 T0 ; sets the minimum extruding and travel feed rate, mm/sec

; printing object Compartment-Part.stl id:0 copy 0
; stop printing object Compartment-Part.stl id:0 copy 0

;TYPE:Custom
G90 ; use absolute coordinates
M83 ; extruder relative mode
M104 S150 ; set temporary nozzle temp to prevent oozing during homing
M140 S60 ; set final bed temp
G4 S30 ; allow partial nozzle warmup
G28 ; home all axis
G1 Z50 F240
G1 X2.0 Y10 F3000
M104 S215 ; set final nozzle temp
M190 S60 ; wait for bed temp to stabilize
M109 S215 ; wait for nozzle temp to stabilize
G1 Z0.28 F240
G92 E0
G1 X2.0 Y140 E10 F1500 ; prime the nozzle
G1 X2.3 Y140 F5000
G92 E0
G1 X2.3 Y10 E10 F1200 ; prime the nozzle
G92 E0
G21 ; set units to millimeters
G90 ; use absolute coordinates
M83 ; use relative distances for extrusion
; Filament gcode
M107
;LAYER_CHANGE
;Z:0.2
;HEIGHT:0.2
G1 E-5 F3600
G1 Z.2 F9000
G1 X88.133 Y101.746
G1 Z.2
G1 E5 F2400
M204 S500
;TYPE:Skirt/Brim
;WIDTH:0.42
G1 F1200
G1 X89.775 Y100.663 E.06167
G1 X91.588 Y100.315 E.05788
G1 X139.412 Y100.315 E1.49949
G1 X141.339 Y100.711 E.06168
G1 X142.867 Y101.746 E.05787
G1 X145.854 Y104.733 E.13245
G1 X146.937 Y106.375 E.06167
G1 X147.285 Y108.188 E.05788
G1 X147.285 Y122.812 E.45853
G1 X146.889 Y124.739 E.06168
G1 X145.854 Y126.267 E.05787
G1 X142.867 Y129.254 E.13245
G1 X141.225 Y130.337 E.06167
G1 X139.412 Y130.685 E.05788
G1 X91.588 Y130.685 E1.49949
G1 X89.661 Y130.289 E.06168
G1 X88.133 Y129.254 E.05787
G1 X85.146 Y126.267 E.13245
G1 X84.063 Y124.625 E.06167
G1 X83.715 Y122.812 E.05788
G1 X83.715 Y108.188 E.45853
G1 X84.111 Y106.261 E.06168
G1 X85.146 Y104.733 E.05787
G1 X88.091 Y101.788 E.13059
G1 X88.091 Y101.788 F9000
G1 X88.357 Y102.055
G1 F1200
G1 X88.4 Y102.012 E.00191
G1 X89.985 Y100.986 E.0592
G1 X91.588 Y100.692 E.0511
G1 X139.412 Y100.692 E1.49949
G1 X141.259 Y101.087 E.05922
G1 X142.6 Y102.012 E.05108
G1 X145.588 Y105 E.13249
G1 X146.614 Y106.585 E.0592
G1 X146.908 Y108.188 E.0511
G1 X146.908 Y122.812 E.45853
G1 X146.513 Y124.659 E.05922
G1 X145.588 Y126 E.05108
G1 X142.6 Y128.988 E.13249
G1 X141.015 Y130.014 E.0592
G1 X139.412 Y130.308 E.0511
G1 X91.588 Y130.308 E1.49949
G1 X89.741 Y129.913 E.05922
G1 X88.4 Y128.988 E.05108
G1 X85.412 Y126 E.13249
G1 X84.386 Y124.415 E.0592
G1 X84.092 Y122.812 E.0511
G1 X84.092 Y108.188 E.45853
G1 X84.487 Y106.341 E.05922
G1 X85.412 Y105 E.05108
G1 X88.315 Y102.097 E.12872
G1 X88.315 Y102.097 F9000
G1 X88.581 Y102.364
G1 F1200
G1 X88.666 Y102.279 E.00377
G1 X90.192 Y101.311 E.05666
G1 X91.588 Y101.069 E.04442
G1 X139.412 Y101.069 E1.49949
G1 X141.176 Y101.464 E.05668
G1 X142.334 Y102.279 E.0444
G1 X145.321 Y105.266 E.13245
G1 X146.289 Y106.792 E.05666
G1 X146.531 Y108.188 E.04442
G1 X146.531 Y122.812 E.45853
G1 X146.136 Y124.576 E.05668
G1 X145.321 Y125.734 E.0444
G1 X142.334 Y128.721 E.13245
G1 X140.808 Y129.689 E.05666
G1 X139.412 Y129.931 E.04442
G1 X91.588 Y129.931 E1.49949
G1 X89.824 Y129.536 E.05668
G1 X88.666 Y128.721 E.0444
G1 X85.679 Y125.734 E.13245
G1 X84.711 Y124.208 E.05666
G1 X84.469 Y122.812 E.04442
G1 X84.469 Y108.188 E.45853
G1 X84.864 Y106.424 E.05668
G1 X85.679 Y105.266 E.0444
G1 X88.539 Y102.406 E.12682
G1 X88.806 Y102.673 F9000
G1 F1200
G1 X88.933 Y102.545 E.00565
G1 X90.397 Y101.64 E.05397
G1 X91.588 Y101.446 E.03784
G1 X139.412 Y101.446 E1.49949
G1 X141.088 Y101.841 E.05399
G1 X142.067 Y102.545 E.03781
G1 X145.055 Y105.533 E.13249
G1 X145.96 Y106.997 E.05397
G1 X146.154 Y108.188 E.03784
G1 X146.154 Y122.812 E.45853
G1 X145.759 Y124.488 E.05399
G1 X145.055 Y125.467 E.03781
G1 X142.067 Y128.455 E.13249
G1 X140.603 Y129.36 E.05397
G1 X139.412 Y129.554 E.03784
G1 X91.588 Y129.554 E1.49949
G1 X89.912 Y129.159 E.05399
G1 X88.933 Y128.455 E.03781
G1 X85.945 Y125.467 E.13249
G1 X85.04 Y124.003 E.05397
G1 X84.846 Y122.812 E.03784
G1 X84.846 Y108.188 E.45853
G1 X85.241 Y106.512 E.05399
G1 X85.945 Y105.533 E.03781
G1 X88.763 Y102.715 E.12495
G1 X88.763 Y102.715 F9000
G1 X89.03 Y102.982
G1 F1200
G1 X89.2 Y102.812 E.00754
G1 X90.598 Y101.971 E.05115
G1 X91.588 Y101.823 E.03139
G1 X139.412 Y101.823 E1.49949
G1 X140.996 Y102.217 E.05118
G1 X141.8 Y102.812 E.03136
G1 X144.788 Y105.8 E.13249
G1 X145.629 Y107.198 E.05115
G1 X145.777 Y108.188 E.03139
G1 X145.777 Y122.812 E.45853
G1 X145.383 Y124.396 E.05118
G1 X144.788 Y125.2 E.03136
G1 X141.8 Y128.188 E.13249
G1 X140.402 Y129.029 E.05115
G1 X139.412 Y129.177 E.03139
G1 X91.588 Y129.177 E1.49949
G1 X90.004 Y128.783 E.05118
G1 X89.2 Y128.188 E.03136
G1 X86.212 Y125.2 E.13249
G1 X85.371 Y123.802 E.05115
G1 X85.223 Y122.812 E.03139
G1 X85.223 Y108.188 E.45853
G1 X85.617 Y106.604 E.05118
G1 X86.212 Y105.8 E.03136
G1 X88.987 Y103.024 E.12307
G1 E-3.5 F3600
;WIPE_START
G1 F7200
G1 X89.03 Y102.982 E-.02855
G1 X89.2 Y102.812 E-.1142
G1 X90.598 Y101.971 E-.77495
G1 X91.588 Y101.823 E-.47548
G1 X91.813 Y101.823 E-.10682
;WIPE_END
G1 X91.036 Y106.274 F9000
G1 E5 F2400
G1 F1200
G1 X92.252 Y105.695 E.04223
G1 X93.389 Y105.487 E.03624
G1 X137.689 Y105.49 E1.389
G1 X138.71 Y105.684 E.03259
G1 X139.688 Y106.1 E.03332
G1 X140.812 Y106.996 E.04507
G1 X141.705 Y108.334 E.05044
G1 X142.114 Y109.882 E.0502
G1 X142.058 Y121.514 E.36472
G1 X141.67 Y122.745 E.04047
G1 X140.938 Y123.866 E.04198
G1 X139.964 Y124.726 E.04074
G1 X138.749 Y125.305 E.0422
G1 X137.611 Y125.513 E.03627
G1 X93.282 Y125.513 E1.3899
G1 X91.92 Y125.185 E.04393
G1 X90.696 Y124.472 E.04441
G1 X89.723 Y123.435 E.04459
G1 X89.098 Y122.157 E.04461
G1 X88.886 Y121.008 E.03663
G1 X88.942 Y109.486 E.36127
G1 X89.33 Y108.255 E.04047
G1 X90.062 Y107.134 E.04198
G1 X90.991 Y106.314 E.03885
G1 X90.991 Y106.314 F9000
G1 X91.239 Y106.597
G1 F1200
G1 X91.264 Y106.576 E.00102
G1 X92.389 Y106.047 E.03898
G1 X93.405 Y105.864 E.03237
G1 X137.671 Y105.867 E1.38793
G1 X138.617 Y106.05 E.03021
G1 X139.515 Y106.436 E.03065
G1 X140.553 Y107.271 E.04177
G1 X141.349 Y108.462 E.04492
G1 X141.737 Y109.906 E.04688
G1 X141.69 Y121.427 E.36124
G1 X141.318 Y122.607 E.03879
G1 X140.638 Y123.636 E.03867
G1 X139.736 Y124.424 E.03755
G1 X138.611 Y124.953 E.03898
G1 X137.595 Y125.136 E.03237
G1 X93.305 Y125.136 E1.38868
G1 X92.037 Y124.826 E.04093
G1 X90.912 Y124.162 E.04096
G1 X90.019 Y123.2 E.04116
G1 X89.449 Y122.017 E.04117
G1 X89.264 Y120.992 E.03266
G1 X89.31 Y109.573 E.35804
G1 X89.682 Y108.393 E.03879
G1 X90.362 Y107.364 E.03867
G1 X91.194 Y106.637 E.03464
G1 X91.194 Y106.637 F9000
G1 X91.442 Y106.921
G1 F1200
G1 X91.492 Y106.878 E.00207
G1 X92.524 Y106.4 E.03566
G1 X93.422 Y106.241 E.02859
G1 X137.652 Y106.244 E1.3868
G1 X138.524 Y106.416 E.02787
G1 X139.34 Y106.771 E.0279
G1 X140.293 Y107.545 E.03849
G1 X141.017 Y108.643 E.04124
G1 X141.359 Y109.93 E.04175
G1 X141.321 Y121.344 E.35788
G1 X140.988 Y122.423 E.03541
G1 X140.37 Y123.369 E.03543
G1 X139.508 Y124.122 E.03589
G1 X138.476 Y124.6 E.03566
G1 X137.579 Y124.759 E.02856
G1 X93.328 Y124.759 E1.38746
G1 X92.157 Y124.467 E.03784
G1 X91.13 Y123.853 E.03752
G1 X90.316 Y122.967 E.03772
G1 X89.801 Y121.879 E.03774
G1 X89.641 Y120.977 E.02872
G1 X89.679 Y109.656 E.35496
G1 X90.012 Y108.577 E.03541
G1 X90.63 Y107.631 E.03543
G1 X91.397 Y106.96 E.03195
G1 X91.397 Y106.96 F9000
G1 X91.643 Y107.245
G1 F1200
G1 X91.717 Y107.181 E.00307
G1 X92.658 Y106.753 E.03241
G1 X93.437 Y106.618 E.02479
G1 X137.633 Y106.621 E1.38573
G1 X138.429 Y106.781 E.02546
G1 X139.164 Y107.105 E.02519
G1 X140.03 Y107.817 E.03515
G1 X140.685 Y108.823 E.03764
G1 X140.982 Y109.953 E.03663
G1 X140.952 Y121.262 E.35459
G1 X140.657 Y122.24 E.03203
G1 X140.069 Y123.14 E.03371
G1 X139.283 Y123.819 E.03257
G1 X138.342 Y124.247 E.03241
G1 X137.563 Y124.382 E.02479
G1 X93.352 Y124.382 E1.3862
G1 X92.278 Y124.109 E.03475
G1 X91.35 Y123.546 E.03403
G1 X90.616 Y122.736 E.03427
G1 X90.154 Y121.744 E.03431
G1 X90.018 Y120.962 E.02489
G1 X90.048 Y109.738 E.35192
G1 X90.343 Y108.76 E.03203
G1 X90.931 Y107.86 E.03371
G1 X91.598 Y107.284 E.02763
G1 X91.598 Y107.284 F9000
G1 X91.841 Y107.57
G1 F1200
G1 X91.939 Y107.487 E.00403
G1 X92.789 Y107.107 E.02919
G1 X93.453 Y106.995 E.02111
G1 X137.615 Y106.998 E1.38467
G1 X138.296 Y107.135 E.02178
G1 X138.987 Y107.439 E.02367
G1 X139.767 Y108.088 E.03181
G1 X140.329 Y108.95 E.03226
G1 X140.605 Y109.978 E.03337
G1 X140.583 Y121.179 E.3512
G1 X140.304 Y122.104 E.03029
G1 X139.77 Y122.909 E.03029
G1 X139.061 Y123.513 E.0292
G1 X138.211 Y123.893 E.02919
G1 X137.547 Y124.005 E.02111
G1 X93.377 Y124.005 E1.38492
G1 X92.401 Y123.751 E.03162
G1 X91.572 Y123.24 E.03053
G1 X90.916 Y122.507 E.03084
G1 X90.507 Y121.61 E.03091
G1 X90.395 Y120.947 E.02108
G1 X90.417 Y109.821 E.34885
G1 X90.696 Y108.896 E.03029
G1 X91.23 Y108.091 E.03029
G1 X91.796 Y107.609 E.02331
G1 X91.796 Y107.609 F9000
G1 X92.039 Y107.889
G1 F1200
G1 X92.119 Y107.819 E.00333
G1 X92.92 Y107.462 E.0275
G1 X93.468 Y107.372 E.01741
G1 X137.595 Y107.376 E1.38357
G1 X138.199 Y107.5 E.01933
G1 X138.808 Y107.772 E.02091
G1 X139.501 Y108.357 E.02844
G1 X139.995 Y109.128 E.02871
G1 X140.228 Y110.002 E.02836
G1 X140.214 Y121.1 E.34797
G1 X139.973 Y121.922 E.02686
G1 X139.502 Y122.642 E.02698
G1 X138.881 Y123.181 E.02578
G1 X138.08 Y123.538 E.0275
G1 X137.532 Y123.628 E.01741
G1 X93.402 Y123.628 E1.38367
G1 X92.527 Y123.395 E.02839
G1 X91.797 Y122.936 E.02704
G1 X91.219 Y122.28 E.02741
G1 X90.862 Y121.48 E.02747
G1 X90.772 Y120.932 E.01741
G1 X90.786 Y109.9 E.3459
G1 X91.027 Y109.078 E.02686
G1 X91.498 Y108.358 E.02698
G1 X91.993 Y107.929 E.02054
G1 X91.993 Y107.929 F9000
G1 X92.24 Y108.214
G1 F1200
G1 X92.344 Y108.124 E.00431
G1 X93.047 Y107.817 E.02405
G1 X93.482 Y107.749 E.0138
G1 X137.574 Y107.753 E1.38247
G1 X138.099 Y107.864 E.01682
G1 X138.627 Y108.104 E.01819
G1 X139.234 Y108.625 E.02508
G1 X139.639 Y109.256 E.02351
G1 X139.851 Y110.028 E.0251
G1 X139.844 Y121.023 E.34474
G1 X139.64 Y121.744 E.02349
G1 X139.234 Y122.375 E.02353
G1 X138.656 Y122.876 E.02398
G1 X137.953 Y123.183 E.02405
G1 X137.518 Y123.251 E.0138
G1 X93.428 Y123.251 E1.38241
G1 X92.656 Y123.039 E.0251
G1 X92.025 Y122.634 E.02351
G1 X91.524 Y122.056 E.02398
G1 X91.217 Y121.353 E.02405
G1 X91.149 Y120.918 E.0138
G1 X91.156 Y109.977 E.34305
G1 X91.36 Y109.256 E.02349
G1 X91.766 Y108.625 E.02353
G1 X92.195 Y108.253 E.0178
G1 X92.195 Y108.253 F9000
G1 X92.44 Y108.531
G1 F1200
G1 X92.525 Y108.456 E.00355
G1 X93.133 Y108.185 E.02087
G1 X93.498 Y108.126 E.01159
G1 X137.553 Y108.13 E1.38131
G1 X137.997 Y108.227 E.01425
G1 X138.443 Y108.434 E.01542
G1 X138.966 Y108.891 E.02178
G1 X139.285 Y109.386 E.01846
G1 X139.474 Y110.055 E.0218
G1 X139.474 Y120.945 E.34145
G1 X139.285 Y121.614 E.0218
G1 X138.965 Y122.111 E.01853
G1 X138.475 Y122.544 E.0205
G1 X137.867 Y122.815 E.02087
G1 X137.503 Y122.874 E.01156
G1 X93.455 Y122.874 E1.38109
G1 X92.786 Y122.685 E.0218
G1 X92.289 Y122.365 E.01853
G1 X91.856 Y121.875 E.0205
G1 X91.585 Y121.267 E.02087
G1 X91.526 Y120.903 E.01156
G1 X91.526 Y110.055 E.34013
G1 X91.715 Y109.386 E.0218
G1 X92.035 Y108.889 E.01853
G1 X92.395 Y108.57 E.01508
G1 X92.395 Y108.57 F9000
G1 X92.645 Y108.853
G1 F1200
G1 X92.751 Y108.759 E.00444
G1 X93.257 Y108.542 E.01726
G1 X137.531 Y108.507 E1.38818
G1 X138.256 Y108.762 E.0241
G1 X138.696 Y109.154 E.01848
G1 X138.931 Y109.52 E.01364
G1 X139.097 Y110.083 E.0184
G1 X139.097 Y120.917 E.33969
G1 X138.931 Y121.48 E.0184
G1 X138.695 Y121.846 E.01365
G1 X138.249 Y122.241 E.01868
G1 X137.743 Y122.458 E.01726
G1 X93.483 Y122.497 E1.38774
G1 X92.92 Y122.331 E.0184
G1 X92.554 Y122.095 E.01365
G1 X92.159 Y121.649 E.01868
G1 X91.942 Y121.143 E.01726
G1 X91.903 Y110.083 E.34678
G1 X92.069 Y109.52 E.0184
G1 X92.305 Y109.154 E.01365
G1 X92.601 Y108.892 E.01239
G1 X92.601 Y108.892 F9000
G1 X92.85 Y109.166
G1 F1200
G1 X92.934 Y109.09 E.00355
G1 X93.527 Y108.88 E.01972
G1 X137.509 Y108.884 E1.37902
G1 X137.747 Y108.939 E.00766
G1 X138.068 Y109.091 E.01114
G1 X138.423 Y109.415 E.01507
G1 X138.72 Y110.112 E.02376
G1 X138.72 Y120.888 E.33787
G1 X138.423 Y121.584 E.02373
G1 X138.066 Y121.91 E.01516
G1 X137.473 Y122.12 E.01972
G1 X93.512 Y122.12 E1.37837
G1 X92.816 Y121.823 E.02373
G1 X92.49 Y121.466 E.01516
G1 X92.28 Y120.873 E.01972
G1 X92.28 Y110.112 E.3374
G1 X92.577 Y109.416 E.02373
G1 X92.806 Y109.207 E.00972
G1 X92.806 Y109.207 F9000
G1 X93.061 Y109.476
G1 F1200
G1 X93.121 Y109.419 E.00259
G1 X93.433 Y109.277 E.01075
G1 X137.487 Y109.261 E1.38128
G1 X137.878 Y109.418 E.01321
G1 X138.147 Y109.673 E.01162
G1 X138.343 Y110.144 E.016
G1 X138.343 Y120.856 E.33587
G1 X138.147 Y121.327 E.016
G1 X137.879 Y121.581 E.01158
G1 X137.567 Y121.723 E.01075
G1 X93.544 Y121.743 E1.38031
G1 X93.073 Y121.547 E.016
G1 X92.819 Y121.279 E.01158
G1 X92.677 Y120.967 E.01075
G1 X92.657 Y110.144 E.33935
G1 X92.853 Y109.673 E.016
G1 X93.018 Y109.517 E.00712
G1 X93.018 Y109.517 F9000
G1 X93.249 Y109.843
G1 F1200
G1 X93.533 Y109.641 E.01093
G1 X137.435 Y109.634 E1.37652
G1 X137.866 Y109.925 E.01631
G1 X137.966 Y110.179 E.00856
G1 X137.966 Y120.821 E.33367
G1 X137.866 Y121.075 E.00856
G1 X137.467 Y121.359 E.01536
G1 X93.579 Y121.366 E1.37608
G1 X93.325 Y121.266 E.00856
G1 X93.041 Y120.867 E.01536
G1 X93.034 Y110.179 E.33511
G1 X93.134 Y109.925 E.00856
G1 X93.201 Y109.877 E.00258
G1 X93.201 Y109.877 F9000
G1 X93.478 Y110.155
G1 F1200
G1 X93.621 Y110.011 E.00636
G1 X137.448 Y110.04 E1.37417
G1 X137.589 Y110.221 E.00719
G1 X137.589 Y120.779 E.33104
G1 X137.379 Y120.989 E.00931
G1 X93.621 Y120.989 E1.372
G1 X93.411 Y120.779 E.00931
G1 X93.411 Y110.221 E.33104
G1 X93.435 Y110.197 E.00106
G1 E-3.5 F3600
;WIPE_START
G1 F7200
G1 X93.478 Y110.155 E-.02855
G1 X93.621 Y110.011 E-.0964
G1 X96.516 Y110.013 E-1.37505
;WIPE_END
; printing object Compartment-Part.stl id:0 copy 0
G1 X132.523 Y113.462 F9000
G1 E5 F2400
;TYPE:Support material
G1 F1200
G1 X133.251 Y113.553 E.023
G1 X133.96 Y113.939 E.02531
G1 X134.464 Y114.57 E.02532
G1 X134.682 Y115.348 E.02533
G1 X134.582 Y116.149 E.02531
G1 X134.178 Y116.848 E.02531
G1 X133.536 Y117.335 E.02527
G1 X132.814 Y117.531 E.02346
G1 X119.137 Y117.538 E.42883
G1 X119.137 Y117.131 E.01276
G1 X117.131 Y117.131 E.0629
G1 X117.131 Y117.538 E.01276
G1 X103.068 Y117.536 E.44094
G1 X102.356 Y117.377 E.02287
G1 X101.763 Y116.993 E.02215
G1 X101.292 Y116.338 E.0253
G1 X101.118 Y115.652 E.02219
G1 X101.218 Y114.851 E.02531
G1 X101.622 Y114.152 E.02531
G1 X102.266 Y113.664 E.02533
G1 X103.048 Y113.465 E.0253
G1 X132.467 Y113.462 E.92241
G1 X132.467 Y113.462 F9000
G1 X133.935 Y116.855
G1 F1200
G1 X133.935 Y114.39 E.07729
G1 X133.516 Y114.039 E.01714
G1 X133.516 Y116.96 E.09159
G1 X133.097 Y117.138 E.01427
G1 X133.097 Y113.862 E.10272
G1 X132.678 Y113.802 E.01327
G1 X132.678 Y117.198 E.10648
G1 X132.259 Y117.199 E.01314
G1 X132.259 Y113.801 E.10654
G1 X131.84 Y113.801 E.01314
G1 X131.84 Y117.199 E.10654
G1 X131.421 Y117.199 E.01314
G1 X131.421 Y113.801 E.10654
G1 X131.002 Y113.801 E.01314
G1 X131.002 Y117.199 E.10654
G1 X130.583 Y117.199 E.01314
G1 X130.583 Y113.801 E.10654
G1 X130.164 Y113.801 E.01314
G1 X130.164 Y117.199 E.10654
G1 X129.745 Y117.199 E.01314
G1 X129.745 Y113.801 E.10654
G1 X129.326 Y113.801 E.01314
G1 X129.326 Y117.199 E.10654
G1 X128.907 Y117.199 E.01314
G1 X128.907 Y113.801 E.10654
G1 X128.488 Y113.801 E.01314
G1 X128.488 Y117.199 E.10654
G1 X128.069 Y117.199 E.01314
G1 X128.069 Y113.801 E.10654
G1 X127.65 Y113.801 E.01314
G1 X127.65 Y117.199 E.10654
G1 X127.231 Y117.199 E.01314
G1 X127.231 Y113.801 E.10654
G1 X126.812 Y113.801 E.01314
G1 X126.812 Y117.199 E.10654
G1 X126.393 Y117.199 E.01314
G1 X126.393 Y113.801 E.10654
