; generated by PrusaSlicer 2.7.4 on 2024-04-17 at 22:37:38 UTC

; 

; external perimeters extrusion width = 0.42mm
; perimeters extrusion width = 0.44mm
; infill extrusion width = 0.44mm
; solid infill extrusion width = 0.44mm
; top infill extrusion width = 0.40mm
; support material extrusion width = 0.36mm
; first layer extrusion width = 0.42mm

M201 X500 Y500 Z100 E5000 ; sets maximum accelerations, mm/sec^2
M203 X500 Y500 Z10 E60 ; sets maximum feedrates, mm / sec
M204 S500 T1000 ; sets acceleration (S) and retract acceleration (R), mm/sec^2
M205 X8.00 Y8.00 Z0.40 E5.00 ; sets the jerk limits, mm/sec
M205 S0 T0 ; sets the minimum extruding and travel feed rate, mm/sec

; printing object Cover-Cover_Part id:0 copy 0
; stop printing object Cover-Cover_Part id:0 copy 0

;TYPE:Custom
G90 ; use absolute coordinates
M83 ; extruder relative mode
M104 S150 ; set temporary nozzle temp to prevent oozing during homing
M140 S60 ; set final bed temp
G4 S30 ; allow partial nozzle warmup
G28 ; home all axis
G1 Z50 F240
G1 X2.0 Y10 F3000
M104 S215 ; set final nozzle temp
M190 S60 ; wait for bed temp to stabilize
M109 S215 ; wait for nozzle temp to stabilize
G1 Z0.28 F240
G92 E0
G1 X2.0 Y140 E10 F1500 ; prime the nozzle
G1 X2.3 Y140 F5000
G92 E0
G1 X2.3 Y10 E10 F1200 ; prime the nozzle
G92 E0
G21 ; set units to millimeters
G90 ; use absolute coordinates
M83 ; use relative distances for extrusion
; Filament gcode
M107
;LAYER_CHANGE
;Z:0.2
;HEIGHT:0.2
G1 E-5 F3600
G1 Z.2 F9000
G1 X82.404 Y104.984
G1 Z.2
G1 E5 F2400
M204 S500
;TYPE:Skirt/Brim
;WIDTH:0.42
G1 F1200
G1 X84.073 Y103.944 E.06166
G1 X85.77 Y103.64 E.05406
G1 X141.214 Y103.64 E1.73841
G1 X143.141 Y104.036 E.06168
G1 X144.755 Y105.159 E.06165
G1 X145.93 Y107.247 E.07512
G1 X147.142 Y111.722 E.14537
G1 X147.312 Y113 E.04042
G1 X147.312 Y118 E.15677
G1 X147.142 Y119.278 E.04042
G1 X145.93 Y123.753 E.14537
G1 X145.044 Y125.508 E.06164
G1 X143.537 Y126.773 E.06169
G1 X141.214 Y127.36 E.07513
G1 X85.77 Y127.36 E1.73841
G1 X83.844 Y126.964 E.06165
G1 X82.229 Y125.841 E.06168
G1 X81.189 Y124.172 E.06166
G1 X80.885 Y122.475 E.05406
G1 X80.885 Y108.525 E.43739
G1 X81.281 Y106.599 E.06165
G1 X82.37 Y105.034 E.05978
G1 X82.37 Y105.034 F9000
G1 X82.691 Y105.269
G1 F1200
G1 X82.775 Y105.156 E.00441
G1 X84.418 Y104.225 E.05921
G1 X85.77 Y104.017 E.04289
G1 X141.214 Y104.017 E1.73841
G1 X143.061 Y104.412 E.05922
G1 X144.584 Y105.53 E.05924
G1 X145.566 Y107.346 E.06473
G1 X146.778 Y111.821 E.14537
G1 X146.935 Y113 E.03729
G1 X146.935 Y118 E.15677
G1 X146.778 Y119.179 E.03729
G1 X145.566 Y123.654 E.14537
G1 X144.701 Y125.333 E.05922
G1 X143.224 Y126.51 E.05922
G1 X141.214 Y126.983 E.06474
G1 X85.77 Y126.983 E1.73841
G1 X83.923 Y126.588 E.05922
G1 X82.401 Y125.47 E.05921
G1 X81.469 Y123.827 E.05923
G1 X81.262 Y122.475 E.04288
G1 X81.262 Y108.525 E.43739
G1 X81.657 Y106.679 E.05919
G1 X82.656 Y105.318 E.05294
G1 X82.656 Y105.318 F9000
G1 X82.969 Y105.561
G1 F1200
G1 X83.144 Y105.336 E.00894
G1 X84.756 Y104.52 E.05665
G1 X85.77 Y104.394 E.03204
G1 X141.214 Y104.394 E1.73841
G1 X142.978 Y104.789 E.05668
G1 X144.403 Y105.899 E.05664
G1 X145.202 Y107.445 E.05456
G1 X146.414 Y111.92 E.14537
G1 X146.558 Y113 E.03416
G1 X146.558 Y118 E.15677
G1 X146.414 Y119.08 E.03416
G1 X145.202 Y123.555 E.14537
G1 X144.359 Y125.154 E.05668
G1 X142.915 Y126.24 E.05665
G1 X141.214 Y126.606 E.05455
G1 X85.77 Y126.606 E1.73841
G1 X84.007 Y126.211 E.05665
G1 X82.581 Y125.101 E.05666
G1 X81.765 Y123.489 E.05665
G1 X81.639 Y122.475 E.03204
G1 X81.639 Y108.525 E.43739
G1 X82.034 Y106.762 E.05665
G1 X82.932 Y105.609 E.04582
G1 X82.932 Y105.609 F9000
G1 X83.234 Y105.86
G1 F1200
G1 X83.512 Y105.526 E.01363
G1 X85.77 Y104.771 E.07465
G1 X141.214 Y104.771 E1.73841
G1 X142.89 Y105.166 E.05399
G1 X144.213 Y106.267 E.05397
G1 X144.838 Y107.543 E.04455
G1 X146.05 Y112.018 E.14537
G1 X146.181 Y113 E.03106
G1 X146.181 Y118 E.15677
G1 X146.05 Y118.982 E.03106
G1 X144.838 Y123.457 E.14537
G1 X144.019 Y124.971 E.05397
G1 X142.61 Y125.96 E.05397
G1 X141.214 Y126.229 E.04458
G1 X85.77 Y126.229 E1.73841
G1 X84.094 Y125.834 E.05399
G1 X82.771 Y124.733 E.05397
G1 X82.016 Y122.475 E.07465
G1 X82.016 Y108.525 E.43739
G1 X82.411 Y106.85 E.05396
G1 X83.196 Y105.906 E.0385
G1 X83.196 Y105.906 F9000
G1 X83.484 Y106.166
G1 F1200
G1 X83.877 Y105.728 E.01845
G1 X85.77 Y105.148 E.06208
G1 X141.214 Y105.148 E1.73841
G1 X142.798 Y105.542 E.05118
G1 X144.011 Y106.632 E.05113
G1 X144.474 Y107.642 E.03484
G1 X145.686 Y112.117 E.14537
G1 X145.804 Y113 E.02793
G1 X145.804 Y118 E.15677
G1 X145.686 Y118.883 E.02793
G1 X144.474 Y123.358 E.14537
G1 X143.679 Y124.783 E.05116
G1 X142.31 Y125.669 E.05113
G1 X141.214 Y125.852 E.03484
G1 X85.77 Y125.852 E1.73841
G1 X84.187 Y125.458 E.05115
G1 X82.973 Y124.368 E.05116
G1 X82.393 Y122.475 E.06208
G1 X82.393 Y108.525 E.43739
G1 X82.787 Y106.942 E.05115
G1 X83.444 Y106.21 E.03084
G1 E-3.5 F3600
;WIPE_START
G1 F7200
G1 X83.484 Y106.166 E-.02825
G1 X83.877 Y105.728 E-.27952
G1 X85.77 Y105.148 E-.94043
G1 X86.3 Y105.148 E-.2518
;WIPE_END
; printing object Cover-Cover_Part id:0 copy 0
G1 X141.214 Y112.538 F9000
G1 E5 F2400
;TYPE:Support material
G1 F1200
G1 X88.409 Y112.538 E1.65566
G1 X88.139 Y112.809 E.01199
G1 X88.139 Y118.191 E.16875
G1 X88.409 Y118.462 E.01199
G1 X141.214 Y118.462 E1.65566
G1 X141.214 Y122.475 E.12582
G1 X85.77 Y122.475 E1.73841
G1 X85.77 Y108.525 E.43739
G1 X141.214 Y108.525 E1.73841
G1 X141.214 Y112.481 E.12404
G1 E-3.5 F3600
;WIPE_START
G1 F7200
G1 X141.214 Y109.323 E-1.5
;WIPE_END
G1 X140.639 Y122.305 F9000
G1 E5 F2400
G1 F1200
G1 X140.639 Y118.801 E.10987
G1 X140.22 Y118.801 E.01314
G1 X140.22 Y122.135 E.10454
G1 X139.801 Y122.135 E.01314
G1 X139.801 Y118.801 E.10454
G1 X139.382 Y118.801 E.01314
G1 X139.382 Y122.135 E.10454
G1 X138.963 Y122.135 E.01314
G1 X138.963 Y118.801 E.10454
G1 X138.544 Y118.801 E.01314
G1 X138.544 Y122.135 E.10454
G1 X138.125 Y122.135 E.01314
G1 X138.125 Y118.801 E.10454
G1 X137.706 Y118.801 E.01314
G1 X137.706 Y122.135 E.10454
G1 X137.287 Y122.135 E.01314
G1 X137.287 Y118.801 E.10454
G1 X136.868 Y118.801 E.01314
G1 X136.868 Y122.135 E.10454
G1 X136.449 Y122.135 E.01314
G1 X136.449 Y118.801 E.10454
G1 X136.03 Y118.801 E.01314
G1 X136.03 Y122.135 E.10454
G1 X135.611 Y122.135 E.01314
G1 X135.611 Y118.801 E.10454
G1 X135.192 Y118.801 E.01314
G1 X135.192 Y122.135 E.10454
G1 X134.773 Y122.135 E.01314
G1 X134.773 Y118.801 E.10454
G1 X134.354 Y118.801 E.01314
G1 X134.354 Y122.135 E.10454
G1 X133.935 Y122.135 E.01314
G1 X133.935 Y118.801 E.10454
G1 X133.516 Y118.801 E.01314
G1 X133.516 Y122.135 E.10454
G1 X133.097 Y122.135 E.01314
G1 X133.097 Y118.801 E.10454
G1 X132.678 Y118.801 E.01314
G1 X132.678 Y122.135 E.10454
G1 X132.259 Y122.135 E.01314
G1 X132.259 Y118.801 E.10454
G1 X131.84 Y118.801 E.01314
G1 X131.84 Y122.135 E.10454
G1 X131.421 Y122.135 E.01314
G1 X131.421 Y118.801 E.10454
G1 X131.002 Y118.801 E.01314
G1 X131.002 Y122.135 E.10454
G1 X130.583 Y122.135 E.01314
G1 X130.583 Y118.801 E.10454
G1 X130.164 Y118.801 E.01314
G1 X130.164 Y122.135 E.10454
G1 X129.745 Y122.135 E.01314
G1 X129.745 Y118.801 E.10454
G1 X129.326 Y118.801 E.01314
G1 X129.326 Y122.135 E.10454
G1 X128.907 Y122.135 E.01314
G1 X128.907 Y118.801 E.10454
G1 X128.488 Y118.801 E.01314
G1 X128.488 Y122.135 E.10454
G1 X128.069 Y122.135 E.01314
G1 X128.069 Y118.801 E.10454
G1 X127.65 Y118.801 E.01314
G1 X127.65 Y122.135 E.10454
G1 X127.231 Y122.135 E.01314
G1 X127.231 Y118.801 E.10454
G1 X126.812 Y118.801 E.01314
G1 X126.812 Y122.135 E.10454
G1 X126.393 Y122.135 E.01314
G1 X126.393 Y118.801 E.10454
G1 X125.974 Y118.801 E.01314
G1 X125.974 Y122.135 E.10454
G1 X125.555 Y122.135 E.01314
G1 X125.555 Y118.801 E.10454
G1 X125.136 Y118.801 E.01314
G1 X125.136 Y122.135 E.10454
G1 X124.717 Y122.135 E.01314
G1 X124.717 Y118.801 E.10454
G1 X124.299 Y118.801 E.01311
G1 X124.299 Y122.135 E.10454
G1 X123.88 Y122.135 E.01314
G1 X123.88 Y118.801 E.10454
G1 X123.461 Y118.801 E.01314
G1 X123.461 Y122.135 E.10454
G1 X123.042 Y122.135 E.01314
G1 X123.042 Y118.801 E.10454
G1 X122.623 Y118.801 E.01314
G1 X122.623 Y122.135 E.10454
G1 X122.204 Y122.135 E.01314
G1 X122.204 Y118.801 E.10454
G1 X121.785 Y118.801 E.01314
G1 X121.785 Y122.135 E.10454
G1 X121.366 Y122.135 E.01314
G1 X121.366 Y118.801 E.10454
G1 X120.947 Y118.801 E.01314
G1 X120.947 Y122.135 E.10454
G1 X120.528 Y122.135 E.01314
G1 X120.528 Y118.801 E.10454
G1 X120.109 Y118.801 E.01314
G1 X120.109 Y122.135 E.10454
G1 X119.69 Y122.135 E.01314
G1 X119.69 Y118.801 E.10454
G1 X119.271 Y118.801 E.01314
G1 X119.271 Y122.135 E.10454
G1 X118.852 Y122.135 E.01314
G1 X118.852 Y118.801 E.10454
G1 X118.433 Y118.801 E.01314
G1 X118.433 Y122.135 E.10454
G1 X118.014 Y122.135 E.01314
G1 X118.014 Y118.801 E.10454
G1 X117.595 Y118.801 E.01314
G1 X117.595 Y122.135 E.10454
G1 X117.176 Y122.135 E.01314
G1 X117.176 Y118.801 E.10454
G1 X116.757 Y118.801 E.01314
G1 X116.757 Y122.135 E.10454
G1 X116.338 Y122.135 E.01314
G1 X116.338 Y118.801 E.10454
G1 X115.919 Y118.801 E.01314
G1 X115.919 Y122.135 E.10454
G1 X115.5 Y122.135 E.01314
G1 X115.5 Y118.801 E.10454
G1 X115.081 Y118.801 E.01314
G1 X115.081 Y122.135 E.10454
G1 X114.662 Y122.135 E.01314
G1 X114.662 Y118.801 E.10454
G1 X114.243 Y118.801 E.01314
G1 X114.243 Y122.135 E.10454
G1 X113.824 Y122.135 E.01314
G1 X113.824 Y118.801 E.10454
G1 X113.405 Y118.801 E.01314
G1 X113.405 Y122.135 E.10454
G1 X112.986 Y122.135 E.01314
G1 X112.986 Y118.801 E.10454
G1 X112.567 Y118.801 E.01314
G1 X112.567 Y122.135 E.10454
G1 X112.148 Y122.135 E.01314
G1 X112.148 Y118.801 E.10454
G1 X111.729 Y118.801 E.01314
G1 X111.729 Y122.135 E.10454
G1 X111.31 Y122.135 E.01314
G1 X111.31 Y118.801 E.10454
G1 X110.891 Y118.801 E.01314
G1 X110.891 Y122.135 E.10454
G1 X110.472 Y122.135 E.01314
G1 X110.472 Y118.801 E.10454
G1 X110.053 Y118.801 E.01314
G1 X110.053 Y122.135 E.10454
G1 X109.634 Y122.135 E.01314
G1 X109.634 Y118.801 E.10454
G1 X109.215 Y118.801 E.01314
G1 X109.215 Y122.135 E.10454
G1 X108.796 Y122.135 E.01314
G1 X108.796 Y118.801 E.10454
G1 X108.377 Y118.801 E.01314
G1 X108.377 Y122.135 E.10454
G1 X107.958 Y122.135 E.01314
G1 X107.958 Y118.801 E.10454
G1 X107.539 Y118.801 E.01314
G1 X107.539 Y122.135 E.10454
G1 X107.12 Y122.135 E.01314
G1 X107.12 Y118.801 E.10454
G1 X106.701 Y118.801 E.01314
G1 X106.701 Y122.135 E.10454
G1 X106.283 Y122.135 E.01311
G1 X106.283 Y118.801 E.10454
G1 X105.864 Y118.801 E.01314
G1 X105.864 Y122.135 E.10454
G1 X105.445 Y122.135 E.01314
G1 X105.445 Y118.801 E.10454
G1 X105.026 Y118.801 E.01314
G1 X105.026 Y122.135 E.10454
G1 X104.607 Y122.135 E.01314
G1 X104.607 Y118.801 E.10454
G1 X104.188 Y118.801 E.01314
G1 X104.188 Y122.135 E.10454
G1 X103.769 Y122.135 E.01314
G1 X103.769 Y118.801 E.10454
G1 X103.35 Y118.801 E.01314
G1 X103.35 Y122.135 E.10454
G1 X102.931 Y122.135 E.01314
G1 X102.931 Y118.801 E.10454
G1 X102.512 Y118.801 E.01314
G1 X102.512 Y122.135 E.10454
G1 X102.093 Y122.135 E.01314
G1 X102.093 Y118.801 E.10454
G1 X101.674 Y118.801 E.01314
G1 X101.674 Y122.135 E.10454
G1 X101.255 Y122.135 E.01314
G1 X101.255 Y118.801 E.10454
G1 X100.836 Y118.801 E.01314
G1 X100.836 Y122.135 E.10454
G1 X100.417 Y122.135 E.01314
G1 X100.417 Y118.801 E.10454
G1 X99.998 Y118.801 E.01314
G1 X99.998 Y122.135 E.10454
G1 X99.579 Y122.135 E.01314
G1 X99.579 Y118.801 E.10454
G1 X99.16 Y118.801 E.01314
G1 X99.16 Y122.135 E.10454
G1 X98.741 Y122.135 E.01314
G1 X98.741 Y118.801 E.10454
G1 X98.322 Y118.801 E.01314
G1 X98.322 Y122.135 E.10454
G1 X97.903 Y122.135 E.01314
G1 X97.903 Y118.801 E.10454
G1 X97.484 Y118.801 E.01314
G1 X97.484 Y122.135 E.10454
G1 X97.065 Y122.135 E.01314
G1 X97.065 Y118.801 E.10454
G1 X96.646 Y118.801 E.01314
G1 X96.646 Y122.135 E.10454
G1 X96.227 Y122.135 E.01314
G1 X96.227 Y118.801 E.10454
G1 X95.808 Y118.801 E.01314
G1 X95.808 Y122.135 E.10454
G1 X95.389 Y122.135 E.01314
G1 X95.389 Y118.801 E.10454
G1 X94.97 Y118.801 E.01314
G1 X94.97 Y122.135 E.10454
G1 X94.551 Y122.135 E.01314
G1 X94.551 Y118.801 E.10454
G1 X94.132 Y118.801 E.01314
G1 X94.132 Y122.135 E.10454
G1 X93.713 Y122.135 E.01314
G1 X93.713 Y118.801 E.10454
G1 X93.294 Y118.801 E.01314
G1 X93.294 Y122.135 E.10454
G1 X92.875 Y122.135 E.01314
G1 X92.875 Y118.801 E.10454
G1 X92.456 Y118.801 E.01314
G1 X92.456 Y122.135 E.10454
G1 X92.037 Y122.135 E.01314
G1 X92.037 Y118.801 E.10454
G1 X91.618 Y118.801 E.01314
G1 X91.618 Y122.135 E.10454
G1 X91.199 Y122.135 E.01314
G1 X91.199 Y118.801 E.10454
G1 X90.78 Y118.801 E.01314
G1 X90.78 Y122.135 E.10454
G1 X90.361 Y122.135 E.01314
G1 X90.361 Y118.801 E.10454
G1 X89.942 Y118.801 E.01314
G1 X89.942 Y122.135 E.10454
G1 X89.523 Y122.135 E.01314
G1 X89.523 Y118.801 E.10454
G1 X89.104 Y118.801 E.01314
G1 X89.104 Y122.135 E.10454
G1 X88.685 Y122.135 E.01314
G1 X88.685 Y118.801 E.10454
G1 X88.266 Y118.799 E.01314
G1 X88.266 Y122.135 E.1046
G1 X87.848 Y122.135 E.01311
G1 X87.848 Y108.865 E.41607
G1 X88.266 Y108.865 E.01311
G1 X88.266 Y112.201 E.1046
G1 X88.685 Y112.199 E.01314
G1 X88.685 Y108.865 E.10454
G1 X89.104 Y108.865 E.01314
G1 X89.104 Y112.199 E.10454
G1 X89.523 Y112.199 E.01314
G1 X89.523 Y108.865 E.10454
G1 X89.942 Y108.865 E.01314
G1 X89.942 Y112.199 E.10454
G1 X90.361 Y112.199 E.01314
G1 X90.361 Y108.865 E.10454
G1 X90.78 Y108.865 E.01314
G1 X90.78 Y112.199 E.10454
G1 X91.199 Y112.199 E.01314
G1 X91.199 Y108.865 E.10454
G1 X91.618 Y108.865 E.01314
G1 X91.618 Y112.199 E.10454
G1 X92.037 Y112.199 E.01314
G1 X92.037 Y108.865 E.10454
G1 X92.456 Y108.865 E.01314
G1 X92.456 Y112.199 E.10454
G1 X92.875 Y112.199 E.01314
G1 X92.875 Y108.865 E.10454
G1 X93.294 Y108.865 E.01314
G1 X93.294 Y112.199 E.10454
G1 X93.713 Y112.199 E.01314
G1 X93.713 Y108.865 E.10454
G1 X94.132 Y108.865 E.01314
G1 X94.132 Y112.199 E.10454
G1 X94.551 Y112.199 E.01314
G1 X94.551 Y108.865 E.10454
G1 X94.97 Y108.865 E.01314
G1 X94.97 Y112.199 E.10454
G1 X95.389 Y112.199 E.01314
G1 X95.389 Y108.865 E.10454
G1 X95.808 Y108.865 E.01314
G1 X95.808 Y112.199 E.10454
G1 X96.227 Y112.199 E.01314
G1 X96.227 Y108.865 E.10454
G1 X96.646 Y108.865 E.01314
G1 X96.646 Y112.199 E.10454
G1 X97.065 Y112.199 E.01314
G1 X97.065 Y108.865 E.10454
G1 X97.484 Y108.865 E.01314
G1 X97.484 Y112.199 E.10454
G1 X97.903 Y112.199 E.01314
G1 X97.903 Y108.865 E.10454
G1 X98.322 Y108.865 E.01314
G1 X98.322 Y112.199 E.10454
G1 X98.741 Y112.199 E.01314
G1 X98.741 Y108.865 E.10454
G1 X99.16 Y108.865 E.01314
G1 X99.16 Y112.199 E.10454
G1 X99.579 Y112.199 E.01314
G1 X99.579 Y108.865 E.10454
G1 X99.998 Y108.865 E.01314
G1 X99.998 Y112.199 E.10454
G1 X100.417 Y112.199 E.01314
G1 X100.417 Y108.865 E.10454
G1 X100.836 Y108.865 E.01314
G1 X100.836 Y112.199 E.10454
G1 X101.255 Y112.199 E.01314
G1 X101.255 Y108.865 E.10454
G1 X101.674 Y108.865 E.01314
G1 X101.674 Y112.199 E.10454
G1 X102.093 Y112.199 E.01314
G1 X102.093 Y108.865 E.10454
G1 X102.512 Y108.865 E.01314
G1 X102.512 Y112.199 E.10454
G1 X102.931 Y112.199 E.01314
G1 X102.931 Y108.865 E.10454
G1 X103.35 Y108.865 E.01314
G1 X103.35 Y112.199 E.10454
G1 X103.769 Y112.199 E.01314
G1 X103.769 Y108.865 E.10454
G1 X104.188 Y108.865 E.01314
G1 X104.188 Y112.199 E.10454
G1 X104.607 Y112.199 E.01314
G1 X104.607 Y108.865 E.10454
G1 X105.026 Y108.865 E.01314
G1 X105.026 Y112.199 E.10454
G1 X105.445 Y112.199 E.01314
G1 X105.445 Y108.865 E.10454
G1 X105.864 Y108.865 E.01314
G1 X105.864 Y112.199 E.10454
G1 X106.283 Y112.199 E.01314
G1 X106.283 Y108.865 E.10454
G1 X106.701 Y108.865 E.01311
G1 X106.701 Y112.199 E.10454
G1 X107.12 Y112.199 E.01314
G1 X107.12 Y108.865 E.10454
G1 X107.539 Y108.865 E.01314
G1 X107.539 Y112.199 E.10454
G1 X107.958 Y112.199 E.01314
G1 X107.958 Y108.865 E.10454
G1 X108.377 Y108.865 E.01314
G1 X108.377 Y112.199 E.10454
G1 X108.796 Y112.199 E.01314
G1 X108.796 Y108.865 E.10454
G1 X109.215 Y108.865 E.01314
G1 X109.215 Y112.199 E.10454
G1 X109.634 Y112.199 E.01314
G1 X109.634 Y108.865 E.10454
G1 X110.053 Y108.865 E.01314
G1 X110.053 Y112.199 E.10454
G1 X110.472 Y112.199 E.01314
G1 X110.472 Y108.865 E.10454
G1 X110.891 Y108.865 E.01314
G1 X110.891 Y112.199 E.10454
G1 X111.31 Y112.199 E.01314
G1 X111.31 Y108.865 E.10454
