; generated by PrusaSlicer 2.7.4 on 2024-04-16 at 19:31:55 UTC

; 

; external perimeters extrusion width = 0.42mm
; perimeters extrusion width = 0.44mm
; infill extrusion width = 0.44mm
; solid infill extrusion width = 0.44mm
; top infill extrusion width = 0.40mm
; first layer extrusion width = 0.42mm

M201 X500 Y500 Z100 E5000 ; sets maximum accelerations, mm/sec^2
M203 X500 Y500 Z10 E60 ; sets maximum feedrates, mm / sec
M204 S500 T1000 ; sets acceleration (S) and retract acceleration (R), mm/sec^2
M205 X8.00 Y8.00 Z0.40 E5.00 ; sets the jerk limits, mm/sec
M205 S0 T0 ; sets the minimum extruding and travel feed rate, mm/sec

; printing object FeetMold-Body id:0 copy 0
; stop printing object FeetMold-Body id:0 copy 0

;TYPE:Custom
G90 ; use absolute coordinates
M83 ; extruder relative mode
M104 S150 ; set temporary nozzle temp to prevent oozing during homing
M140 S60 ; set final bed temp
G4 S30 ; allow partial nozzle warmup
G28 ; home all axis
G1 Z50 F240
G1 X2.0 Y10 F3000
M104 S215 ; set final nozzle temp
M190 S60 ; wait for bed temp to stabilize
M109 S215 ; wait for nozzle temp to stabilize
G1 Z0.28 F240
G92 E0
G1 X2.0 Y140 E10 F1500 ; prime the nozzle
G1 X2.3 Y140 F5000
G92 E0
G1 X2.3 Y10 E10 F1200 ; prime the nozzle
G92 E0
G21 ; set units to millimeters
G90 ; use absolute coordinates
M83 ; use relative distances for extrusion
; Filament gcode
M107
;LAYER_CHANGE
;Z:0.2
;HEIGHT:0.2
G1 E-5 F3600
G1 Z.2 F9000
G1 X101.439 Y101.439
G1 Z.2
G1 E5 F2400
M204 S500
;TYPE:Skirt/Brim
;WIDTH:0.42
G1 F1200
G1 X112.046 Y90.832 E.47033
G1 X113.688 Y89.75 E.06166
G1 X115.624 Y89.403 E.06167
G1 X117.54 Y89.848 E.06167
G1 X118.954 Y90.832 E.05401
G1 X140.168 Y112.046 E.94066
G1 X141.25 Y113.688 E.06166
G1 X141.597 Y115.624 E.06167
G1 X141.152 Y117.54 E.06167
G1 X140.168 Y118.954 E.05401
G1 X118.954 Y140.168 E.94066
G1 X117.312 Y141.25 E.06166
G1 X115.376 Y141.597 E.06167
G1 X113.46 Y141.152 E.06167
G1 X112.046 Y140.168 E.05401
G1 X90.832 Y118.954 E.94066
G1 X89.75 Y117.312 E.06166
G1 X89.403 Y115.376 E.06167
G1 X89.848 Y113.46 E.06167
G1 X90.832 Y112.046 E.05401
G1 X101.396 Y101.481 E.46845
G1 X101.396 Y101.481 F9000
G1 X101.663 Y101.748
G1 F1200
G1 X112.312 Y91.099 E.47219
G1 X113.898 Y90.073 E.05923
G1 X115.764 Y89.786 E.0592
G1 X117.585 Y90.289 E.05923
G1 X118.688 Y91.099 E.04291
G1 X139.901 Y112.312 E.94062
G1 X140.927 Y113.898 E.05923
G1 X141.214 Y115.764 E.0592
G1 X140.711 Y117.585 E.05923
G1 X139.901 Y118.688 E.04291
G1 X118.688 Y139.901 E.94062
G1 X117.102 Y140.927 E.05923
G1 X115.236 Y141.214 E.0592
G1 X113.415 Y140.711 E.05923
G1 X112.312 Y139.901 E.04291
G1 X91.099 Y118.688 E.94062
G1 X90.073 Y117.102 E.05923
G1 X89.786 Y115.236 E.0592
G1 X90.289 Y113.415 E.05923
G1 X91.099 Y112.312 E.04291
G1 X101.621 Y101.79 E.46656
G1 X101.621 Y101.79 F9000
G1 X101.887 Y102.057
G1 F1200
G1 X112.579 Y91.366 E.47408
G1 X114.105 Y90.398 E.05666
G1 X115.898 Y90.175 E.05665
G1 X117.615 Y90.738 E.05666
G1 X118.421 Y91.366 E.03204
G1 X139.634 Y112.579 E.94062
G1 X140.602 Y114.105 E.05666
G1 X140.825 Y115.898 E.05665
G1 X140.262 Y117.615 E.05666
G1 X139.634 Y118.421 E.03204
G1 X118.421 Y139.634 E.94062
G1 X116.895 Y140.602 E.05666
G1 X115.102 Y140.825 E.05665
G1 X113.385 Y140.262 E.05666
G1 X112.579 Y139.634 E.03204
G1 X91.366 Y118.421 E.94062
G1 X90.398 Y116.895 E.05666
G1 X90.175 Y115.102 E.05665
G1 X90.738 Y113.385 E.05666
G1 X91.366 Y112.579 E.03204
G1 X101.845 Y102.099 E.46468
G1 X101.845 Y102.099 F9000
G1 X102.112 Y102.366
G1 F1200
G1 X112.845 Y91.632 E.47594
G1 X114.309 Y90.726 E.05398
G1 X116.024 Y90.569 E.054
G1 X118.155 Y91.632 E.07467
G1 X139.368 Y112.845 E.94062
G1 X140.274 Y114.309 E.05398
G1 X140.431 Y116.024 E.054
G1 X139.368 Y118.155 E.07467
G1 X118.155 Y139.368 E.94062
G1 X116.691 Y140.274 E.05398
G1 X114.976 Y140.431 E.054
G1 X112.845 Y139.368 E.07467
G1 X91.632 Y118.155 E.94062
G1 X90.726 Y116.691 E.05398
G1 X90.569 Y114.976 E.054
G1 X91.632 Y112.845 E.07467
G1 X102.069 Y102.409 E.46277
G1 X102.069 Y102.409 F9000
G1 X102.336 Y102.675
G1 F1200
G1 X113.112 Y91.899 E.47783
G1 X114.51 Y91.058 E.05115
G1 X116.139 Y90.971 E.05115
G1 X117.888 Y91.899 E.06208
G1 X139.101 Y113.112 E.94062
G1 X139.942 Y114.51 E.05115
G1 X140.029 Y116.139 E.05115
G1 X139.101 Y117.888 E.06208
G1 X117.888 Y139.101 E.94062
G1 X116.49 Y139.942 E.05115
G1 X114.861 Y140.029 E.05115
G1 X113.112 Y139.101 E.06208
G1 X91.899 Y117.888 E.94062
G1 X91.058 Y116.49 E.05115
G1 X90.971 Y114.861 E.05115
G1 X91.899 Y113.112 E.06208
G1 X102.293 Y102.718 E.46089
G1 E-3.5 F3600
;WIPE_START
G1 F7200
G1 X102.336 Y102.675 E-.02889
G1 X104.526 Y100.485 E-1.47111
;WIPE_END
; printing object FeetMold-Body id:0 copy 0
G1 X95.792 Y115.5 F9000
G1 E5 F2400
;TYPE:Perimeter
;WIDTH:0.419999
G1 F1200
G1 X115.5 Y95.792 E.87388
G1 X135.208 Y115.5 E.87388
G1 X125.354 Y125.354 E.43694
G1 X115.5 Y135.208 E.43694
G1 X95.834 Y115.542 E.87202
G1 X95.834 Y115.542 F9000
G1 X95.258 Y115.5
G1 F1200
G1 X115.5 Y95.258 E.89756
G1 X135.742 Y115.5 E.89756
G1 X125.621 Y125.621 E.44878
G1 X115.5 Y135.742 E.44878
G1 X95.301 Y115.542 E.89568
G1 X95.301 Y115.542 F9000
G1 X94.725 Y115.5
;TYPE:External perimeter
G1 F1200
G1 X115.5 Y94.725 E.9212
G1 X136.275 Y115.5 E.9212
G1 X125.887 Y125.887 E.4606
G1 X115.5 Y136.275 E.4606
G1 X94.768 Y115.542 E.91931
G1 E-3.5 F3600
;WIPE_START
G1 F7200
G1 X94.725 Y115.5 E-.02855
G1 X96.915 Y113.31 E-1.47145
;WIPE_END
G1 X134.917 Y115.621 F9000
G1 E5 F2400
;TYPE:Solid infill
;WIDTH:0.421934
G1 F1200
G1 X115.499 Y96.203 E.86544
G1 X115.231 Y96.471 E.01194
G1 X134.529 Y115.769 E.8601
G1 X134.261 Y116.037 E.01194
G1 X114.963 Y96.739 E.8601
G1 X114.695 Y97.007 E.01194
G1 X133.993 Y116.305 E.8601
G1 X133.725 Y116.573 E.01194
G1 X114.427 Y97.275 E.8601
G1 X114.159 Y97.543 E.01194
G1 X133.457 Y116.841 E.8601
G1 X133.189 Y117.109 E.01194
G1 X113.891 Y97.811 E.8601
G1 X113.623 Y98.079 E.01194
G1 X132.921 Y117.377 E.8601
G1 X132.653 Y117.645 E.01194
G1 X113.355 Y98.347 E.8601
G1 X113.087 Y98.615 E.01194
G1 X132.385 Y117.913 E.8601
G1 X132.117 Y118.181 E.01194
G1 X112.819 Y98.883 E.8601
G1 X112.551 Y99.151 E.01194
G1 X131.849 Y118.449 E.8601
G1 X131.581 Y118.717 E.01194
G1 X112.283 Y99.419 E.8601
G1 X112.015 Y99.687 E.01194
G1 X131.313 Y118.985 E.8601
G1 X131.045 Y119.253 E.01194
G1 X111.747 Y99.955 E.8601
G1 X111.479 Y100.223 E.01194
G1 X130.777 Y119.521 E.8601
G1 X130.509 Y119.789 E.01194
G1 X111.211 Y100.491 E.8601
G1 X110.943 Y100.759 E.01194
G1 X130.241 Y120.057 E.8601
G1 X129.973 Y120.325 E.01194
G1 X110.675 Y101.027 E.8601
G1 X110.407 Y101.295 E.01194
G1 X129.705 Y120.593 E.8601
G1 X129.437 Y120.861 E.01194
G1 X110.139 Y101.563 E.8601
G1 X109.871 Y101.831 E.01194
G1 X129.169 Y121.129 E.8601
G1 X128.901 Y121.397 E.01194
G1 X109.603 Y102.099 E.8601
G1 X109.335 Y102.367 E.01194
G1 X128.633 Y121.665 E.8601
G1 X128.365 Y121.933 E.01194
G1 X109.067 Y102.635 E.8601
G1 X108.799 Y102.903 E.01194
G1 X128.097 Y122.201 E.8601
G1 X127.829 Y122.469 E.01194
G1 X108.531 Y103.171 E.8601
G1 X108.263 Y103.439 E.01194
G1 X127.561 Y122.737 E.8601
G1 X127.293 Y123.005 E.01194
G1 X107.995 Y103.707 E.8601
G1 X107.727 Y103.975 E.01194
G1 X127.025 Y123.273 E.8601
G1 X126.757 Y123.541 E.01194
G1 X107.459 Y104.243 E.8601
G1 X107.191 Y104.511 E.01194
G1 X126.489 Y123.809 E.8601
G1 X126.221 Y124.077 E.01194
G1 X106.923 Y104.779 E.8601
G1 X106.655 Y105.047 E.01194
G1 X125.953 Y124.345 E.8601
G1 X125.685 Y124.613 E.01194
G1 X106.387 Y105.315 E.8601
G1 X106.119 Y105.583 E.01194
G1 X125.417 Y124.881 E.8601
G1 X125.149 Y125.149 E.01194
G1 X105.851 Y105.851 E.8601
G1 X105.583 Y106.119 E.01194
G1 X124.881 Y125.417 E.8601
G1 X124.613 Y125.685 E.01194
G1 X105.315 Y106.387 E.8601
G1 X105.047 Y106.655 E.01194
G1 X124.345 Y125.953 E.8601
G1 X124.077 Y126.221 E.01194
G1 X104.779 Y106.923 E.8601
G1 X104.511 Y107.191 E.01194
G1 X123.809 Y126.489 E.8601
G1 X123.541 Y126.757 E.01194
G1 X104.243 Y107.459 E.8601
G1 X103.975 Y107.727 E.01194
G1 X123.273 Y127.025 E.8601
G1 X123.005 Y127.293 E.01194
G1 X103.707 Y107.995 E.8601
G1 X103.439 Y108.263 E.01194
G1 X122.737 Y127.561 E.8601
G1 X122.469 Y127.829 E.01194
G1 X103.171 Y108.531 E.8601
G1 X102.903 Y108.799 E.01194
G1 X122.201 Y128.097 E.8601
G1 X121.933 Y128.365 E.01194
G1 X102.635 Y109.067 E.8601
G1 X102.367 Y109.335 E.01194
G1 X121.665 Y128.633 E.8601
G1 X121.397 Y128.901 E.01194
G1 X102.099 Y109.603 E.8601
G1 X101.831 Y109.871 E.01194
G1 X121.129 Y129.169 E.8601
G1 X120.861 Y129.437 E.01194
G1 X101.563 Y110.139 E.8601
G1 X101.295 Y110.407 E.01194
G1 X120.593 Y129.705 E.8601
G1 X120.325 Y129.973 E.01194
G1 X101.027 Y110.675 E.8601
G1 X100.759 Y110.943 E.01194
G1 X120.057 Y130.241 E.8601
G1 X119.789 Y130.509 E.01194
G1 X100.491 Y111.211 E.8601
G1 X100.223 Y111.479 E.01194
G1 X119.521 Y130.777 E.8601
G1 X119.253 Y131.045 E.01194
G1 X99.955 Y111.747 E.8601
G1 X99.687 Y112.015 E.01194
G1 X118.985 Y131.313 E.8601
G1 X118.717 Y131.581 E.01194
G1 X99.419 Y112.283 E.8601
G1 X99.151 Y112.551 E.01194
G1 X118.449 Y131.849 E.8601
G1 X118.181 Y132.117 E.01194
G1 X98.883 Y112.819 E.8601
G1 X98.615 Y113.087 E.01194
G1 X117.913 Y132.385 E.8601
G1 X117.645 Y132.653 E.01194
G1 X98.347 Y113.355 E.8601
G1 X98.079 Y113.623 E.01194
G1 X117.377 Y132.921 E.8601
G1 X117.109 Y133.189 E.01194
G1 X97.811 Y113.891 E.8601
G1 X97.543 Y114.159 E.01194
G1 X116.841 Y133.457 E.8601
G1 X116.573 Y133.725 E.01194
G1 X97.275 Y114.427 E.8601
G1 X97.007 Y114.695 E.01194
G1 X116.305 Y133.993 E.8601
G1 X116.037 Y134.261 E.01194
G1 X96.739 Y114.963 E.8601
G1 X96.471 Y115.231 E.01194
G1 X115.769 Y134.529 E.8601
G1 X115.501 Y134.797 E.01194
G1 X96.083 Y115.379 E.86544
M106 S255
;LAYER_CHANGE
;Z:0.3
;HEIGHT:0.1
;BEFORE_LAYER_CHANGE
G92 E0
;0.3


G1 E-3.5 F3600
;WIPE_START
G1 F7200
G1 X98.316 Y117.612 E-1.5
;WIPE_END
G1 Z.3 F9000
;AFTER_LAYER_CHANGE
;0.3
M104 S210 ; set temperature
; stop printing object FeetMold-Body id:0 copy 0
G1 Z.3
G1 X93.903 Y122.025
G1 E5 F2400
;TYPE:Skirt/Brim
;WIDTH:0.42
G1 X90.832 Y118.954 E.07196
G1 X89.75 Y117.312 E.03258
G1 X89.403 Y115.376 E.03259
G1 X89.848 Y113.46 E.03259
G1 X90.832 Y112.046 E.02854
G1 X112.046 Y90.832 E.4971
G1 X113.688 Y89.75 E.03258
G1 X115.624 Y89.403 E.03259
G1 X117.54 Y89.848 E.03259
G1 X118.954 Y90.832 E.02854
G1 X140.168 Y112.046 E.4971
G1 X141.25 Y113.688 E.03258
G1 X141.597 Y115.624 E.03259
G1 X141.152 Y117.54 E.03259
G1 X140.168 Y118.954 E.02854
G1 X118.954 Y140.168 E.4971
G1 X117.312 Y141.25 E.03258
G1 X115.376 Y141.597 E.03259
G1 X113.46 Y141.152 E.03259
G1 X112.046 Y140.168 E.02854
G1 X93.945 Y122.068 E.42414
G1 X93.945 Y122.068 F9000
G1 X94.212 Y121.801
G1 F2400
G1 X91.099 Y118.688 E.07295
G1 X90.073 Y117.102 E.0313
G1 X89.786 Y115.236 E.03128
G1 X90.289 Y113.415 E.0313
G1 X91.099 Y112.312 E.02267
G1 X112.312 Y91.099 E.49708
G1 X113.898 Y90.073 E.0313
G1 X115.764 Y89.786 E.03128
G1 X117.585 Y90.289 E.0313
G1 X118.688 Y91.099 E.02267
G1 X139.901 Y112.312 E.49708
G1 X140.927 Y113.898 E.0313
G1 X141.214 Y115.764 E.03128
G1 X140.711 Y117.585 E.0313
G1 X139.901 Y118.688 E.02267
G1 X118.688 Y139.901 E.49708
G1 X117.102 Y140.927 E.0313
G1 X115.236 Y141.214 E.03128
G1 X113.415 Y140.711 E.0313
G1 X112.312 Y139.901 E.02267
G1 X94.254 Y121.843 E.42315
G1 X94.254 Y121.843 F9000
G1 X94.521 Y121.577
G1 F2400
G1 X91.366 Y118.421 E.07394
G1 X90.398 Y116.895 E.02994
G1 X90.175 Y115.102 E.02994
G1 X90.738 Y113.385 E.02994
G1 X91.366 Y112.579 E.01693
G1 X112.579 Y91.366 E.49708
G1 X114.105 Y90.398 E.02994
G1 X115.898 Y90.175 E.02994
G1 X117.615 Y90.738 E.02994
G1 X118.421 Y91.366 E.01693
G1 X139.634 Y112.579 E.49708
G1 X140.602 Y114.105 E.02994
G1 X140.825 Y115.898 E.02994
G1 X140.262 Y117.615 E.02994
G1 X139.634 Y118.421 E.01693
G1 X118.421 Y139.634 E.49708
G1 X116.895 Y140.602 E.02994
G1 X115.102 Y140.825 E.02994
G1 X113.385 Y140.262 E.02994
G1 X112.579 Y139.634 E.01693
G1 X94.563 Y121.619 E.42215
G1 X94.563 Y121.619 F9000
G1 X94.83 Y121.352
G1 F2400
G1 X91.632 Y118.155 E.07493
G1 X90.726 Y116.691 E.02853
G1 X90.569 Y114.976 E.02854
G1 X91.632 Y112.845 E.03946
G1 X112.845 Y91.632 E.49708
G1 X114.309 Y90.726 E.02853
G1 X116.024 Y90.569 E.02854
G1 X118.155 Y91.632 E.03946
G1 X139.368 Y112.845 E.49708
G1 X140.274 Y114.309 E.02853
G1 X140.431 Y116.024 E.02854
G1 X139.368 Y118.155 E.03946
G1 X118.155 Y139.368 E.49708
G1 X116.691 Y140.274 E.02853
G1 X114.976 Y140.431 E.02854
G1 X112.845 Y139.368 E.03946
G1 X94.873 Y121.395 E.42114
G1 X94.873 Y121.395 F9000
G1 X95.139 Y121.128
G1 F2400
G1 X91.899 Y117.888 E.07592
G1 X91.058 Y116.49 E.02703
G1 X90.971 Y114.861 E.02703
G1 X91.899 Y113.112 E.03281
G1 X113.112 Y91.899 E.49708
G1 X114.51 Y91.058 E.02703
G1 X116.139 Y90.971 E.02703
G1 X117.888 Y91.899 E.03281
G1 X139.101 Y113.112 E.49708
G1 X139.942 Y114.51 E.02703
G1 X140.029 Y116.139 E.02703
G1 X139.101 Y117.888 E.03281
G1 X117.888 Y139.101 E.49708
G1 X116.49 Y139.942 E.02703
G1 X114.861 Y140.029 E.02703
G1 X113.112 Y139.101 E.03281
G1 X95.182 Y121.171 E.42015
G1 E-3.5 F3600
;WIPE_START
G1 F7200
G1 X95.139 Y121.128 E-.02889
G1 X92.949 Y118.938 E-1.47111
;WIPE_END
; printing object FeetMold-Body id:0 copy 0
G1 X95.753 Y115.5 F9000
G1 E5 F2400
;TYPE:Perimeter
;WIDTH:0.439999
G1 X115.5 Y95.753 E.48594
G1 X135.247 Y115.5 E.48594
G1 X125.373 Y125.373 E.24297
G1 X115.5 Y135.247 E.24297
G1 X95.796 Y115.542 E.4849
G1 X95.796 Y115.542 F9000
G1 X95.162 Y115.5
G1 F2400
G1 X115.5 Y95.162 E.50049
G1 X135.838 Y115.5 E.50049
G1 X125.669 Y125.669 E.25024
G1 X115.5 Y135.838 E.25024
G1 X95.204 Y115.542 E.49945
G1 X95.204 Y115.542 F9000
G1 X94.584 Y115.5
;TYPE:External perimeter
;WIDTH:0.419999
G1 F1500
G1 X115.5 Y94.584 E.49012
G1 X136.416 Y115.5 E.49012
G1 X125.958 Y125.958 E.24506
G1 X115.5 Y136.416 E.24506
G1 X94.626 Y115.542 E.48913
G1 X94.626 Y115.542 F9000
G1 X96.357 Y115.648
;TYPE:Solid infill
;WIDTH:0.439999
G1 F2400
G1 X115.648 Y96.357 E.47472
G1 X115.574 Y96.209 E.00288
;WIDTH:0.40073
G1 X115.5 Y96.061 E.00261
;WIDTH:0.36146
G1 X96.061 Y115.5 E.3886
;WIDTH:0.439999
G1 X96.653 Y115.944 E.01288
G1 X115.944 Y96.653 E.47472
G1 X116.24 Y96.949 E.00728
G1 X96.949 Y116.24 E.47472
G1 X97.245 Y116.536 E.00728
G1 X116.536 Y97.245 E.47472
G1 X116.832 Y97.541 E.00728
G1 X97.541 Y116.832 E.47472
G1 X97.837 Y117.128 E.00728
G1 X117.128 Y97.837 E.47472
G1 X117.424 Y98.133 E.00728
G1 X98.133 Y117.424 E.47472
G1 X98.429 Y117.72 E.00728
G1 X117.72 Y98.429 E.47472
G1 X118.016 Y98.725 E.00728
G1 X98.725 Y118.016 E.47472
G1 X99.021 Y118.312 E.00728
G1 X118.312 Y99.021 E.47472
G1 X118.607 Y99.317 E.00727
G1 X99.317 Y118.607 E.4747
G1 X99.613 Y118.903 E.00728
G1 X118.903 Y99.613 E.4747
G1 X119.199 Y99.909 E.00728
G1 X99.909 Y119.199 E.4747
G1 X100.205 Y119.495 E.00728
G1 X119.495 Y100.205 E.4747
G1 X119.791 Y100.501 E.00728
G1 X100.501 Y119.791 E.4747
G1 X100.796 Y120.087 E.00727
G1 X120.087 Y100.796 E.47472
G1 X120.383 Y101.092 E.00728
G1 X101.092 Y120.383 E.47472
G1 X101.388 Y120.679 E.00728
G1 X120.679 Y101.388 E.47472
G1 X120.975 Y101.684 E.00728
G1 X101.684 Y120.975 E.47472
G1 X101.98 Y121.271 E.00728
G1 X121.271 Y101.98 E.47472
G1 X121.567 Y102.276 E.00728
G1 X102.276 Y121.567 E.47472
G1 X102.572 Y121.863 E.00728
G1 X121.863 Y102.572 E.47472
G1 X122.159 Y102.868 E.00728
G1 X102.868 Y122.159 E.47472
G1 X103.164 Y122.455 E.00728
G1 X122.455 Y103.164 E.47472
G1 X122.751 Y103.46 E.00728
G1 X103.46 Y122.751 E.47472
G1 X103.756 Y123.047 E.00728
G1 X123.047 Y103.756 E.47472
G1 X123.343 Y104.052 E.00728
G1 X104.052 Y123.343 E.47472
G1 X104.348 Y123.639 E.00728
G1 X123.639 Y104.348 E.47472
G1 X123.935 Y104.644 E.00728
G1 X104.644 Y123.935 E.47472
G1 X104.94 Y124.231 E.00728
G1 X124.231 Y104.94 E.47472
G1 X124.527 Y105.236 E.00728
G1 X105.236 Y124.527 E.47472
G1 X105.532 Y124.822 E.00727
G1 X124.822 Y105.532 E.4747
G1 X125.118 Y105.828 E.00728
G1 X105.828 Y125.118 E.4747
G1 X106.124 Y125.414 E.00728
G1 X125.414 Y106.124 E.4747
G1 X125.71 Y106.42 E.00728
G1 X106.42 Y125.71 E.4747
G1 X106.715 Y126.006 E.00727
G1 X126.006 Y106.715 E.47472
G1 X126.302 Y107.011 E.00728
G1 X107.011 Y126.302 E.47472
G1 X107.307 Y126.598 E.00728
G1 X126.598 Y107.307 E.47472
G1 X126.894 Y107.603 E.00728
