(Exported by FreeCAD)
(Post Processor: grbl_post)
(Output Time:2024-06-02 21:28:23.315064)
(Begin preamble)
G17 G90
G21
(Begin operation: Fixture)
(Path: Fixture)
G54
(Finish operation: Fixture)
(Begin operation: 2mm Endmill001)
(Path: 2mm Endmill001)
(2mm Endmill001)
(Begin toolchange)
( M6 T2 )
(Finish operation: 2mm Endmill001)
(Begin operation: Pocket_Shape005)
(Path: Pocket_Shape005)
(Pocket_Shape005)
G0 Z5.000
G0 X29.600 Y-29.500
G0 Z3.000
G1 X29.600 Y-29.500 Z-0.500
G1 X4.000 Y-29.500 Z-0.500
G1 X4.000 Y-31.500 Z-0.500
G1 X29.600 Y-31.500 Z-0.500
G1 X29.600 Y-29.500 Z-0.500
G0 Z5.000
G0 X29.100 Y-30.000 Z5.000
G0 X29.100 Y-30.000 Z3.000
G1 X29.100 Y-30.000 Z-0.500
G1 X4.500 Y-30.000 Z-0.500
G1 X4.500 Y-31.000 Z-0.500
G1 X29.100 Y-31.000 Z-0.500
G1 X29.100 Y-30.000 Z-0.500
G1 X29.100 Y-30.000 Z-1.000
G1 X4.500 Y-30.000 Z-1.000
G1 X4.500 Y-31.000 Z-1.000
G1 X29.100 Y-31.000 Z-1.000
G1 X29.100 Y-30.000 Z-1.000
G0 Z5.000
G0 Y-29.500 Z5.000
G0 Y-29.500 Z3.000
G1 X29.100 Y-29.500 Z-1.000
G1 X4.000 Y-29.500 Z-1.000
G1 X4.000 Y-31.500 Z-1.000
G1 X29.600 Y-31.500 Z-1.000
G1 X29.600 Y-29.500 Z-1.000
G1 X29.100 Y-29.500 Z-1.000
G1 X29.100 Y-29.500 Z-1.500
G1 X4.000 Y-29.500 Z-1.500
G1 X4.000 Y-31.500 Z-1.500
G1 X29.600 Y-31.500 Z-1.500
G1 X29.600 Y-29.500 Z-1.500
G1 X29.100 Y-29.500 Z-1.500
G0 Z5.000
G0 Y-30.000 Z5.000
G0 Y-30.000 Z3.000
G1 X29.100 Y-30.000 Z-1.500
G1 X4.500 Y-30.000 Z-1.500
G1 X4.500 Y-31.000 Z-1.500
G1 X29.100 Y-31.000 Z-1.500
G1 X29.100 Y-30.000 Z-1.500
G1 X29.100 Y-30.000 Z-2.000
G1 X4.500 Y-30.000 Z-2.000
G1 X4.500 Y-31.000 Z-2.000
G1 X29.100 Y-31.000 Z-2.000
G1 X29.100 Y-30.000 Z-2.000
G0 Z5.000
G0 Y-29.500 Z5.000
G0 Y-29.500 Z3.000
G1 X29.100 Y-29.500 Z-2.000
G1 X4.000 Y-29.500 Z-2.000
G1 X4.000 Y-31.500 Z-2.000
G1 X29.600 Y-31.500 Z-2.000
G1 X29.600 Y-29.500 Z-2.000
G1 X29.100 Y-29.500 Z-2.000
G1 X29.100 Y-29.500 Z-2.500
G1 X4.000 Y-29.500 Z-2.500
G1 X4.000 Y-31.500 Z-2.500
G1 X29.600 Y-31.500 Z-2.500
G1 X29.600 Y-29.500 Z-2.500
G1 X29.100 Y-29.500 Z-2.500
G0 Z5.000
G0 Y-30.000 Z5.000
G0 Y-30.000 Z3.000
G1 X29.100 Y-30.000 Z-2.500
G1 X4.500 Y-30.000 Z-2.500
G1 X4.500 Y-31.000 Z-2.500
G1 X29.100 Y-31.000 Z-2.500
G1 X29.100 Y-30.000 Z-2.500
G1 X29.100 Y-30.000 Z-3.000
G1 X4.500 Y-30.000 Z-3.000
G1 X4.500 Y-31.000 Z-3.000
G1 X29.100 Y-31.000 Z-3.000
G1 X29.100 Y-30.000 Z-3.000
G0 Z5.000
G0 Y-29.500 Z5.000
G0 Y-29.500 Z3.000
G1 X29.100 Y-29.500 Z-3.000
G1 X4.000 Y-29.500 Z-3.000
G1 X4.000 Y-31.500 Z-3.000
G1 X29.600 Y-31.500 Z-3.000
G1 X29.600 Y-29.500 Z-3.000
G1 X29.100 Y-29.500 Z-3.000
G0 Z5.000
G0 Z5.000
(Finish operation: Pocket_Shape005)
(Begin postamble)
M5
G17 G90
M2
