(Exported by FreeCAD)
(Post Processor: grbl_post)
(Output Time:2024-06-02 21:28:10.890291)
(Begin preamble)
G17 G90
G21
(Begin operation: Fixture)
(Path: Fixture)
G54
(Finish operation: Fixture)
(Begin operation: 2mm Endmill001)
(Path: 2mm Endmill001)
(2mm Endmill001)
(Begin toolchange)
( M6 T2 )
(Finish operation: 2mm Endmill001)
(Begin operation: Pocket_Shape001)
(Path: Pocket_Shape001)
(Pocket_Shape001)
G0 Z5.000
G0 X-44.000 Y16.800
G0 Z3.000
G1 X-44.000 Y16.800 Z-0.500
G1 X-48.934 Y16.800 Z-0.500
G3 X-49.000 Y16.734 Z-0.500 I-0.024 J-0.042 K0.000
G1 X-49.000 Y-16.734 Z-0.500
G3 X-48.934 Y-16.800 Z-0.500 I0.042 J-0.024 K0.000
G1 X-44.000 Y-16.800 Z-0.500
G1 X-44.000 Y16.800 Z-0.500
G0 Z5.000
G0 X-46.000 Y14.800 Z5.000
G0 X-46.000 Y14.800 Z3.000
G1 X-46.000 Y14.800 Z-0.500
G1 X-47.000 Y14.800 Z-0.500
G1 X-47.000 Y-14.800 Z-0.500
G1 X-46.000 Y-14.800 Z-0.500
G1 X-46.000 Y14.800 Z-0.500
G1 X-46.000 Y14.800 Z-1.000
G1 X-47.000 Y14.800 Z-1.000
G1 X-47.000 Y-14.800 Z-1.000
G1 X-46.000 Y-14.800 Z-1.000
G1 X-46.000 Y14.800 Z-1.000
G0 Z5.000
G0 Y16.800 Z5.000
G0 Y16.800 Z3.000
G1 X-46.000 Y16.800 Z-1.000
G1 X-48.934 Y16.800 Z-1.000
G3 X-49.000 Y16.734 Z-1.000 I-0.024 J-0.042 K0.000
G1 X-49.000 Y-16.734 Z-1.000
G3 X-48.934 Y-16.800 Z-1.000 I0.042 J-0.024 K0.000
G1 X-44.000 Y-16.800 Z-1.000
G1 X-44.000 Y16.800 Z-1.000
G1 X-46.000 Y16.800 Z-1.000
G1 X-46.000 Y16.800 Z-1.500
G1 X-48.934 Y16.800 Z-1.500
G3 X-49.000 Y16.734 Z-1.500 I-0.024 J-0.042 K0.000
G1 X-49.000 Y-16.734 Z-1.500
G3 X-48.934 Y-16.800 Z-1.500 I0.042 J-0.024 K0.000
G1 X-44.000 Y-16.800 Z-1.500
G1 X-44.000 Y16.800 Z-1.500
G1 X-46.000 Y16.800 Z-1.500
G0 Z5.000
G0 Y14.800 Z5.000
G0 Y14.800 Z3.000
G1 X-46.000 Y14.800 Z-1.500
G1 X-47.000 Y14.800 Z-1.500
G1 X-47.000 Y-14.800 Z-1.500
G1 X-46.000 Y-14.800 Z-1.500
G1 X-46.000 Y14.800 Z-1.500
G1 X-46.000 Y14.800 Z-2.000
G1 X-47.000 Y14.800 Z-2.000
G1 X-47.000 Y-14.800 Z-2.000
G1 X-46.000 Y-14.800 Z-2.000
G1 X-46.000 Y14.800 Z-2.000
G0 Z5.000
G0 Y16.800 Z5.000
G0 Y16.800 Z3.000
G1 X-46.000 Y16.800 Z-2.000
G1 X-48.934 Y16.800 Z-2.000
G3 X-49.000 Y16.734 Z-2.000 I-0.024 J-0.042 K0.000
G1 X-49.000 Y-16.734 Z-2.000
G3 X-48.934 Y-16.800 Z-2.000 I0.042 J-0.024 K0.000
G1 X-44.000 Y-16.800 Z-2.000
G1 X-44.000 Y16.800 Z-2.000
G1 X-46.000 Y16.800 Z-2.000
G1 X-46.000 Y16.800 Z-2.500
G1 X-48.934 Y16.800 Z-2.500
G3 X-49.000 Y16.734 Z-2.500 I-0.024 J-0.042 K0.000
G1 X-49.000 Y-16.734 Z-2.500
G3 X-48.934 Y-16.800 Z-2.500 I0.042 J-0.024 K0.000
G1 X-44.000 Y-16.800 Z-2.500
G1 X-44.000 Y16.800 Z-2.500
G1 X-46.000 Y16.800 Z-2.500
G0 Z5.000
G0 Y14.800 Z5.000
G0 Y14.800 Z3.000
G1 X-46.000 Y14.800 Z-2.500
G1 X-47.000 Y14.800 Z-2.500
G1 X-47.000 Y-14.800 Z-2.500
G1 X-46.000 Y-14.800 Z-2.500
G1 X-46.000 Y14.800 Z-2.500
G1 X-46.000 Y14.800 Z-3.000
G1 X-47.000 Y14.800 Z-3.000
G1 X-47.000 Y-14.800 Z-3.000
G1 X-46.000 Y-14.800 Z-3.000
G1 X-46.000 Y14.800 Z-3.000
G0 Z5.000
G0 Y16.800 Z5.000
G0 Y16.800 Z3.000
G1 X-46.000 Y16.800 Z-3.000
G1 X-48.934 Y16.800 Z-3.000
G3 X-49.000 Y16.734 Z-3.000 I-0.024 J-0.042 K0.000
G1 X-49.000 Y-16.734 Z-3.000
G3 X-48.934 Y-16.800 Z-3.000 I0.042 J-0.024 K0.000
G1 X-44.000 Y-16.800 Z-3.000
G1 X-44.000 Y16.800 Z-3.000
G1 X-46.000 Y16.800 Z-3.000
G1 X-46.000 Y16.800 Z-3.500
G1 X-48.934 Y16.800 Z-3.500
G3 X-49.000 Y16.734 Z-3.500 I-0.024 J-0.042 K0.000
G1 X-49.000 Y-16.734 Z-3.500
G3 X-48.934 Y-16.800 Z-3.500 I0.042 J-0.024 K0.000
G1 X-44.000 Y-16.800 Z-3.500
G1 X-44.000 Y16.800 Z-3.500
G1 X-46.000 Y16.800 Z-3.500
G0 Z5.000
G0 Y14.800 Z5.000
G0 Y14.800 Z3.000
G1 X-46.000 Y14.800 Z-3.500
G1 X-47.000 Y14.800 Z-3.500
G1 X-47.000 Y-14.800 Z-3.500
G1 X-46.000 Y-14.800 Z-3.500
G1 X-46.000 Y14.800 Z-3.500
G1 X-46.000 Y14.800 Z-4.000
G1 X-47.000 Y14.800 Z-4.000
G1 X-47.000 Y-14.800 Z-4.000
G1 X-46.000 Y-14.800 Z-4.000
G1 X-46.000 Y14.800 Z-4.000
G0 Z5.000
G0 Y16.800 Z5.000
G0 Y16.800 Z3.000
G1 X-46.000 Y16.800 Z-4.000
G1 X-48.934 Y16.800 Z-4.000
G3 X-49.000 Y16.734 Z-4.000 I-0.024 J-0.042 K0.000
G1 X-49.000 Y-16.734 Z-4.000
G3 X-48.934 Y-16.800 Z-4.000 I0.042 J-0.024 K0.000
G1 X-44.000 Y-16.800 Z-4.000
G1 X-44.000 Y16.800 Z-4.000
G1 X-46.000 Y16.800 Z-4.000
G1 X-46.000 Y16.800 Z-4.500
G1 X-48.934 Y16.800 Z-4.500
G3 X-49.000 Y16.734 Z-4.500 I-0.024 J-0.042 K0.000
G1 X-49.000 Y-16.734 Z-4.500
G3 X-48.934 Y-16.800 Z-4.500 I0.042 J-0.024 K0.000
G1 X-44.000 Y-16.800 Z-4.500
G1 X-44.000 Y16.800 Z-4.500
G1 X-46.000 Y16.800 Z-4.500
G0 Z5.000
G0 Y14.800 Z5.000
G0 Y14.800 Z3.000
G1 X-46.000 Y14.800 Z-4.500
G1 X-47.000 Y14.800 Z-4.500
G1 X-47.000 Y-14.800 Z-4.500
G1 X-46.000 Y-14.800 Z-4.500
G1 X-46.000 Y14.800 Z-4.500
G1 X-46.000 Y14.800 Z-5.000
G1 X-47.000 Y14.800 Z-5.000
G1 X-47.000 Y-14.800 Z-5.000
G1 X-46.000 Y-14.800 Z-5.000
G1 X-46.000 Y14.800 Z-5.000
G0 Z5.000
G0 Y16.800 Z5.000
G0 Y16.800 Z3.000
G1 X-46.000 Y16.800 Z-5.000
G1 X-48.934 Y16.800 Z-5.000
G3 X-49.000 Y16.734 Z-5.000 I-0.024 J-0.042 K0.000
G1 X-49.000 Y-16.734 Z-5.000
G3 X-48.934 Y-16.800 Z-5.000 I0.042 J-0.024 K0.000
G1 X-44.000 Y-16.800 Z-5.000
G1 X-44.000 Y16.800 Z-5.000
G1 X-46.000 Y16.800 Z-5.000
G1 X-46.000 Y16.800 Z-5.500
G1 X-48.934 Y16.800 Z-5.500
G3 X-49.000 Y16.734 Z-5.500 I-0.024 J-0.042 K0.000
G1 X-49.000 Y-16.734 Z-5.500
G3 X-48.934 Y-16.800 Z-5.500 I0.042 J-0.024 K0.000
G1 X-44.000 Y-16.800 Z-5.500
G1 X-44.000 Y16.800 Z-5.500
G1 X-46.000 Y16.800 Z-5.500
G0 Z5.000
G0 Y14.800 Z5.000
G0 Y14.800 Z3.000
G1 X-46.000 Y14.800 Z-5.500
G1 X-47.000 Y14.800 Z-5.500
G1 X-47.000 Y-14.800 Z-5.500
G1 X-46.000 Y-14.800 Z-5.500
G1 X-46.000 Y14.800 Z-5.500
G1 X-46.000 Y14.800 Z-6.000
G1 X-47.000 Y14.800 Z-6.000
G1 X-47.000 Y-14.800 Z-6.000
G1 X-46.000 Y-14.800 Z-6.000
G1 X-46.000 Y14.800 Z-6.000
G0 Z5.000
G0 Y16.800 Z5.000
G0 Y16.800 Z3.000
G1 X-46.000 Y16.800 Z-6.000
G1 X-48.934 Y16.800 Z-6.000
G3 X-49.000 Y16.734 Z-6.000 I-0.024 J-0.042 K0.000
G1 X-49.000 Y-16.734 Z-6.000
G3 X-48.934 Y-16.800 Z-6.000 I0.042 J-0.024 K0.000
G1 X-44.000 Y-16.800 Z-6.000
G1 X-44.000 Y16.800 Z-6.000
G1 X-46.000 Y16.800 Z-6.000
G1 X-46.000 Y16.800 Z-6.500
G1 X-48.934 Y16.800 Z-6.500
G3 X-49.000 Y16.734 Z-6.500 I-0.024 J-0.042 K0.000
G1 X-49.000 Y-16.734 Z-6.500
G3 X-48.934 Y-16.800 Z-6.500 I0.042 J-0.024 K0.000
G1 X-44.000 Y-16.800 Z-6.500
G1 X-44.000 Y16.800 Z-6.500
G1 X-46.000 Y16.800 Z-6.500
G0 Z5.000
G0 Y14.800 Z5.000
G0 Y14.800 Z3.000
G1 X-46.000 Y14.800 Z-6.500
G1 X-47.000 Y14.800 Z-6.500
G1 X-47.000 Y-14.800 Z-6.500
G1 X-46.000 Y-14.800 Z-6.500
G1 X-46.000 Y14.800 Z-6.500
G1 X-46.000 Y14.800 Z-7.000
G1 X-47.000 Y14.800 Z-7.000
G1 X-47.000 Y-14.800 Z-7.000
G1 X-46.000 Y-14.800 Z-7.000
G1 X-46.000 Y14.800 Z-7.000
G0 Z5.000
G0 Y16.800 Z5.000
G0 Y16.800 Z3.000
G1 X-46.000 Y16.800 Z-7.000
G1 X-48.934 Y16.800 Z-7.000
G3 X-49.000 Y16.734 Z-7.000 I-0.024 J-0.042 K0.000
G1 X-49.000 Y-16.734 Z-7.000
G3 X-48.934 Y-16.800 Z-7.000 I0.042 J-0.024 K0.000
G1 X-44.000 Y-16.800 Z-7.000
G1 X-44.000 Y16.800 Z-7.000
G1 X-46.000 Y16.800 Z-7.000
G0 Z5.000
G0 Z5.000
G0 X-46.000 Y16.800
G0 X44.000
G0 X44.000 Z3.000
G1 X44.000 Y16.800 Z-0.500
G1 X44.000 Y-16.800 Z-0.500
G1 X48.934 Y-16.800 Z-0.500
G3 X49.000 Y-16.734 Z-0.500 I0.024 J0.042 K0.000
G1 X49.000 Y16.734 Z-0.500
G3 X48.934 Y16.800 Z-0.500 I-0.042 J0.024 K0.000
G1 X44.000 Y16.800 Z-0.500
G0 Z5.000
G0 X46.000 Y14.800 Z5.000
G0 X46.000 Y14.800 Z3.000
G1 X46.000 Y14.800 Z-0.500
G1 X46.000 Y-14.800 Z-0.500
G1 X47.000 Y-14.800 Z-0.500
G1 X47.000 Y14.800 Z-0.500
G1 X46.000 Y14.800 Z-0.500
G1 X46.000 Y14.800 Z-1.000
G1 X46.000 Y-14.800 Z-1.000
G1 X47.000 Y-14.800 Z-1.000
G1 X47.000 Y14.800 Z-1.000
G1 X46.000 Y14.800 Z-1.000
G0 Z5.000
G0 X44.000 Z5.000
G0 X44.000 Z3.000
G1 X44.000 Y14.800 Z-1.000
G1 X44.000 Y-16.800 Z-1.000
G1 X48.934 Y-16.800 Z-1.000
G3 X49.000 Y-16.734 Z-1.000 I0.024 J0.042 K0.000
G1 X49.000 Y16.734 Z-1.000
G3 X48.934 Y16.800 Z-1.000 I-0.042 J0.024 K0.000
G1 X44.000 Y16.800 Z-1.000
G1 X44.000 Y14.800 Z-1.000
G1 X44.000 Y14.800 Z-1.500
G1 X44.000 Y-16.800 Z-1.500
G1 X48.934 Y-16.800 Z-1.500
G3 X49.000 Y-16.734 Z-1.500 I0.024 J0.042 K0.000
G1 X49.000 Y16.734 Z-1.500
G3 X48.934 Y16.800 Z-1.500 I-0.042 J0.024 K0.000
G1 X44.000 Y16.800 Z-1.500
G1 X44.000 Y14.800 Z-1.500
G0 Z5.000
G0 X46.000 Z5.000
G0 X46.000 Z3.000
G1 X46.000 Y14.800 Z-1.500
G1 X46.000 Y-14.800 Z-1.500
G1 X47.000 Y-14.800 Z-1.500
G1 X47.000 Y14.800 Z-1.500
G1 X46.000 Y14.800 Z-1.500
G1 X46.000 Y14.800 Z-2.000
G1 X46.000 Y-14.800 Z-2.000
G1 X47.000 Y-14.800 Z-2.000
G1 X47.000 Y14.800 Z-2.000
G1 X46.000 Y14.800 Z-2.000
G0 Z5.000
G0 X44.000 Z5.000
G0 X44.000 Z3.000
G1 X44.000 Y14.800 Z-2.000
G1 X44.000 Y-16.800 Z-2.000
G1 X48.934 Y-16.800 Z-2.000
G3 X49.000 Y-16.734 Z-2.000 I0.024 J0.042 K0.000
G1 X49.000 Y16.734 Z-2.000
G3 X48.934 Y16.800 Z-2.000 I-0.042 J0.024 K0.000
G1 X44.000 Y16.800 Z-2.000
G1 X44.000 Y14.800 Z-2.000
G1 X44.000 Y14.800 Z-2.500
G1 X44.000 Y-16.800 Z-2.500
G1 X48.934 Y-16.800 Z-2.500
G3 X49.000 Y-16.734 Z-2.500 I0.024 J0.042 K0.000
G1 X49.000 Y16.734 Z-2.500
G3 X48.934 Y16.800 Z-2.500 I-0.042 J0.024 K0.000
G1 X44.000 Y16.800 Z-2.500
G1 X44.000 Y14.800 Z-2.500
G0 Z5.000
G0 X46.000 Z5.000
G0 X46.000 Z3.000
G1 X46.000 Y14.800 Z-2.500
G1 X46.000 Y-14.800 Z-2.500
G1 X47.000 Y-14.800 Z-2.500
G1 X47.000 Y14.800 Z-2.500
G1 X46.000 Y14.800 Z-2.500
G1 X46.000 Y14.800 Z-3.000
G1 X46.000 Y-14.800 Z-3.000
G1 X47.000 Y-14.800 Z-3.000
G1 X47.000 Y14.800 Z-3.000
G1 X46.000 Y14.800 Z-3.000
G0 Z5.000
G0 X44.000 Z5.000
G0 X44.000 Z3.000
G1 X44.000 Y14.800 Z-3.000
G1 X44.000 Y-16.800 Z-3.000
G1 X48.934 Y-16.800 Z-3.000
G3 X49.000 Y-16.734 Z-3.000 I0.024 J0.042 K0.000
G1 X49.000 Y16.734 Z-3.000
G3 X48.934 Y16.800 Z-3.000 I-0.042 J0.024 K0.000
G1 X44.000 Y16.800 Z-3.000
G1 X44.000 Y14.800 Z-3.000
G1 X44.000 Y14.800 Z-3.500
G1 X44.000 Y-16.800 Z-3.500
G1 X48.934 Y-16.800 Z-3.500
G3 X49.000 Y-16.734 Z-3.500 I0.024 J0.042 K0.000
G1 X49.000 Y16.734 Z-3.500
G3 X48.934 Y16.800 Z-3.500 I-0.042 J0.024 K0.000
G1 X44.000 Y16.800 Z-3.500
G1 X44.000 Y14.800 Z-3.500
G0 Z5.000
G0 X46.000 Z5.000
G0 X46.000 Z3.000
G1 X46.000 Y14.800 Z-3.500
G1 X46.000 Y-14.800 Z-3.500
G1 X47.000 Y-14.800 Z-3.500
G1 X47.000 Y14.800 Z-3.500
G1 X46.000 Y14.800 Z-3.500
G1 X46.000 Y14.800 Z-4.000
G1 X46.000 Y-14.800 Z-4.000
G1 X47.000 Y-14.800 Z-4.000
G1 X47.000 Y14.800 Z-4.000
G1 X46.000 Y14.800 Z-4.000
G0 Z5.000
G0 X44.000 Z5.000
G0 X44.000 Z3.000
G1 X44.000 Y14.800 Z-4.000
G1 X44.000 Y-16.800 Z-4.000
G1 X48.934 Y-16.800 Z-4.000
G3 X49.000 Y-16.734 Z-4.000 I0.024 J0.042 K0.000
G1 X49.000 Y16.734 Z-4.000
G3 X48.934 Y16.800 Z-4.000 I-0.042 J0.024 K0.000
G1 X44.000 Y16.800 Z-4.000
G1 X44.000 Y14.800 Z-4.000
G1 X44.000 Y14.800 Z-4.500
G1 X44.000 Y-16.800 Z-4.500
G1 X48.934 Y-16.800 Z-4.500
G3 X49.000 Y-16.734 Z-4.500 I0.024 J0.042 K0.000
G1 X49.000 Y16.734 Z-4.500
G3 X48.934 Y16.800 Z-4.500 I-0.042 J0.024 K0.000
G1 X44.000 Y16.800 Z-4.500
G1 X44.000 Y14.800 Z-4.500
G0 Z5.000
G0 X46.000 Z5.000
G0 X46.000 Z3.000
G1 X46.000 Y14.800 Z-4.500
G1 X46.000 Y-14.800 Z-4.500
G1 X47.000 Y-14.800 Z-4.500
G1 X47.000 Y14.800 Z-4.500
G1 X46.000 Y14.800 Z-4.500
G1 X46.000 Y14.800 Z-5.000
G1 X46.000 Y-14.800 Z-5.000
G1 X47.000 Y-14.800 Z-5.000
G1 X47.000 Y14.800 Z-5.000
G1 X46.000 Y14.800 Z-5.000
G0 Z5.000
G0 X44.000 Z5.000
G0 X44.000 Z3.000
G1 X44.000 Y14.800 Z-5.000
G1 X44.000 Y-16.800 Z-5.000
G1 X48.934 Y-16.800 Z-5.000
G3 X49.000 Y-16.734 Z-5.000 I0.024 J0.042 K0.000
G1 X49.000 Y16.734 Z-5.000
G3 X48.934 Y16.800 Z-5.000 I-0.042 J0.024 K0.000
G1 X44.000 Y16.800 Z-5.000
G1 X44.000 Y14.800 Z-5.000
G1 X44.000 Y14.800 Z-5.500
G1 X44.000 Y-16.800 Z-5.500
G1 X48.934 Y-16.800 Z-5.500
G3 X49.000 Y-16.734 Z-5.500 I0.024 J0.042 K0.000
G1 X49.000 Y16.734 Z-5.500
G3 X48.934 Y16.800 Z-5.500 I-0.042 J0.024 K0.000
G1 X44.000 Y16.800 Z-5.500
G1 X44.000 Y14.800 Z-5.500
G0 Z5.000
G0 X46.000 Z5.000
G0 X46.000 Z3.000
G1 X46.000 Y14.800 Z-5.500
G1 X46.000 Y-14.800 Z-5.500
G1 X47.000 Y-14.800 Z-5.500
G1 X47.000 Y14.800 Z-5.500
G1 X46.000 Y14.800 Z-5.500
G1 X46.000 Y14.800 Z-6.000
G1 X46.000 Y-14.800 Z-6.000
G1 X47.000 Y-14.800 Z-6.000
G1 X47.000 Y14.800 Z-6.000
G1 X46.000 Y14.800 Z-6.000
G0 Z5.000
G0 X44.000 Z5.000
G0 X44.000 Z3.000
G1 X44.000 Y14.800 Z-6.000
G1 X44.000 Y-16.800 Z-6.000
G1 X48.934 Y-16.800 Z-6.000
G3 X49.000 Y-16.734 Z-6.000 I0.024 J0.042 K0.000
G1 X49.000 Y16.734 Z-6.000
G3 X48.934 Y16.800 Z-6.000 I-0.042 J0.024 K0.000
G1 X44.000 Y16.800 Z-6.000
G1 X44.000 Y14.800 Z-6.000
G1 X44.000 Y14.800 Z-6.500
G1 X44.000 Y-16.800 Z-6.500
G1 X48.934 Y-16.800 Z-6.500
G3 X49.000 Y-16.734 Z-6.500 I0.024 J0.042 K0.000
G1 X49.000 Y16.734 Z-6.500
G3 X48.934 Y16.800 Z-6.500 I-0.042 J0.024 K0.000
G1 X44.000 Y16.800 Z-6.500
G1 X44.000 Y14.800 Z-6.500
G0 Z5.000
G0 X46.000 Z5.000
G0 X46.000 Z3.000
G1 X46.000 Y14.800 Z-6.500
G1 X46.000 Y-14.800 Z-6.500
G1 X47.000 Y-14.800 Z-6.500
G1 X47.000 Y14.800 Z-6.500
G1 X46.000 Y14.800 Z-6.500
G1 X46.000 Y14.800 Z-7.000
G1 X46.000 Y-14.800 Z-7.000
G1 X47.000 Y-14.800 Z-7.000
G1 X47.000 Y14.800 Z-7.000
G1 X46.000 Y14.800 Z-7.000
G0 Z5.000
G0 X44.000 Z5.000
G0 X44.000 Z3.000
G1 X44.000 Y14.800 Z-7.000
G1 X44.000 Y-16.800 Z-7.000
G1 X48.934 Y-16.800 Z-7.000
G3 X49.000 Y-16.734 Z-7.000 I0.024 J0.042 K0.000
G1 X49.000 Y16.734 Z-7.000
G3 X48.934 Y16.800 Z-7.000 I-0.042 J0.024 K0.000
G1 X44.000 Y16.800 Z-7.000
G1 X44.000 Y14.800 Z-7.000
G0 Z5.000
G0 Z5.000
(Finish operation: Pocket_Shape001)
(Begin postamble)
M5
G17 G90
M2
