(Exported by FreeCAD)
(Post Processor: grbl_post)
(Output Time:2024-06-02 21:28:14.416663)
(Begin preamble)
G17 G90
G21
(Begin operation: Fixture)
(Path: Fixture)
G54
(Finish operation: Fixture)
(Begin operation: 2mm Endmill001)
(Path: 2mm Endmill001)
(2mm Endmill001)
(Begin toolchange)
( M6 T2 )
(Finish operation: 2mm Endmill001)
(Begin operation: Pocket_Shape002)
(Path: Pocket_Shape002)
(Pocket_Shape002)
G0 Z5.000
G0 X-44.000 Y-18.799
G0 Z3.000
G1 X-44.000 Y-18.799 Z-0.500
G1 X-49.000 Y-18.792 Z-0.500
G1 X-49.000 Y-27.434 Z-0.500
G3 X-48.934 Y-27.500 Z-0.500 I0.042 J-0.024 K0.000
G1 X-47.188 Y-27.500 Z-0.500
G2 X-44.944 Y-21.945 Z-0.500 I1.187 J2.751 K0.000
G2 X-44.000 Y-22.523 Z-0.500 I-1.010 J-2.712 K0.000
G1 X-44.000 Y-18.799 Z-0.500
G0 Z5.000
G0 X-45.000 Y-19.800 Z5.000
G0 X-45.000 Y-19.800 Z3.000
G1 X-45.000 Y-19.800 Z-0.500
G1 X-48.000 Y-19.800 Z-0.500
G1 X-48.000 Y-21.294 Z-0.500
G2 X-45.000 Y-20.883 Z-0.500 I1.998 J-3.430 K0.000
G1 X-45.000 Y-19.800 Z-0.500
G0 Z5.000
G0 X-46.630 Y-20.300 Z5.000
G0 X-46.630 Y-20.300 Z3.000
G1 X-46.630 Y-20.300 Z-0.500
G1 X-47.500 Y-20.300 Z-0.500
G1 X-47.500 Y-20.514 Z-0.500
G2 X-46.630 Y-20.300 Z-0.500 I1.484 J-4.163 K0.000
G0 Z5.000
G0 X-44.000 Y-26.977 Z5.000
G0 X-44.000 Y-26.977 Z3.000
G1 X-44.000 Y-26.977 Z-0.500
G2 X-44.812 Y-27.500 Z-0.500 I-1.916 J2.085 K0.000
G1 X-44.000 Y-27.500 Z-0.500
G1 X-44.000 Y-26.977 Z-0.500
G1 X-44.000 Y-26.977 Z-1.000
G2 X-44.812 Y-27.500 Z-1.000 I-1.916 J2.085 K0.000
G1 X-44.000 Y-27.500 Z-1.000
G1 X-44.000 Y-26.977 Z-1.000
G0 Z5.000
G0 X-47.188 Y-27.500 Z5.000
G0 X-47.188 Y-27.500 Z3.000
G1 X-47.188 Y-27.500 Z-1.000
G2 X-44.944 Y-21.945 Z-1.000 I1.187 J2.751 K0.000
G2 X-44.000 Y-22.523 Z-1.000 I-1.010 J-2.712 K0.000
G1 X-44.000 Y-18.799 Z-1.000
G1 X-49.000 Y-18.792 Z-1.000
G1 X-49.000 Y-27.434 Z-1.000
G3 X-48.934 Y-27.500 Z-1.000 I0.042 J-0.024 K0.000
G1 X-47.188 Y-27.500 Z-1.000
G0 Z5.000
G0 X-48.000 Y-21.294 Z5.000
G0 X-48.000 Y-21.294 Z3.000
G1 X-48.000 Y-21.294 Z-1.000
G2 X-45.000 Y-20.883 Z-1.000 I1.998 J-3.430 K0.000
G1 X-45.000 Y-19.800 Z-1.000
G1 X-48.000 Y-19.800 Z-1.000
G1 X-48.000 Y-21.294 Z-1.000
G0 Z5.000
G0 X-47.500 Y-20.514 Z5.000
G0 X-47.500 Y-20.514 Z3.000
G1 X-47.500 Y-20.514 Z-1.000
G2 X-46.630 Y-20.300 Z-1.000 I1.484 J-4.163 K0.000
G1 X-47.500 Y-20.300 Z-1.000
G1 X-47.500 Y-20.514 Z-1.000
G1 X-47.500 Y-20.514 Z-1.500
G2 X-46.630 Y-20.300 Z-1.500 I1.484 J-4.163 K0.000
G1 X-47.500 Y-20.300 Z-1.500
G1 X-47.500 Y-20.514 Z-1.500
G0 Z5.000
G0 X-47.332 Y-20.985 Z5.000
G0 X-47.332 Y-20.985 Z3.000
G1 X-47.332 Y-20.985 Z-1.500
G2 X-45.000 Y-20.883 Z-1.500 I1.330 J-3.740 K0.000
G1 X-45.000 Y-19.800 Z-1.500
G1 X-48.000 Y-19.800 Z-1.500
G1 X-48.000 Y-21.294 Z-1.500
G2 X-47.332 Y-20.985 Z-1.500 I1.998 J-3.430 K0.000
G0 Z5.000
G0 X-47.000 Y-21.925 Z5.000
G0 X-47.000 Y-21.925 Z3.000
G1 X-47.000 Y-21.925 Z-1.500
G2 X-44.944 Y-21.945 Z-1.500 I0.999 J-2.825 K0.000
G2 X-44.000 Y-22.523 Z-1.500 I-1.010 J-2.712 K0.000
G1 X-44.000 Y-18.799 Z-1.500
G1 X-49.000 Y-18.792 Z-1.500
G1 X-49.000 Y-27.434 Z-1.500
G3 X-48.934 Y-27.500 Z-1.500 I0.042 J-0.024 K0.000
G1 X-47.188 Y-27.500 Z-1.500
G2 X-47.000 Y-21.925 Z-1.500 I1.187 J2.751 K0.000
G0 Z5.000
G0 X-44.000 Y-26.977 Z5.000
G0 X-44.000 Y-26.977 Z3.000
G1 X-44.000 Y-26.977 Z-1.500
G2 X-44.812 Y-27.500 Z-1.500 I-1.916 J2.085 K0.000
G1 X-44.000 Y-27.500 Z-1.500
G1 X-44.000 Y-26.977 Z-1.500
G1 X-44.000 Y-26.977 Z-2.000
G2 X-44.812 Y-27.500 Z-2.000 I-1.916 J2.085 K0.000
G1 X-44.000 Y-27.500 Z-2.000
G1 X-44.000 Y-26.977 Z-2.000
G0 Z5.000
G0 X-47.188 Y-27.500 Z5.000
G0 X-47.188 Y-27.500 Z3.000
G1 X-47.188 Y-27.500 Z-2.000
G2 X-44.944 Y-21.945 Z-2.000 I1.187 J2.751 K0.000
G2 X-44.000 Y-22.523 Z-2.000 I-1.010 J-2.712 K0.000
G1 X-44.000 Y-18.799 Z-2.000
G1 X-49.000 Y-18.792 Z-2.000
G1 X-49.000 Y-27.434 Z-2.000
G3 X-48.934 Y-27.500 Z-2.000 I0.042 J-0.024 K0.000
G1 X-47.188 Y-27.500 Z-2.000
G0 Z5.000
G0 X-48.000 Y-21.294 Z5.000
G0 X-48.000 Y-21.294 Z3.000
G1 X-48.000 Y-21.294 Z-2.000
G2 X-45.000 Y-20.883 Z-2.000 I1.998 J-3.430 K0.000
G1 X-45.000 Y-19.800 Z-2.000
G1 X-48.000 Y-19.800 Z-2.000
G1 X-48.000 Y-21.294 Z-2.000
G0 Z5.000
G0 X-47.500 Y-20.514 Z5.000
G0 X-47.500 Y-20.514 Z3.000
G1 X-47.500 Y-20.514 Z-2.000
G2 X-46.630 Y-20.300 Z-2.000 I1.484 J-4.163 K0.000
G1 X-47.500 Y-20.300 Z-2.000
G1 X-47.500 Y-20.514 Z-2.000
G1 X-47.500 Y-20.514 Z-2.500
G2 X-46.630 Y-20.300 Z-2.500 I1.484 J-4.163 K0.000
G1 X-47.500 Y-20.300 Z-2.500
G1 X-47.500 Y-20.514 Z-2.500
G0 Z5.000
G0 X-47.332 Y-20.985 Z5.000
G0 X-47.332 Y-20.985 Z3.000
G1 X-47.332 Y-20.985 Z-2.500
G2 X-45.000 Y-20.883 Z-2.500 I1.330 J-3.740 K0.000
G1 X-45.000 Y-19.800 Z-2.500
G1 X-48.000 Y-19.800 Z-2.500
G1 X-48.000 Y-21.294 Z-2.500
G2 X-47.332 Y-20.985 Z-2.500 I1.998 J-3.430 K0.000
G0 Z5.000
G0 X-47.000 Y-21.925 Z5.000
G0 X-47.000 Y-21.925 Z3.000
G1 X-47.000 Y-21.925 Z-2.500
G2 X-44.944 Y-21.945 Z-2.500 I0.999 J-2.825 K0.000
G2 X-44.000 Y-22.523 Z-2.500 I-1.010 J-2.712 K0.000
G1 X-44.000 Y-18.799 Z-2.500
G1 X-49.000 Y-18.792 Z-2.500
G1 X-49.000 Y-27.434 Z-2.500
G3 X-48.934 Y-27.500 Z-2.500 I0.042 J-0.024 K0.000
G1 X-47.188 Y-27.500 Z-2.500
G2 X-47.000 Y-21.925 Z-2.500 I1.187 J2.751 K0.000
G0 Z5.000
G0 X-44.000 Y-26.977 Z5.000
G0 X-44.000 Y-26.977 Z3.000
G1 X-44.000 Y-26.977 Z-2.500
G2 X-44.812 Y-27.500 Z-2.500 I-1.916 J2.085 K0.000
G1 X-44.000 Y-27.500 Z-2.500
G1 X-44.000 Y-26.977 Z-2.500
G1 X-44.000 Y-26.977 Z-3.000
G2 X-44.812 Y-27.500 Z-3.000 I-1.916 J2.085 K0.000
G1 X-44.000 Y-27.500 Z-3.000
G1 X-44.000 Y-26.977 Z-3.000
G0 Z5.000
G0 X-47.188 Y-27.500 Z5.000
G0 X-47.188 Y-27.500 Z3.000
G1 X-47.188 Y-27.500 Z-3.000
G2 X-44.944 Y-21.945 Z-3.000 I1.187 J2.751 K0.000
G2 X-44.000 Y-22.523 Z-3.000 I-1.010 J-2.712 K0.000
G1 X-44.000 Y-18.799 Z-3.000
G1 X-49.000 Y-18.792 Z-3.000
G1 X-49.000 Y-27.434 Z-3.000
G3 X-48.934 Y-27.500 Z-3.000 I0.042 J-0.024 K0.000
G1 X-47.188 Y-27.500 Z-3.000
G0 Z5.000
G0 X-48.000 Y-21.294 Z5.000
G0 X-48.000 Y-21.294 Z3.000
G1 X-48.000 Y-21.294 Z-3.000
G2 X-45.000 Y-20.883 Z-3.000 I1.998 J-3.430 K0.000
G1 X-45.000 Y-19.800 Z-3.000
G1 X-48.000 Y-19.800 Z-3.000
G1 X-48.000 Y-21.294 Z-3.000
G0 Z5.000
G0 X-47.500 Y-20.514 Z5.000
G0 X-47.500 Y-20.514 Z3.000
G1 X-47.500 Y-20.514 Z-3.000
G2 X-46.630 Y-20.300 Z-3.000 I1.484 J-4.163 K0.000
G1 X-47.500 Y-20.300 Z-3.000
G1 X-47.500 Y-20.514 Z-3.000
G1 X-47.500 Y-20.514 Z-3.500
G2 X-46.630 Y-20.300 Z-3.500 I1.484 J-4.163 K0.000
G1 X-47.500 Y-20.300 Z-3.500
G1 X-47.500 Y-20.514 Z-3.500
G0 Z5.000
G0 X-47.332 Y-20.985 Z5.000
G0 X-47.332 Y-20.985 Z3.000
G1 X-47.332 Y-20.985 Z-3.500
G2 X-45.000 Y-20.883 Z-3.500 I1.330 J-3.740 K0.000
G1 X-45.000 Y-19.800 Z-3.500
G1 X-48.000 Y-19.800 Z-3.500
G1 X-48.000 Y-21.294 Z-3.500
G2 X-47.332 Y-20.985 Z-3.500 I1.998 J-3.430 K0.000
G0 Z5.000
G0 X-47.000 Y-21.925 Z5.000
G0 X-47.000 Y-21.925 Z3.000
G1 X-47.000 Y-21.925 Z-3.500
G2 X-44.944 Y-21.945 Z-3.500 I0.999 J-2.825 K0.000
G2 X-44.000 Y-22.523 Z-3.500 I-1.010 J-2.712 K0.000
G1 X-44.000 Y-18.799 Z-3.500
G1 X-49.000 Y-18.792 Z-3.500
G1 X-49.000 Y-27.434 Z-3.500
G3 X-48.934 Y-27.500 Z-3.500 I0.042 J-0.024 K0.000
G1 X-47.188 Y-27.500 Z-3.500
G2 X-47.000 Y-21.925 Z-3.500 I1.187 J2.751 K0.000
G0 Z5.000
G0 X-44.000 Y-26.977 Z5.000
G0 X-44.000 Y-26.977 Z3.000
G1 X-44.000 Y-26.977 Z-3.500
G2 X-44.812 Y-27.500 Z-3.500 I-1.916 J2.085 K0.000
G1 X-44.000 Y-27.500 Z-3.500
G1 X-44.000 Y-26.977 Z-3.500
G1 X-44.000 Y-26.977 Z-4.000
G2 X-44.812 Y-27.500 Z-4.000 I-1.916 J2.085 K0.000
G1 X-44.000 Y-27.500 Z-4.000
G1 X-44.000 Y-26.977 Z-4.000
G0 Z5.000
G0 X-47.188 Y-27.500 Z5.000
G0 X-47.188 Y-27.500 Z3.000
G1 X-47.188 Y-27.500 Z-4.000
G2 X-44.944 Y-21.945 Z-4.000 I1.187 J2.751 K0.000
G2 X-44.000 Y-22.523 Z-4.000 I-1.010 J-2.712 K0.000
G1 X-44.000 Y-18.799 Z-4.000
G1 X-49.000 Y-18.792 Z-4.000
G1 X-49.000 Y-27.434 Z-4.000
G3 X-48.934 Y-27.500 Z-4.000 I0.042 J-0.024 K0.000
G1 X-47.188 Y-27.500 Z-4.000
G0 Z5.000
G0 X-48.000 Y-21.294 Z5.000
G0 X-48.000 Y-21.294 Z3.000
G1 X-48.000 Y-21.294 Z-4.000
G2 X-45.000 Y-20.883 Z-4.000 I1.998 J-3.430 K0.000
G1 X-45.000 Y-19.800 Z-4.000
G1 X-48.000 Y-19.800 Z-4.000
G1 X-48.000 Y-21.294 Z-4.000
G0 Z5.000
G0 X-47.500 Y-20.514 Z5.000
G0 X-47.500 Y-20.514 Z3.000
G1 X-47.500 Y-20.514 Z-4.000
G2 X-46.630 Y-20.300 Z-4.000 I1.484 J-4.163 K0.000
G1 X-47.500 Y-20.300 Z-4.000
G1 X-47.500 Y-20.514 Z-4.000
G1 X-47.500 Y-20.514 Z-4.500
G2 X-46.630 Y-20.300 Z-4.500 I1.484 J-4.163 K0.000
G1 X-47.500 Y-20.300 Z-4.500
G1 X-47.500 Y-20.514 Z-4.500
G0 Z5.000
G0 X-47.332 Y-20.985 Z5.000
G0 X-47.332 Y-20.985 Z3.000
G1 X-47.332 Y-20.985 Z-4.500
G2 X-45.000 Y-20.883 Z-4.500 I1.330 J-3.740 K0.000
G1 X-45.000 Y-19.800 Z-4.500
G1 X-48.000 Y-19.800 Z-4.500
G1 X-48.000 Y-21.294 Z-4.500
G2 X-47.332 Y-20.985 Z-4.500 I1.998 J-3.430 K0.000
G0 Z5.000
G0 X-47.000 Y-21.925 Z5.000
G0 X-47.000 Y-21.925 Z3.000
G1 X-47.000 Y-21.925 Z-4.500
G2 X-44.944 Y-21.945 Z-4.500 I0.999 J-2.825 K0.000
G2 X-44.000 Y-22.523 Z-4.500 I-1.010 J-2.712 K0.000
G1 X-44.000 Y-18.799 Z-4.500
G1 X-49.000 Y-18.792 Z-4.500
G1 X-49.000 Y-27.434 Z-4.500
G3 X-48.934 Y-27.500 Z-4.500 I0.042 J-0.024 K0.000
G1 X-47.188 Y-27.500 Z-4.500
G2 X-47.000 Y-21.925 Z-4.500 I1.187 J2.751 K0.000
G0 Z5.000
G0 X-44.000 Y-26.977 Z5.000
G0 X-44.000 Y-26.977 Z3.000
G1 X-44.000 Y-26.977 Z-4.500
G2 X-44.812 Y-27.500 Z-4.500 I-1.916 J2.085 K0.000
G1 X-44.000 Y-27.500 Z-4.500
G1 X-44.000 Y-26.977 Z-4.500
G1 X-44.000 Y-26.977 Z-4.700
G2 X-44.812 Y-27.500 Z-4.700 I-1.916 J2.085 K0.000
G1 X-44.000 Y-27.500 Z-4.700
G1 X-44.000 Y-26.977 Z-4.700
G0 Z5.000
G0 X-47.188 Y-27.500 Z5.000
G0 X-47.188 Y-27.500 Z3.000
G1 X-47.188 Y-27.500 Z-4.700
G2 X-44.944 Y-21.945 Z-4.700 I1.187 J2.751 K0.000
G2 X-44.000 Y-22.523 Z-4.700 I-1.010 J-2.712 K0.000
G1 X-44.000 Y-18.799 Z-4.700
G1 X-49.000 Y-18.792 Z-4.700
G1 X-49.000 Y-27.434 Z-4.700
G3 X-48.934 Y-27.500 Z-4.700 I0.042 J-0.024 K0.000
G1 X-47.188 Y-27.500 Z-4.700
G0 Z5.000
G0 X-48.000 Y-21.294 Z5.000
G0 X-48.000 Y-21.294 Z3.000
G1 X-48.000 Y-21.294 Z-4.700
G2 X-45.000 Y-20.883 Z-4.700 I1.998 J-3.430 K0.000
G1 X-45.000 Y-19.800 Z-4.700
G1 X-48.000 Y-19.800 Z-4.700
G1 X-48.000 Y-21.294 Z-4.700
G0 Z5.000
G0 X-47.500 Y-20.514 Z5.000
G0 X-47.500 Y-20.514 Z3.000
G1 X-47.500 Y-20.514 Z-4.700
G2 X-46.630 Y-20.300 Z-4.700 I1.484 J-4.163 K0.000
G1 X-47.500 Y-20.300 Z-4.700
G1 X-47.500 Y-20.514 Z-4.700
G0 Z5.000
G0 Z5.000
G0 X-47.500 Y-20.514
G0 Y18.800
G0 Y18.800 Z3.000
G1 X-47.500 Y18.800 Z-0.500
G1 X-43.999 Y18.800 Z-0.500
G1 X-43.996 Y22.526 Z-0.500
G2 X-48.049 Y26.937 Z-0.500 I-2.006 J2.224 K0.000
G2 X-47.188 Y27.500 Z-0.500 I2.019 J-2.148 K0.000
G1 X-48.934 Y27.500 Z-0.500
G3 X-49.000 Y27.434 Z-0.500 I-0.024 J-0.042 K0.000
G1 X-49.000 Y18.800 Z-0.500
G1 X-47.500 Y18.800 Z-0.500
G0 Z5.000
G0 Y19.800 Z5.000
G0 Y19.800 Z3.000
G1 X-47.500 Y19.800 Z-0.500
G1 X-45.000 Y19.800 Z-0.500
G1 X-45.000 Y20.883 Z-0.500
G2 X-48.000 Y21.294 Z-0.500 I-1.002 J3.840 K0.000
G1 X-48.000 Y19.800 Z-0.500
G1 X-47.500 Y19.800 Z-0.500
G0 Z5.000
G0 Y20.300 Z5.000
G0 Y20.300 Z3.000
G1 X-47.500 Y20.300 Z-0.500
G1 X-46.630 Y20.300 Z-0.500
G2 X-47.500 Y20.514 Z-0.500 I0.614 J4.376 K0.000
G1 X-47.500 Y20.300 Z-0.500
G0 Z5.000
G0 X-43.992 Y26.971 Z5.000
G0 X-43.992 Y26.971 Z3.000
G1 X-43.992 Y26.971 Z-0.500
G1 X-43.992 Y27.500 Z-0.500
G1 X-44.812 Y27.500 Z-0.500
G2 X-43.992 Y26.971 Z-0.500 I-1.113 J-2.624 K0.000
G1 X-43.992 Y26.971 Z-1.000
G1 X-43.992 Y27.500 Z-1.000
G1 X-44.812 Y27.500 Z-1.000
G2 X-43.992 Y26.971 Z-1.000 I-1.113 J-2.624 K0.000
G0 Z5.000
G0 X-47.188 Y27.500 Z5.000
G0 X-47.188 Y27.500 Z3.000
G1 X-47.188 Y27.500 Z-1.000
G1 X-48.934 Y27.500 Z-1.000
G3 X-49.000 Y27.434 Z-1.000 I-0.024 J-0.042 K0.000
G1 X-49.000 Y18.800 Z-1.000
G1 X-43.999 Y18.800 Z-1.000
G1 X-43.996 Y22.526 Z-1.000
G2 X-48.049 Y26.937 Z-1.000 I-2.006 J2.224 K0.000
G2 X-47.188 Y27.500 Z-1.000 I2.019 J-2.148 K0.000
G0 Z5.000
G0 X-48.000 Y21.294 Z5.000
G0 X-48.000 Y21.294 Z3.000
G1 X-48.000 Y21.294 Z-1.000
G1 X-48.000 Y19.800 Z-1.000
G1 X-45.000 Y19.800 Z-1.000
G1 X-45.000 Y20.883 Z-1.000
G2 X-48.000 Y21.294 Z-1.000 I-1.002 J3.840 K0.000
G0 Z5.000
G0 X-47.500 Y20.514 Z5.000
G0 X-47.500 Y20.514 Z3.000
G1 X-47.500 Y20.514 Z-1.000
G1 X-47.500 Y20.300 Z-1.000
G1 X-46.630 Y20.300 Z-1.000
G2 X-47.500 Y20.514 Z-1.000 I0.614 J4.376 K0.000
G1 X-47.500 Y20.514 Z-1.500
G1 X-47.500 Y20.300 Z-1.500
G1 X-46.630 Y20.300 Z-1.500
G2 X-47.500 Y20.514 Z-1.500 I0.614 J4.376 K0.000
G0 Z5.000
G0 X-47.332 Y20.984 Z5.000
G0 X-47.332 Y20.984 Z3.000
G1 X-47.332 Y20.984 Z-1.500
G2 X-48.000 Y21.294 Z-1.500 I1.330 J3.739 K0.000
G1 X-48.000 Y19.800 Z-1.500
G1 X-45.000 Y19.800 Z-1.500
G1 X-45.000 Y20.883 Z-1.500
G2 X-47.332 Y20.984 Z-1.500 I-1.002 J3.840 K0.000
G0 Z5.000
G0 X-47.000 Y21.926 Z5.000
G0 X-47.000 Y21.926 Z3.000
G1 X-47.000 Y21.926 Z-1.500
G2 X-48.049 Y26.937 Z-1.500 I0.998 J2.824 K0.000
G2 X-47.188 Y27.500 Z-1.500 I2.019 J-2.148 K0.000
G1 X-48.934 Y27.500 Z-1.500
G3 X-49.000 Y27.434 Z-1.500 I-0.024 J-0.042 K0.000
G1 X-49.000 Y18.800 Z-1.500
G1 X-43.999 Y18.800 Z-1.500
G1 X-43.996 Y22.526 Z-1.500
G2 X-47.000 Y21.926 Z-1.500 I-2.006 J2.224 K0.000
G0 Z5.000
G0 X-43.992 Y26.971 Z5.000
G0 X-43.992 Y26.971 Z3.000
G1 X-43.992 Y26.971 Z-1.500
G1 X-43.992 Y27.500 Z-1.500
G1 X-44.812 Y27.500 Z-1.500
G2 X-43.992 Y26.971 Z-1.500 I-1.113 J-2.624 K0.000
G1 X-43.992 Y26.971 Z-2.000
G1 X-43.992 Y27.500 Z-2.000
G1 X-44.812 Y27.500 Z-2.000
G2 X-43.992 Y26.971 Z-2.000 I-1.113 J-2.624 K0.000
G0 Z5.000
G0 X-47.188 Y27.500 Z5.000
G0 X-47.188 Y27.500 Z3.000
G1 X-47.188 Y27.500 Z-2.000
G1 X-48.934 Y27.500 Z-2.000
G3 X-49.000 Y27.434 Z-2.000 I-0.024 J-0.042 K0.000
G1 X-49.000 Y18.800 Z-2.000
G1 X-43.999 Y18.800 Z-2.000
G1 X-43.996 Y22.526 Z-2.000
G2 X-48.049 Y26.937 Z-2.000 I-2.006 J2.224 K0.000
G2 X-47.188 Y27.500 Z-2.000 I2.019 J-2.148 K0.000
G0 Z5.000
G0 X-48.000 Y21.294 Z5.000
G0 X-48.000 Y21.294 Z3.000
G1 X-48.000 Y21.294 Z-2.000
G1 X-48.000 Y19.800 Z-2.000
G1 X-45.000 Y19.800 Z-2.000
G1 X-45.000 Y20.883 Z-2.000
G2 X-48.000 Y21.294 Z-2.000 I-1.002 J3.840 K0.000
G0 Z5.000
G0 X-47.500 Y20.514 Z5.000
G0 X-47.500 Y20.514 Z3.000
G1 X-47.500 Y20.514 Z-2.000
G1 X-47.500 Y20.300 Z-2.000
G1 X-46.630 Y20.300 Z-2.000
G2 X-47.500 Y20.514 Z-2.000 I0.614 J4.376 K0.000
G1 X-47.500 Y20.514 Z-2.500
G1 X-47.500 Y20.300 Z-2.500
G1 X-46.630 Y20.300 Z-2.500
G2 X-47.500 Y20.514 Z-2.500 I0.614 J4.376 K0.000
G0 Z5.000
G0 X-47.332 Y20.984 Z5.000
G0 X-47.332 Y20.984 Z3.000
G1 X-47.332 Y20.984 Z-2.500
G2 X-48.000 Y21.294 Z-2.500 I1.330 J3.739 K0.000
G1 X-48.000 Y19.800 Z-2.500
G1 X-45.000 Y19.800 Z-2.500
G1 X-45.000 Y20.883 Z-2.500
G2 X-47.332 Y20.984 Z-2.500 I-1.002 J3.840 K0.000
G0 Z5.000
G0 X-47.000 Y21.926 Z5.000
G0 X-47.000 Y21.926 Z3.000
G1 X-47.000 Y21.926 Z-2.500
G2 X-48.049 Y26.937 Z-2.500 I0.998 J2.824 K0.000
G2 X-47.188 Y27.500 Z-2.500 I2.019 J-2.148 K0.000
G1 X-48.934 Y27.500 Z-2.500
G3 X-49.000 Y27.434 Z-2.500 I-0.024 J-0.042 K0.000
G1 X-49.000 Y18.800 Z-2.500
G1 X-43.999 Y18.800 Z-2.500
G1 X-43.996 Y22.526 Z-2.500
G2 X-47.000 Y21.926 Z-2.500 I-2.006 J2.224 K0.000
G0 Z5.000
G0 X-43.992 Y26.971 Z5.000
G0 X-43.992 Y26.971 Z3.000
G1 X-43.992 Y26.971 Z-2.500
G1 X-43.992 Y27.500 Z-2.500
G1 X-44.812 Y27.500 Z-2.500
G2 X-43.992 Y26.971 Z-2.500 I-1.113 J-2.624 K0.000
G1 X-43.992 Y26.971 Z-3.000
G1 X-43.992 Y27.500 Z-3.000
G1 X-44.812 Y27.500 Z-3.000
G2 X-43.992 Y26.971 Z-3.000 I-1.113 J-2.624 K0.000
G0 Z5.000
G0 X-47.188 Y27.500 Z5.000
G0 X-47.188 Y27.500 Z3.000
G1 X-47.188 Y27.500 Z-3.000
G1 X-48.934 Y27.500 Z-3.000
G3 X-49.000 Y27.434 Z-3.000 I-0.024 J-0.042 K0.000
G1 X-49.000 Y18.800 Z-3.000
G1 X-43.999 Y18.800 Z-3.000
G1 X-43.996 Y22.526 Z-3.000
G2 X-48.049 Y26.937 Z-3.000 I-2.006 J2.224 K0.000
G2 X-47.188 Y27.500 Z-3.000 I2.019 J-2.148 K0.000
G0 Z5.000
G0 X-48.000 Y21.294 Z5.000
G0 X-48.000 Y21.294 Z3.000
G1 X-48.000 Y21.294 Z-3.000
G1 X-48.000 Y19.800 Z-3.000
G1 X-45.000 Y19.800 Z-3.000
G1 X-45.000 Y20.883 Z-3.000
G2 X-48.000 Y21.294 Z-3.000 I-1.002 J3.840 K0.000
G0 Z5.000
G0 X-47.500 Y20.514 Z5.000
G0 X-47.500 Y20.514 Z3.000
G1 X-47.500 Y20.514 Z-3.000
G1 X-47.500 Y20.300 Z-3.000
G1 X-46.630 Y20.300 Z-3.000
G2 X-47.500 Y20.514 Z-3.000 I0.614 J4.376 K0.000
G1 X-47.500 Y20.514 Z-3.500
G1 X-47.500 Y20.300 Z-3.500
G1 X-46.630 Y20.300 Z-3.500
G2 X-47.500 Y20.514 Z-3.500 I0.614 J4.376 K0.000
G0 Z5.000
G0 X-47.332 Y20.984 Z5.000
G0 X-47.332 Y20.984 Z3.000
G1 X-47.332 Y20.984 Z-3.500
G2 X-48.000 Y21.294 Z-3.500 I1.330 J3.739 K0.000
G1 X-48.000 Y19.800 Z-3.500
G1 X-45.000 Y19.800 Z-3.500
G1 X-45.000 Y20.883 Z-3.500
G2 X-47.332 Y20.984 Z-3.500 I-1.002 J3.840 K0.000
G0 Z5.000
G0 X-47.000 Y21.926 Z5.000
G0 X-47.000 Y21.926 Z3.000
G1 X-47.000 Y21.926 Z-3.500
G2 X-48.049 Y26.937 Z-3.500 I0.998 J2.824 K0.000
G2 X-47.188 Y27.500 Z-3.500 I2.019 J-2.148 K0.000
G1 X-48.934 Y27.500 Z-3.500
G3 X-49.000 Y27.434 Z-3.500 I-0.024 J-0.042 K0.000
G1 X-49.000 Y18.800 Z-3.500
G1 X-43.999 Y18.800 Z-3.500
G1 X-43.996 Y22.526 Z-3.500
G2 X-47.000 Y21.926 Z-3.500 I-2.006 J2.224 K0.000
G0 Z5.000
G0 X-43.992 Y26.971 Z5.000
G0 X-43.992 Y26.971 Z3.000
G1 X-43.992 Y26.971 Z-3.500
G1 X-43.992 Y27.500 Z-3.500
G1 X-44.812 Y27.500 Z-3.500
G2 X-43.992 Y26.971 Z-3.500 I-1.113 J-2.624 K0.000
G1 X-43.992 Y26.971 Z-4.000
G1 X-43.992 Y27.500 Z-4.000
G1 X-44.812 Y27.500 Z-4.000
G2 X-43.992 Y26.971 Z-4.000 I-1.113 J-2.624 K0.000
G0 Z5.000
G0 X-47.188 Y27.500 Z5.000
G0 X-47.188 Y27.500 Z3.000
G1 X-47.188 Y27.500 Z-4.000
G1 X-48.934 Y27.500 Z-4.000
G3 X-49.000 Y27.434 Z-4.000 I-0.024 J-0.042 K0.000
G1 X-49.000 Y18.800 Z-4.000
G1 X-43.999 Y18.800 Z-4.000
G1 X-43.996 Y22.526 Z-4.000
G2 X-48.049 Y26.937 Z-4.000 I-2.006 J2.224 K0.000
G2 X-47.188 Y27.500 Z-4.000 I2.019 J-2.148 K0.000
G0 Z5.000
G0 X-48.000 Y21.294 Z5.000
G0 X-48.000 Y21.294 Z3.000
G1 X-48.000 Y21.294 Z-4.000
G1 X-48.000 Y19.800 Z-4.000
G1 X-45.000 Y19.800 Z-4.000
G1 X-45.000 Y20.883 Z-4.000
G2 X-48.000 Y21.294 Z-4.000 I-1.002 J3.840 K0.000
G0 Z5.000
G0 X-47.500 Y20.514 Z5.000
G0 X-47.500 Y20.514 Z3.000
G1 X-47.500 Y20.514 Z-4.000
G1 X-47.500 Y20.300 Z-4.000
G1 X-46.630 Y20.300 Z-4.000
G2 X-47.500 Y20.514 Z-4.000 I0.614 J4.376 K0.000
G1 X-47.500 Y20.514 Z-4.500
G1 X-47.500 Y20.300 Z-4.500
G1 X-46.630 Y20.300 Z-4.500
G2 X-47.500 Y20.514 Z-4.500 I0.614 J4.376 K0.000
G0 Z5.000
G0 X-47.332 Y20.984 Z5.000
G0 X-47.332 Y20.984 Z3.000
G1 X-47.332 Y20.984 Z-4.500
G2 X-48.000 Y21.294 Z-4.500 I1.330 J3.739 K0.000
G1 X-48.000 Y19.800 Z-4.500
G1 X-45.000 Y19.800 Z-4.500
G1 X-45.000 Y20.883 Z-4.500
G2 X-47.332 Y20.984 Z-4.500 I-1.002 J3.840 K0.000
G0 Z5.000
G0 X-47.000 Y21.926 Z5.000
G0 X-47.000 Y21.926 Z3.000
G1 X-47.000 Y21.926 Z-4.500
G2 X-48.049 Y26.937 Z-4.500 I0.998 J2.824 K0.000
G2 X-47.188 Y27.500 Z-4.500 I2.019 J-2.148 K0.000
G1 X-48.934 Y27.500 Z-4.500
G3 X-49.000 Y27.434 Z-4.500 I-0.024 J-0.042 K0.000
G1 X-49.000 Y18.800 Z-4.500
G1 X-43.999 Y18.800 Z-4.500
G1 X-43.996 Y22.526 Z-4.500
G2 X-47.000 Y21.926 Z-4.500 I-2.006 J2.224 K0.000
G0 Z5.000
G0 X-43.992 Y26.971 Z5.000
G0 X-43.992 Y26.971 Z3.000
G1 X-43.992 Y26.971 Z-4.500
G1 X-43.992 Y27.500 Z-4.500
G1 X-44.812 Y27.500 Z-4.500
G2 X-43.992 Y26.971 Z-4.500 I-1.113 J-2.624 K0.000
G1 X-43.992 Y26.971 Z-4.700
G1 X-43.992 Y27.500 Z-4.700
G1 X-44.812 Y27.500 Z-4.700
G2 X-43.992 Y26.971 Z-4.700 I-1.113 J-2.624 K0.000
G0 Z5.000
G0 X-47.188 Y27.500 Z5.000
G0 X-47.188 Y27.500 Z3.000
G1 X-47.188 Y27.500 Z-4.700
G1 X-48.934 Y27.500 Z-4.700
G3 X-49.000 Y27.434 Z-4.700 I-0.024 J-0.042 K0.000
G1 X-49.000 Y18.800 Z-4.700
G1 X-43.999 Y18.800 Z-4.700
G1 X-43.996 Y22.526 Z-4.700
G2 X-48.049 Y26.937 Z-4.700 I-2.006 J2.224 K0.000
G2 X-47.188 Y27.500 Z-4.700 I2.019 J-2.148 K0.000
G0 Z5.000
G0 X-48.000 Y21.294 Z5.000
G0 X-48.000 Y21.294 Z3.000
G1 X-48.000 Y21.294 Z-4.700
G1 X-48.000 Y19.800 Z-4.700
G1 X-45.000 Y19.800 Z-4.700
G1 X-45.000 Y20.883 Z-4.700
G2 X-48.000 Y21.294 Z-4.700 I-1.002 J3.840 K0.000
G0 Z5.000
G0 X-47.500 Y20.514 Z5.000
G0 X-47.500 Y20.514 Z3.000
G1 X-47.500 Y20.514 Z-4.700
G1 X-47.500 Y20.300 Z-4.700
G1 X-46.630 Y20.300 Z-4.700
G2 X-47.500 Y20.514 Z-4.700 I0.614 J4.376 K0.000
G0 Z5.000
G0 Z5.000
G0 X-47.500 Y20.514
G0 X44.000
G0 X44.000 Z3.000
G1 X44.000 Y20.514 Z-0.500
G1 X44.000 Y18.799 Z-0.500
G1 X49.000 Y18.792 Z-0.500
G1 X49.000 Y27.434 Z-0.500
G3 X48.934 Y27.500 Z-0.500 I-0.042 J0.024 K0.000
G1 X47.188 Y27.500 Z-0.500
G2 X44.944 Y21.945 Z-0.500 I-1.187 J-2.751 K0.000
G2 X44.000 Y22.523 Z-0.500 I1.010 J2.712 K0.000
G1 X44.000 Y20.514 Z-0.500
G0 Z5.000
G0 X45.000 Z5.000
G0 X45.000 Z3.000
G1 X45.000 Y20.514 Z-0.500
G1 X45.000 Y19.800 Z-0.500
G1 X48.000 Y19.800 Z-0.500
G1 X48.000 Y21.294 Z-0.500
G2 X45.000 Y20.883 Z-0.500 I-1.998 J3.430 K0.000
G1 X45.000 Y20.514 Z-0.500
G0 Z5.000
G0 X46.630 Y20.300 Z5.000
G0 X46.630 Y20.300 Z3.000
G1 X46.630 Y20.300 Z-0.500
G1 X47.500 Y20.300 Z-0.500
G1 X47.500 Y20.514 Z-0.500
G2 X46.630 Y20.300 Z-0.500 I-1.484 J4.163 K0.000
G0 Z5.000
G0 X44.000 Y26.977 Z5.000
G0 X44.000 Y26.977 Z3.000
G1 X44.000 Y26.977 Z-0.500
G2 X44.812 Y27.500 Z-0.500 I1.916 J-2.085 K0.000
G1 X44.000 Y27.500 Z-0.500
G1 X44.000 Y26.977 Z-0.500
G1 X44.000 Y26.977 Z-1.000
G2 X44.812 Y27.500 Z-1.000 I1.916 J-2.085 K0.000
G1 X44.000 Y27.500 Z-1.000
G1 X44.000 Y26.977 Z-1.000
G0 Z5.000
G0 X47.188 Y27.500 Z5.000
G0 X47.188 Y27.500 Z3.000
G1 X47.188 Y27.500 Z-1.000
G2 X44.944 Y21.945 Z-1.000 I-1.187 J-2.751 K0.000
G2 X44.000 Y22.523 Z-1.000 I1.010 J2.712 K0.000
G1 X44.000 Y18.799 Z-1.000
G1 X49.000 Y18.792 Z-1.000
G1 X49.000 Y27.434 Z-1.000
G3 X48.934 Y27.500 Z-1.000 I-0.042 J0.024 K0.000
G1 X47.188 Y27.500 Z-1.000
G0 Z5.000
G0 X48.000 Y21.294 Z5.000
G0 X48.000 Y21.294 Z3.000
G1 X48.000 Y21.294 Z-1.000
G2 X45.000 Y20.883 Z-1.000 I-1.998 J3.430 K0.000
G1 X45.000 Y19.800 Z-1.000
G1 X48.000 Y19.800 Z-1.000
G1 X48.000 Y21.294 Z-1.000
G0 Z5.000
G0 X47.500 Y20.514 Z5.000
G0 X47.500 Y20.514 Z3.000
G1 X47.500 Y20.514 Z-1.000
G2 X46.630 Y20.300 Z-1.000 I-1.484 J4.163 K0.000
G1 X47.500 Y20.300 Z-1.000
G1 X47.500 Y20.514 Z-1.000
G1 X47.500 Y20.514 Z-1.500
G2 X46.630 Y20.300 Z-1.500 I-1.484 J4.163 K0.000
G1 X47.500 Y20.300 Z-1.500
G1 X47.500 Y20.514 Z-1.500
G0 Z5.000
G0 X47.332 Y20.985 Z5.000
G0 X47.332 Y20.985 Z3.000
G1 X47.332 Y20.985 Z-1.500
G2 X45.000 Y20.883 Z-1.500 I-1.330 J3.740 K0.000
G1 X45.000 Y19.800 Z-1.500
G1 X48.000 Y19.800 Z-1.500
G1 X48.000 Y21.294 Z-1.500
G2 X47.332 Y20.985 Z-1.500 I-1.998 J3.430 K0.000
G0 Z5.000
G0 X47.000 Y21.925 Z5.000
G0 X47.000 Y21.925 Z3.000
G1 X47.000 Y21.925 Z-1.500
G2 X44.944 Y21.945 Z-1.500 I-0.999 J2.825 K0.000
G2 X44.000 Y22.523 Z-1.500 I1.010 J2.712 K0.000
G1 X44.000 Y18.799 Z-1.500
G1 X49.000 Y18.792 Z-1.500
G1 X49.000 Y27.434 Z-1.500
G3 X48.934 Y27.500 Z-1.500 I-0.042 J0.024 K0.000
G1 X47.188 Y27.500 Z-1.500
G2 X47.000 Y21.925 Z-1.500 I-1.187 J-2.751 K0.000
G0 Z5.000
G0 X44.000 Y26.977 Z5.000
G0 X44.000 Y26.977 Z3.000
G1 X44.000 Y26.977 Z-1.500
G2 X44.812 Y27.500 Z-1.500 I1.916 J-2.085 K0.000
G1 X44.000 Y27.500 Z-1.500
G1 X44.000 Y26.977 Z-1.500
G1 X44.000 Y26.977 Z-2.000
G2 X44.812 Y27.500 Z-2.000 I1.916 J-2.085 K0.000
G1 X44.000 Y27.500 Z-2.000
G1 X44.000 Y26.977 Z-2.000
G0 Z5.000
G0 X47.188 Y27.500 Z5.000
G0 X47.188 Y27.500 Z3.000
G1 X47.188 Y27.500 Z-2.000
G2 X44.944 Y21.945 Z-2.000 I-1.187 J-2.751 K0.000
G2 X44.000 Y22.523 Z-2.000 I1.010 J2.712 K0.000
G1 X44.000 Y18.799 Z-2.000
G1 X49.000 Y18.792 Z-2.000
G1 X49.000 Y27.434 Z-2.000
G3 X48.934 Y27.500 Z-2.000 I-0.042 J0.024 K0.000
G1 X47.188 Y27.500 Z-2.000
G0 Z5.000
G0 X48.000 Y21.294 Z5.000
G0 X48.000 Y21.294 Z3.000
G1 X48.000 Y21.294 Z-2.000
G2 X45.000 Y20.883 Z-2.000 I-1.998 J3.430 K0.000
G1 X45.000 Y19.800 Z-2.000
G1 X48.000 Y19.800 Z-2.000
G1 X48.000 Y21.294 Z-2.000
G0 Z5.000
G0 X47.500 Y20.514 Z5.000
G0 X47.500 Y20.514 Z3.000
G1 X47.500 Y20.514 Z-2.000
G2 X46.630 Y20.300 Z-2.000 I-1.484 J4.163 K0.000
G1 X47.500 Y20.300 Z-2.000
G1 X47.500 Y20.514 Z-2.000
G1 X47.500 Y20.514 Z-2.500
G2 X46.630 Y20.300 Z-2.500 I-1.484 J4.163 K0.000
G1 X47.500 Y20.300 Z-2.500
G1 X47.500 Y20.514 Z-2.500
G0 Z5.000
G0 X47.332 Y20.985 Z5.000
G0 X47.332 Y20.985 Z3.000
G1 X47.332 Y20.985 Z-2.500
G2 X45.000 Y20.883 Z-2.500 I-1.330 J3.740 K0.000
G1 X45.000 Y19.800 Z-2.500
G1 X48.000 Y19.800 Z-2.500
G1 X48.000 Y21.294 Z-2.500
G2 X47.332 Y20.985 Z-2.500 I-1.998 J3.430 K0.000
G0 Z5.000
G0 X47.000 Y21.925 Z5.000
G0 X47.000 Y21.925 Z3.000
G1 X47.000 Y21.925 Z-2.500
G2 X44.944 Y21.945 Z-2.500 I-0.999 J2.825 K0.000
G2 X44.000 Y22.523 Z-2.500 I1.010 J2.712 K0.000
G1 X44.000 Y18.799 Z-2.500
G1 X49.000 Y18.792 Z-2.500
G1 X49.000 Y27.434 Z-2.500
G3 X48.934 Y27.500 Z-2.500 I-0.042 J0.024 K0.000
G1 X47.188 Y27.500 Z-2.500
G2 X47.000 Y21.925 Z-2.500 I-1.187 J-2.751 K0.000
G0 Z5.000
G0 X44.000 Y26.977 Z5.000
G0 X44.000 Y26.977 Z3.000
G1 X44.000 Y26.977 Z-2.500
G2 X44.812 Y27.500 Z-2.500 I1.916 J-2.085 K0.000
G1 X44.000 Y27.500 Z-2.500
G1 X44.000 Y26.977 Z-2.500
G1 X44.000 Y26.977 Z-3.000
G2 X44.812 Y27.500 Z-3.000 I1.916 J-2.085 K0.000
G1 X44.000 Y27.500 Z-3.000
G1 X44.000 Y26.977 Z-3.000
G0 Z5.000
G0 X47.188 Y27.500 Z5.000
G0 X47.188 Y27.500 Z3.000
G1 X47.188 Y27.500 Z-3.000
G2 X44.944 Y21.945 Z-3.000 I-1.187 J-2.751 K0.000
G2 X44.000 Y22.523 Z-3.000 I1.010 J2.712 K0.000
G1 X44.000 Y18.799 Z-3.000
G1 X49.000 Y18.792 Z-3.000
G1 X49.000 Y27.434 Z-3.000
G3 X48.934 Y27.500 Z-3.000 I-0.042 J0.024 K0.000
G1 X47.188 Y27.500 Z-3.000
G0 Z5.000
G0 X48.000 Y21.294 Z5.000
G0 X48.000 Y21.294 Z3.000
G1 X48.000 Y21.294 Z-3.000
G2 X45.000 Y20.883 Z-3.000 I-1.998 J3.430 K0.000
G1 X45.000 Y19.800 Z-3.000
G1 X48.000 Y19.800 Z-3.000
G1 X48.000 Y21.294 Z-3.000
G0 Z5.000
G0 X47.500 Y20.514 Z5.000
G0 X47.500 Y20.514 Z3.000
G1 X47.500 Y20.514 Z-3.000
G2 X46.630 Y20.300 Z-3.000 I-1.484 J4.163 K0.000
G1 X47.500 Y20.300 Z-3.000
G1 X47.500 Y20.514 Z-3.000
G1 X47.500 Y20.514 Z-3.500
G2 X46.630 Y20.300 Z-3.500 I-1.484 J4.163 K0.000
G1 X47.500 Y20.300 Z-3.500
G1 X47.500 Y20.514 Z-3.500
G0 Z5.000
G0 X47.332 Y20.985 Z5.000
G0 X47.332 Y20.985 Z3.000
G1 X47.332 Y20.985 Z-3.500
G2 X45.000 Y20.883 Z-3.500 I-1.330 J3.740 K0.000
G1 X45.000 Y19.800 Z-3.500
G1 X48.000 Y19.800 Z-3.500
G1 X48.000 Y21.294 Z-3.500
G2 X47.332 Y20.985 Z-3.500 I-1.998 J3.430 K0.000
G0 Z5.000
G0 X47.000 Y21.925 Z5.000
G0 X47.000 Y21.925 Z3.000
G1 X47.000 Y21.925 Z-3.500
G2 X44.944 Y21.945 Z-3.500 I-0.999 J2.825 K0.000
G2 X44.000 Y22.523 Z-3.500 I1.010 J2.712 K0.000
G1 X44.000 Y18.799 Z-3.500
G1 X49.000 Y18.792 Z-3.500
G1 X49.000 Y27.434 Z-3.500
G3 X48.934 Y27.500 Z-3.500 I-0.042 J0.024 K0.000
G1 X47.188 Y27.500 Z-3.500
G2 X47.000 Y21.925 Z-3.500 I-1.187 J-2.751 K0.000
G0 Z5.000
G0 X44.000 Y26.977 Z5.000
G0 X44.000 Y26.977 Z3.000
G1 X44.000 Y26.977 Z-3.500
G2 X44.812 Y27.500 Z-3.500 I1.916 J-2.085 K0.000
G1 X44.000 Y27.500 Z-3.500
G1 X44.000 Y26.977 Z-3.500
G1 X44.000 Y26.977 Z-4.000
G2 X44.812 Y27.500 Z-4.000 I1.916 J-2.085 K0.000
G1 X44.000 Y27.500 Z-4.000
G1 X44.000 Y26.977 Z-4.000
G0 Z5.000
G0 X47.188 Y27.500 Z5.000
G0 X47.188 Y27.500 Z3.000
G1 X47.188 Y27.500 Z-4.000
G2 X44.944 Y21.945 Z-4.000 I-1.187 J-2.751 K0.000
G2 X44.000 Y22.523 Z-4.000 I1.010 J2.712 K0.000
G1 X44.000 Y18.799 Z-4.000
G1 X49.000 Y18.792 Z-4.000
G1 X49.000 Y27.434 Z-4.000
G3 X48.934 Y27.500 Z-4.000 I-0.042 J0.024 K0.000
G1 X47.188 Y27.500 Z-4.000
G0 Z5.000
G0 X48.000 Y21.294 Z5.000
G0 X48.000 Y21.294 Z3.000
G1 X48.000 Y21.294 Z-4.000
G2 X45.000 Y20.883 Z-4.000 I-1.998 J3.430 K0.000
G1 X45.000 Y19.800 Z-4.000
G1 X48.000 Y19.800 Z-4.000
G1 X48.000 Y21.294 Z-4.000
G0 Z5.000
G0 X47.500 Y20.514 Z5.000
G0 X47.500 Y20.514 Z3.000
G1 X47.500 Y20.514 Z-4.000
G2 X46.630 Y20.300 Z-4.000 I-1.484 J4.163 K0.000
G1 X47.500 Y20.300 Z-4.000
G1 X47.500 Y20.514 Z-4.000
G1 X47.500 Y20.514 Z-4.500
G2 X46.630 Y20.300 Z-4.500 I-1.484 J4.163 K0.000
G1 X47.500 Y20.300 Z-4.500
G1 X47.500 Y20.514 Z-4.500
G0 Z5.000
G0 X47.332 Y20.985 Z5.000
G0 X47.332 Y20.985 Z3.000
G1 X47.332 Y20.985 Z-4.500
G2 X45.000 Y20.883 Z-4.500 I-1.330 J3.740 K0.000
G1 X45.000 Y19.800 Z-4.500
G1 X48.000 Y19.800 Z-4.500
G1 X48.000 Y21.294 Z-4.500
G2 X47.332 Y20.985 Z-4.500 I-1.998 J3.430 K0.000
G0 Z5.000
G0 X47.000 Y21.925 Z5.000
G0 X47.000 Y21.925 Z3.000
G1 X47.000 Y21.925 Z-4.500
G2 X44.944 Y21.945 Z-4.500 I-0.999 J2.825 K0.000
G2 X44.000 Y22.523 Z-4.500 I1.010 J2.712 K0.000
G1 X44.000 Y18.799 Z-4.500
G1 X49.000 Y18.792 Z-4.500
G1 X49.000 Y27.434 Z-4.500
G3 X48.934 Y27.500 Z-4.500 I-0.042 J0.024 K0.000
G1 X47.188 Y27.500 Z-4.500
G2 X47.000 Y21.925 Z-4.500 I-1.187 J-2.751 K0.000
G0 Z5.000
G0 X44.000 Y26.977 Z5.000
G0 X44.000 Y26.977 Z3.000
G1 X44.000 Y26.977 Z-4.500
G2 X44.812 Y27.500 Z-4.500 I1.916 J-2.085 K0.000
G1 X44.000 Y27.500 Z-4.500
G1 X44.000 Y26.977 Z-4.500
G1 X44.000 Y26.977 Z-4.700
G2 X44.812 Y27.500 Z-4.700 I1.916 J-2.085 K0.000
G1 X44.000 Y27.500 Z-4.700
G1 X44.000 Y26.977 Z-4.700
G0 Z5.000
G0 X47.188 Y27.500 Z5.000
G0 X47.188 Y27.500 Z3.000
G1 X47.188 Y27.500 Z-4.700
G2 X44.944 Y21.945 Z-4.700 I-1.187 J-2.751 K0.000
G2 X44.000 Y22.523 Z-4.700 I1.010 J2.712 K0.000
G1 X44.000 Y18.799 Z-4.700
G1 X49.000 Y18.792 Z-4.700
G1 X49.000 Y27.434 Z-4.700
G3 X48.934 Y27.500 Z-4.700 I-0.042 J0.024 K0.000
G1 X47.188 Y27.500 Z-4.700
G0 Z5.000
G0 X48.000 Y21.294 Z5.000
G0 X48.000 Y21.294 Z3.000
G1 X48.000 Y21.294 Z-4.700
G2 X45.000 Y20.883 Z-4.700 I-1.998 J3.430 K0.000
G1 X45.000 Y19.800 Z-4.700
G1 X48.000 Y19.800 Z-4.700
G1 X48.000 Y21.294 Z-4.700
G0 Z5.000
G0 X47.500 Y20.514 Z5.000
G0 X47.500 Y20.514 Z3.000
G1 X47.500 Y20.514 Z-4.700
G2 X46.630 Y20.300 Z-4.700 I-1.484 J4.163 K0.000
G1 X47.500 Y20.300 Z-4.700
G1 X47.500 Y20.514 Z-4.700
G0 Z5.000
G0 Z5.000
G0 X47.500 Y20.514
G0 Y-18.800
G0 Y-18.800 Z3.000
G1 X47.500 Y-18.800 Z-0.500
G1 X43.999 Y-18.800 Z-0.500
G1 X43.996 Y-22.526 Z-0.500
G2 X48.049 Y-26.937 Z-0.500 I2.006 J-2.224 K0.000
G2 X47.188 Y-27.500 Z-0.500 I-2.019 J2.148 K0.000
G1 X48.934 Y-27.500 Z-0.500
G3 X49.000 Y-27.434 Z-0.500 I0.024 J0.042 K0.000
G1 X49.000 Y-18.800 Z-0.500
G1 X47.500 Y-18.800 Z-0.500
G0 Z5.000
G0 Y-19.800 Z5.000
G0 Y-19.800 Z3.000
G1 X47.500 Y-19.800 Z-0.500
G1 X45.000 Y-19.800 Z-0.500
G1 X45.000 Y-20.883 Z-0.500
G2 X48.000 Y-21.294 Z-0.500 I1.002 J-3.840 K0.000
G1 X48.000 Y-19.800 Z-0.500
G1 X47.500 Y-19.800 Z-0.500
G0 Z5.000
G0 Y-20.300 Z5.000
G0 Y-20.300 Z3.000
G1 X47.500 Y-20.300 Z-0.500
G1 X46.630 Y-20.300 Z-0.500
G2 X47.500 Y-20.514 Z-0.500 I-0.614 J-4.376 K0.000
G1 X47.500 Y-20.300 Z-0.500
G0 Z5.000
G0 X43.992 Y-26.971 Z5.000
G0 X43.992 Y-26.971 Z3.000
G1 X43.992 Y-26.971 Z-0.500
G1 X43.992 Y-27.500 Z-0.500
G1 X44.812 Y-27.500 Z-0.500
G2 X43.992 Y-26.971 Z-0.500 I1.113 J2.624 K0.000
G1 X43.992 Y-26.971 Z-1.000
G1 X43.992 Y-27.500 Z-1.000
G1 X44.812 Y-27.500 Z-1.000
G2 X43.992 Y-26.971 Z-1.000 I1.113 J2.624 K0.000
G0 Z5.000
G0 X47.188 Y-27.500 Z5.000
G0 X47.188 Y-27.500 Z3.000
G1 X47.188 Y-27.500 Z-1.000
G1 X48.934 Y-27.500 Z-1.000
G3 X49.000 Y-27.434 Z-1.000 I0.024 J0.042 K0.000
G1 X49.000 Y-18.800 Z-1.000
G1 X43.999 Y-18.800 Z-1.000
G1 X43.996 Y-22.526 Z-1.000
G2 X48.049 Y-26.937 Z-1.000 I2.006 J-2.224 K0.000
G2 X47.188 Y-27.500 Z-1.000 I-2.019 J2.148 K0.000
G0 Z5.000
G0 X48.000 Y-21.294 Z5.000
G0 X48.000 Y-21.294 Z3.000
G1 X48.000 Y-21.294 Z-1.000
G1 X48.000 Y-19.800 Z-1.000
G1 X45.000 Y-19.800 Z-1.000
G1 X45.000 Y-20.883 Z-1.000
G2 X48.000 Y-21.294 Z-1.000 I1.002 J-3.840 K0.000
G0 Z5.000
G0 X47.500 Y-20.514 Z5.000
G0 X47.500 Y-20.514 Z3.000
G1 X47.500 Y-20.514 Z-1.000
G1 X47.500 Y-20.300 Z-1.000
G1 X46.630 Y-20.300 Z-1.000
G2 X47.500 Y-20.514 Z-1.000 I-0.614 J-4.376 K0.000
G1 X47.500 Y-20.514 Z-1.500
G1 X47.500 Y-20.300 Z-1.500
G1 X46.630 Y-20.300 Z-1.500
G2 X47.500 Y-20.514 Z-1.500 I-0.614 J-4.376 K0.000
G0 Z5.000
G0 X47.332 Y-20.984 Z5.000
G0 X47.332 Y-20.984 Z3.000
G1 X47.332 Y-20.984 Z-1.500
G2 X48.000 Y-21.294 Z-1.500 I-1.330 J-3.739 K0.000
G1 X48.000 Y-19.800 Z-1.500
G1 X45.000 Y-19.800 Z-1.500
G1 X45.000 Y-20.883 Z-1.500
G2 X47.332 Y-20.984 Z-1.500 I1.002 J-3.840 K0.000
G0 Z5.000
G0 X47.000 Y-21.926 Z5.000
G0 X47.000 Y-21.926 Z3.000
G1 X47.000 Y-21.926 Z-1.500
G2 X48.049 Y-26.937 Z-1.500 I-0.998 J-2.824 K0.000
G2 X47.188 Y-27.500 Z-1.500 I-2.019 J2.148 K0.000
G1 X48.934 Y-27.500 Z-1.500
G3 X49.000 Y-27.434 Z-1.500 I0.024 J0.042 K0.000
G1 X49.000 Y-18.800 Z-1.500
G1 X43.999 Y-18.800 Z-1.500
G1 X43.996 Y-22.526 Z-1.500
G2 X47.000 Y-21.926 Z-1.500 I2.006 J-2.224 K0.000
G0 Z5.000
G0 X43.992 Y-26.971 Z5.000
G0 X43.992 Y-26.971 Z3.000
G1 X43.992 Y-26.971 Z-1.500
G1 X43.992 Y-27.500 Z-1.500
G1 X44.812 Y-27.500 Z-1.500
G2 X43.992 Y-26.971 Z-1.500 I1.113 J2.624 K0.000
G1 X43.992 Y-26.971 Z-2.000
G1 X43.992 Y-27.500 Z-2.000
G1 X44.812 Y-27.500 Z-2.000
G2 X43.992 Y-26.971 Z-2.000 I1.113 J2.624 K0.000
G0 Z5.000
G0 X47.188 Y-27.500 Z5.000
G0 X47.188 Y-27.500 Z3.000
G1 X47.188 Y-27.500 Z-2.000
G1 X48.934 Y-27.500 Z-2.000
G3 X49.000 Y-27.434 Z-2.000 I0.024 J0.042 K0.000
G1 X49.000 Y-18.800 Z-2.000
G1 X43.999 Y-18.800 Z-2.000
G1 X43.996 Y-22.526 Z-2.000
G2 X48.049 Y-26.937 Z-2.000 I2.006 J-2.224 K0.000
G2 X47.188 Y-27.500 Z-2.000 I-2.019 J2.148 K0.000
G0 Z5.000
G0 X48.000 Y-21.294 Z5.000
G0 X48.000 Y-21.294 Z3.000
G1 X48.000 Y-21.294 Z-2.000
G1 X48.000 Y-19.800 Z-2.000
G1 X45.000 Y-19.800 Z-2.000
G1 X45.000 Y-20.883 Z-2.000
G2 X48.000 Y-21.294 Z-2.000 I1.002 J-3.840 K0.000
G0 Z5.000
G0 X47.500 Y-20.514 Z5.000
G0 X47.500 Y-20.514 Z3.000
G1 X47.500 Y-20.514 Z-2.000
G1 X47.500 Y-20.300 Z-2.000
G1 X46.630 Y-20.300 Z-2.000
G2 X47.500 Y-20.514 Z-2.000 I-0.614 J-4.376 K0.000
G1 X47.500 Y-20.514 Z-2.500
G1 X47.500 Y-20.300 Z-2.500
G1 X46.630 Y-20.300 Z-2.500
G2 X47.500 Y-20.514 Z-2.500 I-0.614 J-4.376 K0.000
G0 Z5.000
G0 X47.332 Y-20.984 Z5.000
G0 X47.332 Y-20.984 Z3.000
G1 X47.332 Y-20.984 Z-2.500
G2 X48.000 Y-21.294 Z-2.500 I-1.330 J-3.739 K0.000
G1 X48.000 Y-19.800 Z-2.500
G1 X45.000 Y-19.800 Z-2.500
G1 X45.000 Y-20.883 Z-2.500
G2 X47.332 Y-20.984 Z-2.500 I1.002 J-3.840 K0.000
G0 Z5.000
G0 X47.000 Y-21.926 Z5.000
G0 X47.000 Y-21.926 Z3.000
G1 X47.000 Y-21.926 Z-2.500
G2 X48.049 Y-26.937 Z-2.500 I-0.998 J-2.824 K0.000
G2 X47.188 Y-27.500 Z-2.500 I-2.019 J2.148 K0.000
G1 X48.934 Y-27.500 Z-2.500
G3 X49.000 Y-27.434 Z-2.500 I0.024 J0.042 K0.000
G1 X49.000 Y-18.800 Z-2.500
G1 X43.999 Y-18.800 Z-2.500
G1 X43.996 Y-22.526 Z-2.500
G2 X47.000 Y-21.926 Z-2.500 I2.006 J-2.224 K0.000
G0 Z5.000
G0 X43.992 Y-26.971 Z5.000
G0 X43.992 Y-26.971 Z3.000
G1 X43.992 Y-26.971 Z-2.500
G1 X43.992 Y-27.500 Z-2.500
G1 X44.812 Y-27.500 Z-2.500
G2 X43.992 Y-26.971 Z-2.500 I1.113 J2.624 K0.000
G1 X43.992 Y-26.971 Z-3.000
G1 X43.992 Y-27.500 Z-3.000
G1 X44.812 Y-27.500 Z-3.000
G2 X43.992 Y-26.971 Z-3.000 I1.113 J2.624 K0.000
G0 Z5.000
G0 X47.188 Y-27.500 Z5.000
G0 X47.188 Y-27.500 Z3.000
G1 X47.188 Y-27.500 Z-3.000
G1 X48.934 Y-27.500 Z-3.000
G3 X49.000 Y-27.434 Z-3.000 I0.024 J0.042 K0.000
G1 X49.000 Y-18.800 Z-3.000
G1 X43.999 Y-18.800 Z-3.000
G1 X43.996 Y-22.526 Z-3.000
G2 X48.049 Y-26.937 Z-3.000 I2.006 J-2.224 K0.000
G2 X47.188 Y-27.500 Z-3.000 I-2.019 J2.148 K0.000
G0 Z5.000
G0 X48.000 Y-21.294 Z5.000
G0 X48.000 Y-21.294 Z3.000
G1 X48.000 Y-21.294 Z-3.000
G1 X48.000 Y-19.800 Z-3.000
G1 X45.000 Y-19.800 Z-3.000
G1 X45.000 Y-20.883 Z-3.000
G2 X48.000 Y-21.294 Z-3.000 I1.002 J-3.840 K0.000
G0 Z5.000
G0 X47.500 Y-20.514 Z5.000
G0 X47.500 Y-20.514 Z3.000
G1 X47.500 Y-20.514 Z-3.000
G1 X47.500 Y-20.300 Z-3.000
G1 X46.630 Y-20.300 Z-3.000
G2 X47.500 Y-20.514 Z-3.000 I-0.614 J-4.376 K0.000
G1 X47.500 Y-20.514 Z-3.500
G1 X47.500 Y-20.300 Z-3.500
G1 X46.630 Y-20.300 Z-3.500
G2 X47.500 Y-20.514 Z-3.500 I-0.614 J-4.376 K0.000
G0 Z5.000
G0 X47.332 Y-20.984 Z5.000
G0 X47.332 Y-20.984 Z3.000
G1 X47.332 Y-20.984 Z-3.500
G2 X48.000 Y-21.294 Z-3.500 I-1.330 J-3.739 K0.000
G1 X48.000 Y-19.800 Z-3.500
G1 X45.000 Y-19.800 Z-3.500
G1 X45.000 Y-20.883 Z-3.500
G2 X47.332 Y-20.984 Z-3.500 I1.002 J-3.840 K0.000
G0 Z5.000
G0 X47.000 Y-21.926 Z5.000
G0 X47.000 Y-21.926 Z3.000
G1 X47.000 Y-21.926 Z-3.500
G2 X48.049 Y-26.937 Z-3.500 I-0.998 J-2.824 K0.000
G2 X47.188 Y-27.500 Z-3.500 I-2.019 J2.148 K0.000
G1 X48.934 Y-27.500 Z-3.500
G3 X49.000 Y-27.434 Z-3.500 I0.024 J0.042 K0.000
G1 X49.000 Y-18.800 Z-3.500
G1 X43.999 Y-18.800 Z-3.500
G1 X43.996 Y-22.526 Z-3.500
G2 X47.000 Y-21.926 Z-3.500 I2.006 J-2.224 K0.000
G0 Z5.000
G0 X43.992 Y-26.971 Z5.000
G0 X43.992 Y-26.971 Z3.000
G1 X43.992 Y-26.971 Z-3.500
G1 X43.992 Y-27.500 Z-3.500
G1 X44.812 Y-27.500 Z-3.500
G2 X43.992 Y-26.971 Z-3.500 I1.113 J2.624 K0.000
G1 X43.992 Y-26.971 Z-4.000
G1 X43.992 Y-27.500 Z-4.000
G1 X44.812 Y-27.500 Z-4.000
G2 X43.992 Y-26.971 Z-4.000 I1.113 J2.624 K0.000
G0 Z5.000
G0 X47.188 Y-27.500 Z5.000
G0 X47.188 Y-27.500 Z3.000
G1 X47.188 Y-27.500 Z-4.000
G1 X48.934 Y-27.500 Z-4.000
G3 X49.000 Y-27.434 Z-4.000 I0.024 J0.042 K0.000
G1 X49.000 Y-18.800 Z-4.000
G1 X43.999 Y-18.800 Z-4.000
G1 X43.996 Y-22.526 Z-4.000
G2 X48.049 Y-26.937 Z-4.000 I2.006 J-2.224 K0.000
G2 X47.188 Y-27.500 Z-4.000 I-2.019 J2.148 K0.000
G0 Z5.000
G0 X48.000 Y-21.294 Z5.000
G0 X48.000 Y-21.294 Z3.000
G1 X48.000 Y-21.294 Z-4.000
G1 X48.000 Y-19.800 Z-4.000
G1 X45.000 Y-19.800 Z-4.000
G1 X45.000 Y-20.883 Z-4.000
G2 X48.000 Y-21.294 Z-4.000 I1.002 J-3.840 K0.000
G0 Z5.000
G0 X47.500 Y-20.514 Z5.000
G0 X47.500 Y-20.514 Z3.000
G1 X47.500 Y-20.514 Z-4.000
G1 X47.500 Y-20.300 Z-4.000
G1 X46.630 Y-20.300 Z-4.000
G2 X47.500 Y-20.514 Z-4.000 I-0.614 J-4.376 K0.000
G1 X47.500 Y-20.514 Z-4.500
G1 X47.500 Y-20.300 Z-4.500
G1 X46.630 Y-20.300 Z-4.500
G2 X47.500 Y-20.514 Z-4.500 I-0.614 J-4.376 K0.000
G0 Z5.000
G0 X47.332 Y-20.984 Z5.000
G0 X47.332 Y-20.984 Z3.000
G1 X47.332 Y-20.984 Z-4.500
G2 X48.000 Y-21.294 Z-4.500 I-1.330 J-3.739 K0.000
G1 X48.000 Y-19.800 Z-4.500
G1 X45.000 Y-19.800 Z-4.500
G1 X45.000 Y-20.883 Z-4.500
G2 X47.332 Y-20.984 Z-4.500 I1.002 J-3.840 K0.000
G0 Z5.000
G0 X47.000 Y-21.926 Z5.000
G0 X47.000 Y-21.926 Z3.000
G1 X47.000 Y-21.926 Z-4.500
G2 X48.049 Y-26.937 Z-4.500 I-0.998 J-2.824 K0.000
G2 X47.188 Y-27.500 Z-4.500 I-2.019 J2.148 K0.000
G1 X48.934 Y-27.500 Z-4.500
G3 X49.000 Y-27.434 Z-4.500 I0.024 J0.042 K0.000
G1 X49.000 Y-18.800 Z-4.500
G1 X43.999 Y-18.800 Z-4.500
G1 X43.996 Y-22.526 Z-4.500
G2 X47.000 Y-21.926 Z-4.500 I2.006 J-2.224 K0.000
G0 Z5.000
G0 X43.992 Y-26.971 Z5.000
G0 X43.992 Y-26.971 Z3.000
G1 X43.992 Y-26.971 Z-4.500
G1 X43.992 Y-27.500 Z-4.500
G1 X44.812 Y-27.500 Z-4.500
G2 X43.992 Y-26.971 Z-4.500 I1.113 J2.624 K0.000
G1 X43.992 Y-26.971 Z-4.700
G1 X43.992 Y-27.500 Z-4.700
G1 X44.812 Y-27.500 Z-4.700
G2 X43.992 Y-26.971 Z-4.700 I1.113 J2.624 K0.000
G0 Z5.000
G0 X47.188 Y-27.500 Z5.000
G0 X47.188 Y-27.500 Z3.000
G1 X47.188 Y-27.500 Z-4.700
G1 X48.934 Y-27.500 Z-4.700
G3 X49.000 Y-27.434 Z-4.700 I0.024 J0.042 K0.000
G1 X49.000 Y-18.800 Z-4.700
G1 X43.999 Y-18.800 Z-4.700
G1 X43.996 Y-22.526 Z-4.700
G2 X48.049 Y-26.937 Z-4.700 I2.006 J-2.224 K0.000
G2 X47.188 Y-27.500 Z-4.700 I-2.019 J2.148 K0.000
G0 Z5.000
G0 X48.000 Y-21.294 Z5.000
G0 X48.000 Y-21.294 Z3.000
G1 X48.000 Y-21.294 Z-4.700
G1 X48.000 Y-19.800 Z-4.700
G1 X45.000 Y-19.800 Z-4.700
G1 X45.000 Y-20.883 Z-4.700
G2 X48.000 Y-21.294 Z-4.700 I1.002 J-3.840 K0.000
G0 Z5.000
G0 X47.500 Y-20.514 Z5.000
G0 X47.500 Y-20.514 Z3.000
G1 X47.500 Y-20.514 Z-4.700
G1 X47.500 Y-20.300 Z-4.700
G1 X46.630 Y-20.300 Z-4.700
G2 X47.500 Y-20.514 Z-4.700 I-0.614 J-4.376 K0.000
G0 Z5.000
G0 Z5.000
(Finish operation: Pocket_Shape002)
(Begin postamble)
M5
G17 G90
M2
