(Exported by FreeCAD)
(Post Processor: grbl_post)
(Output Time:2024-06-02 21:28:17.546744)
(Begin preamble)
G17 G90
G21
(Begin operation: Fixture)
(Path: Fixture)
G54
(Finish operation: Fixture)
(Begin operation: 2mm Endmill001)
(Path: 2mm Endmill001)
(2mm Endmill001)
(Begin toolchange)
( M6 T2 )
(Finish operation: 2mm Endmill001)
(Begin operation: Pocket_Shape003)
(Path: Pocket_Shape003)
(Pocket_Shape003)
G0 Z5.000
G0 X-45.296 Y-24.046
G0 Z3.000
G1 X-45.296 Y-24.046 Z-0.500
G3 X-46.381 Y-23.831 Z-0.500 I-0.704 J-0.704 K0.000
G3 X-45.619 Y-25.669 Z-0.500 I0.381 J-0.919 K0.000
G3 X-45.296 Y-24.046 Z-0.500 I-0.381 J0.919 K0.000
G0 Z5.000
G0 X-45.652 Y-24.402 Z5.000
G0 X-45.652 Y-24.402 Z3.000
G1 X-45.652 Y-24.402 Z-0.500
G3 X-46.189 Y-24.295 Z-0.500 I-0.348 J-0.348 K0.000
G3 X-45.811 Y-25.205 Z-0.500 I0.189 J-0.455 K0.000
G3 X-45.652 Y-24.402 Z-0.500 I-0.189 J0.455 K0.000
G1 X-45.652 Y-24.402 Z-1.000
G3 X-46.189 Y-24.295 Z-1.000 I-0.348 J-0.348 K0.000
G3 X-45.811 Y-25.205 Z-1.000 I0.189 J-0.455 K0.000
G3 X-45.652 Y-24.402 Z-1.000 I-0.189 J0.455 K0.000
G0 Z5.000
G0 X-45.296 Y-24.046 Z5.000
G0 X-45.296 Y-24.046 Z3.000
G1 X-45.296 Y-24.046 Z-1.000
G3 X-46.381 Y-23.831 Z-1.000 I-0.704 J-0.704 K0.000
G3 X-45.619 Y-25.669 Z-1.000 I0.381 J-0.919 K0.000
G3 X-45.296 Y-24.046 Z-1.000 I-0.381 J0.919 K0.000
G1 X-45.296 Y-24.046 Z-1.500
G3 X-46.381 Y-23.831 Z-1.500 I-0.704 J-0.704 K0.000
G3 X-45.619 Y-25.669 Z-1.500 I0.381 J-0.919 K0.000
G3 X-45.296 Y-24.046 Z-1.500 I-0.381 J0.919 K0.000
G0 Z5.000
G0 X-45.652 Y-24.402 Z5.000
G0 X-45.652 Y-24.402 Z3.000
G1 X-45.652 Y-24.402 Z-1.500
G3 X-46.189 Y-24.295 Z-1.500 I-0.348 J-0.348 K0.000
G3 X-45.811 Y-25.205 Z-1.500 I0.189 J-0.455 K0.000
G3 X-45.652 Y-24.402 Z-1.500 I-0.189 J0.455 K0.000
G1 X-45.652 Y-24.402 Z-2.000
G3 X-46.189 Y-24.295 Z-2.000 I-0.348 J-0.348 K0.000
G3 X-45.811 Y-25.205 Z-2.000 I0.189 J-0.455 K0.000
G3 X-45.652 Y-24.402 Z-2.000 I-0.189 J0.455 K0.000
G0 Z5.000
G0 X-45.296 Y-24.046 Z5.000
G0 X-45.296 Y-24.046 Z3.000
G1 X-45.296 Y-24.046 Z-2.000
G3 X-46.381 Y-23.831 Z-2.000 I-0.704 J-0.704 K0.000
G3 X-45.619 Y-25.669 Z-2.000 I0.381 J-0.919 K0.000
G3 X-45.296 Y-24.046 Z-2.000 I-0.381 J0.919 K0.000
G1 X-45.296 Y-24.046 Z-2.500
G3 X-46.381 Y-23.831 Z-2.500 I-0.704 J-0.704 K0.000
G3 X-45.619 Y-25.669 Z-2.500 I0.381 J-0.919 K0.000
G3 X-45.296 Y-24.046 Z-2.500 I-0.381 J0.919 K0.000
G0 Z5.000
G0 X-45.652 Y-24.402 Z5.000
G0 X-45.652 Y-24.402 Z3.000
G1 X-45.652 Y-24.402 Z-2.500
G3 X-46.189 Y-24.295 Z-2.500 I-0.348 J-0.348 K0.000
G3 X-45.811 Y-25.205 Z-2.500 I0.189 J-0.455 K0.000
G3 X-45.652 Y-24.402 Z-2.500 I-0.189 J0.455 K0.000
G1 X-45.652 Y-24.402 Z-3.000
G3 X-46.189 Y-24.295 Z-3.000 I-0.348 J-0.348 K0.000
G3 X-45.811 Y-25.205 Z-3.000 I0.189 J-0.455 K0.000
G3 X-45.652 Y-24.402 Z-3.000 I-0.189 J0.455 K0.000
G0 Z5.000
G0 X-45.296 Y-24.046 Z5.000
G0 X-45.296 Y-24.046 Z3.000
G1 X-45.296 Y-24.046 Z-3.000
G3 X-46.381 Y-23.831 Z-3.000 I-0.704 J-0.704 K0.000
G3 X-45.619 Y-25.669 Z-3.000 I0.381 J-0.919 K0.000
G3 X-45.296 Y-24.046 Z-3.000 I-0.381 J0.919 K0.000
G1 X-45.296 Y-24.046 Z-3.500
G3 X-46.381 Y-23.831 Z-3.500 I-0.704 J-0.704 K0.000
G3 X-45.619 Y-25.669 Z-3.500 I0.381 J-0.919 K0.000
G3 X-45.296 Y-24.046 Z-3.500 I-0.381 J0.919 K0.000
G0 Z5.000
G0 X-45.652 Y-24.402 Z5.000
G0 X-45.652 Y-24.402 Z3.000
G1 X-45.652 Y-24.402 Z-3.500
G3 X-46.189 Y-24.295 Z-3.500 I-0.348 J-0.348 K0.000
G3 X-45.811 Y-25.205 Z-3.500 I0.189 J-0.455 K0.000
G3 X-45.652 Y-24.402 Z-3.500 I-0.189 J0.455 K0.000
G1 X-45.652 Y-24.402 Z-4.000
G3 X-46.189 Y-24.295 Z-4.000 I-0.348 J-0.348 K0.000
G3 X-45.811 Y-25.205 Z-4.000 I0.189 J-0.455 K0.000
G3 X-45.652 Y-24.402 Z-4.000 I-0.189 J0.455 K0.000
G0 Z5.000
G0 X-45.296 Y-24.046 Z5.000
G0 X-45.296 Y-24.046 Z3.000
G1 X-45.296 Y-24.046 Z-4.000
G3 X-46.381 Y-23.831 Z-4.000 I-0.704 J-0.704 K0.000
G3 X-45.619 Y-25.669 Z-4.000 I0.381 J-0.919 K0.000
G3 X-45.296 Y-24.046 Z-4.000 I-0.381 J0.919 K0.000
G1 X-45.296 Y-24.046 Z-4.500
G3 X-46.381 Y-23.831 Z-4.500 I-0.704 J-0.704 K0.000
G3 X-45.619 Y-25.669 Z-4.500 I0.381 J-0.919 K0.000
G3 X-45.296 Y-24.046 Z-4.500 I-0.381 J0.919 K0.000
G0 Z5.000
G0 X-45.652 Y-24.402 Z5.000
G0 X-45.652 Y-24.402 Z3.000
G1 X-45.652 Y-24.402 Z-4.500
G3 X-46.189 Y-24.295 Z-4.500 I-0.348 J-0.348 K0.000
G3 X-45.811 Y-25.205 Z-4.500 I0.189 J-0.455 K0.000
G3 X-45.652 Y-24.402 Z-4.500 I-0.189 J0.455 K0.000
G1 X-45.652 Y-24.402 Z-5.000
G3 X-46.189 Y-24.295 Z-5.000 I-0.348 J-0.348 K0.000
G3 X-45.811 Y-25.205 Z-5.000 I0.189 J-0.455 K0.000
G3 X-45.652 Y-24.402 Z-5.000 I-0.189 J0.455 K0.000
G0 Z5.000
G0 X-45.296 Y-24.046 Z5.000
G0 X-45.296 Y-24.046 Z3.000
G1 X-45.296 Y-24.046 Z-5.000
G3 X-46.381 Y-23.831 Z-5.000 I-0.704 J-0.704 K0.000
G3 X-45.619 Y-25.669 Z-5.000 I0.381 J-0.919 K0.000
G3 X-45.296 Y-24.046 Z-5.000 I-0.381 J0.919 K0.000
G1 X-45.296 Y-24.046 Z-5.500
G3 X-46.381 Y-23.831 Z-5.500 I-0.704 J-0.704 K0.000
G3 X-45.619 Y-25.669 Z-5.500 I0.381 J-0.919 K0.000
G3 X-45.296 Y-24.046 Z-5.500 I-0.381 J0.919 K0.000
G0 Z5.000
G0 X-45.652 Y-24.402 Z5.000
G0 X-45.652 Y-24.402 Z3.000
G1 X-45.652 Y-24.402 Z-5.500
G3 X-46.189 Y-24.295 Z-5.500 I-0.348 J-0.348 K0.000
G3 X-45.811 Y-25.205 Z-5.500 I0.189 J-0.455 K0.000
G3 X-45.652 Y-24.402 Z-5.500 I-0.189 J0.455 K0.000
G1 X-45.652 Y-24.402 Z-6.000
G3 X-46.189 Y-24.295 Z-6.000 I-0.348 J-0.348 K0.000
G3 X-45.811 Y-25.205 Z-6.000 I0.189 J-0.455 K0.000
G3 X-45.652 Y-24.402 Z-6.000 I-0.189 J0.455 K0.000
G0 Z5.000
G0 X-45.296 Y-24.046 Z5.000
G0 X-45.296 Y-24.046 Z3.000
G1 X-45.296 Y-24.046 Z-6.000
G3 X-46.381 Y-23.831 Z-6.000 I-0.704 J-0.704 K0.000
G3 X-45.619 Y-25.669 Z-6.000 I0.381 J-0.919 K0.000
G3 X-45.296 Y-24.046 Z-6.000 I-0.381 J0.919 K0.000
G1 X-45.296 Y-24.046 Z-6.500
G3 X-46.381 Y-23.831 Z-6.500 I-0.704 J-0.704 K0.000
G3 X-45.619 Y-25.669 Z-6.500 I0.381 J-0.919 K0.000
G3 X-45.296 Y-24.046 Z-6.500 I-0.381 J0.919 K0.000
G0 Z5.000
G0 X-45.652 Y-24.402 Z5.000
G0 X-45.652 Y-24.402 Z3.000
G1 X-45.652 Y-24.402 Z-6.500
G3 X-46.189 Y-24.295 Z-6.500 I-0.348 J-0.348 K0.000
G3 X-45.811 Y-25.205 Z-6.500 I0.189 J-0.455 K0.000
G3 X-45.652 Y-24.402 Z-6.500 I-0.189 J0.455 K0.000
G1 X-45.652 Y-24.402 Z-7.000
G3 X-46.189 Y-24.295 Z-7.000 I-0.348 J-0.348 K0.000
G3 X-45.811 Y-25.205 Z-7.000 I0.189 J-0.455 K0.000
G3 X-45.652 Y-24.402 Z-7.000 I-0.189 J0.455 K0.000
G0 Z5.000
G0 X-45.296 Y-24.046 Z5.000
G0 X-45.296 Y-24.046 Z3.000
G1 X-45.296 Y-24.046 Z-7.000
G3 X-46.381 Y-23.831 Z-7.000 I-0.704 J-0.704 K0.000
G3 X-45.619 Y-25.669 Z-7.000 I0.381 J-0.919 K0.000
G3 X-45.296 Y-24.046 Z-7.000 I-0.381 J0.919 K0.000
G1 X-45.296 Y-24.046 Z-7.500
G3 X-46.381 Y-23.831 Z-7.500 I-0.704 J-0.704 K0.000
G3 X-45.619 Y-25.669 Z-7.500 I0.381 J-0.919 K0.000
G3 X-45.296 Y-24.046 Z-7.500 I-0.381 J0.919 K0.000
G0 Z5.000
G0 X-45.652 Y-24.402 Z5.000
G0 X-45.652 Y-24.402 Z3.000
G1 X-45.652 Y-24.402 Z-7.500
G3 X-46.189 Y-24.295 Z-7.500 I-0.348 J-0.348 K0.000
G3 X-45.811 Y-25.205 Z-7.500 I0.189 J-0.455 K0.000
G3 X-45.652 Y-24.402 Z-7.500 I-0.189 J0.455 K0.000
G1 X-45.652 Y-24.402 Z-8.000
G3 X-46.189 Y-24.295 Z-8.000 I-0.348 J-0.348 K0.000
G3 X-45.811 Y-25.205 Z-8.000 I0.189 J-0.455 K0.000
G3 X-45.652 Y-24.402 Z-8.000 I-0.189 J0.455 K0.000
G0 Z5.000
G0 X-45.296 Y-24.046 Z5.000
G0 X-45.296 Y-24.046 Z3.000
G1 X-45.296 Y-24.046 Z-8.000
G3 X-46.381 Y-23.831 Z-8.000 I-0.704 J-0.704 K0.000
G3 X-45.619 Y-25.669 Z-8.000 I0.381 J-0.919 K0.000
G3 X-45.296 Y-24.046 Z-8.000 I-0.381 J0.919 K0.000
G1 X-45.296 Y-24.046 Z-8.500
G3 X-46.381 Y-23.831 Z-8.500 I-0.704 J-0.704 K0.000
G3 X-45.619 Y-25.669 Z-8.500 I0.381 J-0.919 K0.000
G3 X-45.296 Y-24.046 Z-8.500 I-0.381 J0.919 K0.000
G0 Z5.000
G0 X-45.652 Y-24.402 Z5.000
G0 X-45.652 Y-24.402 Z3.000
G1 X-45.652 Y-24.402 Z-8.500
G3 X-46.189 Y-24.295 Z-8.500 I-0.348 J-0.348 K0.000
G3 X-45.811 Y-25.205 Z-8.500 I0.189 J-0.455 K0.000
G3 X-45.652 Y-24.402 Z-8.500 I-0.189 J0.455 K0.000
G1 X-45.652 Y-24.402 Z-9.000
G3 X-46.189 Y-24.295 Z-9.000 I-0.348 J-0.348 K0.000
G3 X-45.811 Y-25.205 Z-9.000 I0.189 J-0.455 K0.000
G3 X-45.652 Y-24.402 Z-9.000 I-0.189 J0.455 K0.000
G0 Z5.000
G0 X-45.296 Y-24.046 Z5.000
G0 X-45.296 Y-24.046 Z3.000
G1 X-45.296 Y-24.046 Z-9.000
G3 X-46.381 Y-23.831 Z-9.000 I-0.704 J-0.704 K0.000
G3 X-45.619 Y-25.669 Z-9.000 I0.381 J-0.919 K0.000
G3 X-45.296 Y-24.046 Z-9.000 I-0.381 J0.919 K0.000
G0 Z5.000
G0 Z5.000
G0 X-45.296 Y-24.046
G0 X-45.986 Y23.755
G0 X-45.986 Y23.755 Z3.000
G1 X-45.986 Y23.755 Z-0.500
G3 X-45.619 Y23.831 Z-0.500 I-0.014 J0.995 K0.000
G3 X-46.381 Y25.669 Z-0.500 I-0.381 J0.919 K0.000
G3 X-45.986 Y23.755 Z-0.500 I0.381 J-0.919 K0.000
G0 Z5.000
G0 X-45.993 Y24.257 Z5.000
G0 X-45.993 Y24.257 Z3.000
G1 X-45.993 Y24.257 Z-0.500
G3 X-45.811 Y24.295 Z-0.500 I-0.007 J0.493 K0.000
G3 X-46.189 Y25.205 Z-0.500 I-0.189 J0.455 K0.000
G3 X-45.993 Y24.257 Z-0.500 I0.189 J-0.455 K0.000
G1 X-45.993 Y24.257 Z-1.000
G3 X-45.811 Y24.295 Z-1.000 I-0.007 J0.493 K0.000
G3 X-46.189 Y25.205 Z-1.000 I-0.189 J0.455 K0.000
G3 X-45.993 Y24.257 Z-1.000 I0.189 J-0.455 K0.000
G0 Z5.000
G0 X-45.986 Y23.755 Z5.000
G0 X-45.986 Y23.755 Z3.000
G1 X-45.986 Y23.755 Z-1.000
G3 X-45.619 Y23.831 Z-1.000 I-0.014 J0.995 K0.000
G3 X-46.381 Y25.669 Z-1.000 I-0.381 J0.919 K0.000
G3 X-45.986 Y23.755 Z-1.000 I0.381 J-0.919 K0.000
G1 X-45.986 Y23.755 Z-1.500
G3 X-45.619 Y23.831 Z-1.500 I-0.014 J0.995 K0.000
G3 X-46.381 Y25.669 Z-1.500 I-0.381 J0.919 K0.000
G3 X-45.986 Y23.755 Z-1.500 I0.381 J-0.919 K0.000
G0 Z5.000
G0 X-45.993 Y24.257 Z5.000
G0 X-45.993 Y24.257 Z3.000
G1 X-45.993 Y24.257 Z-1.500
G3 X-45.811 Y24.295 Z-1.500 I-0.007 J0.493 K0.000
G3 X-46.189 Y25.205 Z-1.500 I-0.189 J0.455 K0.000
G3 X-45.993 Y24.257 Z-1.500 I0.189 J-0.455 K0.000
G1 X-45.993 Y24.257 Z-2.000
G3 X-45.811 Y24.295 Z-2.000 I-0.007 J0.493 K0.000
G3 X-46.189 Y25.205 Z-2.000 I-0.189 J0.455 K0.000
G3 X-45.993 Y24.257 Z-2.000 I0.189 J-0.455 K0.000
G0 Z5.000
G0 X-45.986 Y23.755 Z5.000
G0 X-45.986 Y23.755 Z3.000
G1 X-45.986 Y23.755 Z-2.000
G3 X-45.619 Y23.831 Z-2.000 I-0.014 J0.995 K0.000
G3 X-46.381 Y25.669 Z-2.000 I-0.381 J0.919 K0.000
G3 X-45.986 Y23.755 Z-2.000 I0.381 J-0.919 K0.000
G1 X-45.986 Y23.755 Z-2.500
G3 X-45.619 Y23.831 Z-2.500 I-0.014 J0.995 K0.000
G3 X-46.381 Y25.669 Z-2.500 I-0.381 J0.919 K0.000
G3 X-45.986 Y23.755 Z-2.500 I0.381 J-0.919 K0.000
G0 Z5.000
G0 X-45.993 Y24.257 Z5.000
G0 X-45.993 Y24.257 Z3.000
G1 X-45.993 Y24.257 Z-2.500
G3 X-45.811 Y24.295 Z-2.500 I-0.007 J0.493 K0.000
G3 X-46.189 Y25.205 Z-2.500 I-0.189 J0.455 K0.000
G3 X-45.993 Y24.257 Z-2.500 I0.189 J-0.455 K0.000
G1 X-45.993 Y24.257 Z-3.000
G3 X-45.811 Y24.295 Z-3.000 I-0.007 J0.493 K0.000
G3 X-46.189 Y25.205 Z-3.000 I-0.189 J0.455 K0.000
G3 X-45.993 Y24.257 Z-3.000 I0.189 J-0.455 K0.000
G0 Z5.000
G0 X-45.986 Y23.755 Z5.000
G0 X-45.986 Y23.755 Z3.000
G1 X-45.986 Y23.755 Z-3.000
G3 X-45.619 Y23.831 Z-3.000 I-0.014 J0.995 K0.000
G3 X-46.381 Y25.669 Z-3.000 I-0.381 J0.919 K0.000
G3 X-45.986 Y23.755 Z-3.000 I0.381 J-0.919 K0.000
G1 X-45.986 Y23.755 Z-3.500
G3 X-45.619 Y23.831 Z-3.500 I-0.014 J0.995 K0.000
G3 X-46.381 Y25.669 Z-3.500 I-0.381 J0.919 K0.000
G3 X-45.986 Y23.755 Z-3.500 I0.381 J-0.919 K0.000
G0 Z5.000
G0 X-45.993 Y24.257 Z5.000
G0 X-45.993 Y24.257 Z3.000
G1 X-45.993 Y24.257 Z-3.500
G3 X-45.811 Y24.295 Z-3.500 I-0.007 J0.493 K0.000
G3 X-46.189 Y25.205 Z-3.500 I-0.189 J0.455 K0.000
G3 X-45.993 Y24.257 Z-3.500 I0.189 J-0.455 K0.000
G1 X-45.993 Y24.257 Z-4.000
G3 X-45.811 Y24.295 Z-4.000 I-0.007 J0.493 K0.000
G3 X-46.189 Y25.205 Z-4.000 I-0.189 J0.455 K0.000
G3 X-45.993 Y24.257 Z-4.000 I0.189 J-0.455 K0.000
G0 Z5.000
G0 X-45.986 Y23.755 Z5.000
G0 X-45.986 Y23.755 Z3.000
G1 X-45.986 Y23.755 Z-4.000
G3 X-45.619 Y23.831 Z-4.000 I-0.014 J0.995 K0.000
G3 X-46.381 Y25.669 Z-4.000 I-0.381 J0.919 K0.000
G3 X-45.986 Y23.755 Z-4.000 I0.381 J-0.919 K0.000
G1 X-45.986 Y23.755 Z-4.500
G3 X-45.619 Y23.831 Z-4.500 I-0.014 J0.995 K0.000
G3 X-46.381 Y25.669 Z-4.500 I-0.381 J0.919 K0.000
G3 X-45.986 Y23.755 Z-4.500 I0.381 J-0.919 K0.000
G0 Z5.000
G0 X-45.993 Y24.257 Z5.000
G0 X-45.993 Y24.257 Z3.000
G1 X-45.993 Y24.257 Z-4.500
G3 X-45.811 Y24.295 Z-4.500 I-0.007 J0.493 K0.000
G3 X-46.189 Y25.205 Z-4.500 I-0.189 J0.455 K0.000
G3 X-45.993 Y24.257 Z-4.500 I0.189 J-0.455 K0.000
G1 X-45.993 Y24.257 Z-5.000
G3 X-45.811 Y24.295 Z-5.000 I-0.007 J0.493 K0.000
G3 X-46.189 Y25.205 Z-5.000 I-0.189 J0.455 K0.000
G3 X-45.993 Y24.257 Z-5.000 I0.189 J-0.455 K0.000
G0 Z5.000
G0 X-45.986 Y23.755 Z5.000
G0 X-45.986 Y23.755 Z3.000
G1 X-45.986 Y23.755 Z-5.000
G3 X-45.619 Y23.831 Z-5.000 I-0.014 J0.995 K0.000
G3 X-46.381 Y25.669 Z-5.000 I-0.381 J0.919 K0.000
G3 X-45.986 Y23.755 Z-5.000 I0.381 J-0.919 K0.000
G1 X-45.986 Y23.755 Z-5.500
G3 X-45.619 Y23.831 Z-5.500 I-0.014 J0.995 K0.000
G3 X-46.381 Y25.669 Z-5.500 I-0.381 J0.919 K0.000
G3 X-45.986 Y23.755 Z-5.500 I0.381 J-0.919 K0.000
G0 Z5.000
G0 X-45.993 Y24.257 Z5.000
G0 X-45.993 Y24.257 Z3.000
G1 X-45.993 Y24.257 Z-5.500
G3 X-45.811 Y24.295 Z-5.500 I-0.007 J0.493 K0.000
G3 X-46.189 Y25.205 Z-5.500 I-0.189 J0.455 K0.000
G3 X-45.993 Y24.257 Z-5.500 I0.189 J-0.455 K0.000
G1 X-45.993 Y24.257 Z-6.000
G3 X-45.811 Y24.295 Z-6.000 I-0.007 J0.493 K0.000
G3 X-46.189 Y25.205 Z-6.000 I-0.189 J0.455 K0.000
G3 X-45.993 Y24.257 Z-6.000 I0.189 J-0.455 K0.000
G0 Z5.000
G0 X-45.986 Y23.755 Z5.000
G0 X-45.986 Y23.755 Z3.000
G1 X-45.986 Y23.755 Z-6.000
G3 X-45.619 Y23.831 Z-6.000 I-0.014 J0.995 K0.000
G3 X-46.381 Y25.669 Z-6.000 I-0.381 J0.919 K0.000
G3 X-45.986 Y23.755 Z-6.000 I0.381 J-0.919 K0.000
G1 X-45.986 Y23.755 Z-6.500
G3 X-45.619 Y23.831 Z-6.500 I-0.014 J0.995 K0.000
G3 X-46.381 Y25.669 Z-6.500 I-0.381 J0.919 K0.000
G3 X-45.986 Y23.755 Z-6.500 I0.381 J-0.919 K0.000
G0 Z5.000
G0 X-45.993 Y24.257 Z5.000
G0 X-45.993 Y24.257 Z3.000
G1 X-45.993 Y24.257 Z-6.500
G3 X-45.811 Y24.295 Z-6.500 I-0.007 J0.493 K0.000
G3 X-46.189 Y25.205 Z-6.500 I-0.189 J0.455 K0.000
G3 X-45.993 Y24.257 Z-6.500 I0.189 J-0.455 K0.000
G1 X-45.993 Y24.257 Z-7.000
G3 X-45.811 Y24.295 Z-7.000 I-0.007 J0.493 K0.000
G3 X-46.189 Y25.205 Z-7.000 I-0.189 J0.455 K0.000
G3 X-45.993 Y24.257 Z-7.000 I0.189 J-0.455 K0.000
G0 Z5.000
G0 X-45.986 Y23.755 Z5.000
G0 X-45.986 Y23.755 Z3.000
G1 X-45.986 Y23.755 Z-7.000
G3 X-45.619 Y23.831 Z-7.000 I-0.014 J0.995 K0.000
G3 X-46.381 Y25.669 Z-7.000 I-0.381 J0.919 K0.000
G3 X-45.986 Y23.755 Z-7.000 I0.381 J-0.919 K0.000
G1 X-45.986 Y23.755 Z-7.500
G3 X-45.619 Y23.831 Z-7.500 I-0.014 J0.995 K0.000
G3 X-46.381 Y25.669 Z-7.500 I-0.381 J0.919 K0.000
G3 X-45.986 Y23.755 Z-7.500 I0.381 J-0.919 K0.000
G0 Z5.000
G0 X-45.993 Y24.257 Z5.000
G0 X-45.993 Y24.257 Z3.000
G1 X-45.993 Y24.257 Z-7.500
G3 X-45.811 Y24.295 Z-7.500 I-0.007 J0.493 K0.000
G3 X-46.189 Y25.205 Z-7.500 I-0.189 J0.455 K0.000
G3 X-45.993 Y24.257 Z-7.500 I0.189 J-0.455 K0.000
G1 X-45.993 Y24.257 Z-8.000
G3 X-45.811 Y24.295 Z-8.000 I-0.007 J0.493 K0.000
G3 X-46.189 Y25.205 Z-8.000 I-0.189 J0.455 K0.000
G3 X-45.993 Y24.257 Z-8.000 I0.189 J-0.455 K0.000
G0 Z5.000
G0 X-45.986 Y23.755 Z5.000
G0 X-45.986 Y23.755 Z3.000
G1 X-45.986 Y23.755 Z-8.000
G3 X-45.619 Y23.831 Z-8.000 I-0.014 J0.995 K0.000
G3 X-46.381 Y25.669 Z-8.000 I-0.381 J0.919 K0.000
G3 X-45.986 Y23.755 Z-8.000 I0.381 J-0.919 K0.000
G1 X-45.986 Y23.755 Z-8.500
G3 X-45.619 Y23.831 Z-8.500 I-0.014 J0.995 K0.000
G3 X-46.381 Y25.669 Z-8.500 I-0.381 J0.919 K0.000
G3 X-45.986 Y23.755 Z-8.500 I0.381 J-0.919 K0.000
G0 Z5.000
G0 X-45.993 Y24.257 Z5.000
G0 X-45.993 Y24.257 Z3.000
G1 X-45.993 Y24.257 Z-8.500
G3 X-45.811 Y24.295 Z-8.500 I-0.007 J0.493 K0.000
G3 X-46.189 Y25.205 Z-8.500 I-0.189 J0.455 K0.000
G3 X-45.993 Y24.257 Z-8.500 I0.189 J-0.455 K0.000
G1 X-45.993 Y24.257 Z-9.000
G3 X-45.811 Y24.295 Z-9.000 I-0.007 J0.493 K0.000
G3 X-46.189 Y25.205 Z-9.000 I-0.189 J0.455 K0.000
G3 X-45.993 Y24.257 Z-9.000 I0.189 J-0.455 K0.000
G0 Z5.000
G0 X-45.986 Y23.755 Z5.000
G0 X-45.986 Y23.755 Z3.000
G1 X-45.986 Y23.755 Z-9.000
G3 X-45.619 Y23.831 Z-9.000 I-0.014 J0.995 K0.000
G3 X-46.381 Y25.669 Z-9.000 I-0.381 J0.919 K0.000
G3 X-45.986 Y23.755 Z-9.000 I0.381 J-0.919 K0.000
G0 Z5.000
G0 Z5.000
G0 X-45.986 Y23.755
G0 X45.005 Y24.739
G0 X45.005 Y24.739 Z3.000
G1 X45.005 Y24.739 Z-0.500
G3 X46.381 Y23.831 Z-0.500 I0.995 J0.011 K0.000
G3 X45.619 Y25.669 Z-0.500 I-0.381 J0.919 K0.000
G3 X45.005 Y24.739 Z-0.500 I0.381 J-0.919 K0.000
G0 Z5.000
G0 X45.507 Y24.745 Z5.000
G0 X45.507 Y24.745 Z3.000
G1 X45.507 Y24.745 Z-0.500
G3 X46.189 Y24.295 Z-0.500 I0.493 J0.005 K0.000
G3 X45.811 Y25.205 Z-0.500 I-0.189 J0.455 K0.000
G3 X45.507 Y24.745 Z-0.500 I0.189 J-0.455 K0.000
G1 X45.507 Y24.745 Z-1.000
G3 X46.189 Y24.295 Z-1.000 I0.493 J0.005 K0.000
G3 X45.811 Y25.205 Z-1.000 I-0.189 J0.455 K0.000
G3 X45.507 Y24.745 Z-1.000 I0.189 J-0.455 K0.000
G0 Z5.000
G0 X45.005 Y24.739 Z5.000
G0 X45.005 Y24.739 Z3.000
G1 X45.005 Y24.739 Z-1.000
G3 X46.381 Y23.831 Z-1.000 I0.995 J0.011 K0.000
G3 X45.619 Y25.669 Z-1.000 I-0.381 J0.919 K0.000
G3 X45.005 Y24.739 Z-1.000 I0.381 J-0.919 K0.000
G1 X45.005 Y24.739 Z-1.500
G3 X46.381 Y23.831 Z-1.500 I0.995 J0.011 K0.000
G3 X45.619 Y25.669 Z-1.500 I-0.381 J0.919 K0.000
G3 X45.005 Y24.739 Z-1.500 I0.381 J-0.919 K0.000
G0 Z5.000
G0 X45.507 Y24.745 Z5.000
G0 X45.507 Y24.745 Z3.000
G1 X45.507 Y24.745 Z-1.500
G3 X46.189 Y24.295 Z-1.500 I0.493 J0.005 K0.000
G3 X45.811 Y25.205 Z-1.500 I-0.189 J0.455 K0.000
G3 X45.507 Y24.745 Z-1.500 I0.189 J-0.455 K0.000
G1 X45.507 Y24.745 Z-2.000
G3 X46.189 Y24.295 Z-2.000 I0.493 J0.005 K0.000
G3 X45.811 Y25.205 Z-2.000 I-0.189 J0.455 K0.000
G3 X45.507 Y24.745 Z-2.000 I0.189 J-0.455 K0.000
G0 Z5.000
G0 X45.005 Y24.739 Z5.000
G0 X45.005 Y24.739 Z3.000
G1 X45.005 Y24.739 Z-2.000
G3 X46.381 Y23.831 Z-2.000 I0.995 J0.011 K0.000
G3 X45.619 Y25.669 Z-2.000 I-0.381 J0.919 K0.000
G3 X45.005 Y24.739 Z-2.000 I0.381 J-0.919 K0.000
G1 X45.005 Y24.739 Z-2.500
G3 X46.381 Y23.831 Z-2.500 I0.995 J0.011 K0.000
G3 X45.619 Y25.669 Z-2.500 I-0.381 J0.919 K0.000
G3 X45.005 Y24.739 Z-2.500 I0.381 J-0.919 K0.000
G0 Z5.000
G0 X45.507 Y24.745 Z5.000
G0 X45.507 Y24.745 Z3.000
G1 X45.507 Y24.745 Z-2.500
G3 X46.189 Y24.295 Z-2.500 I0.493 J0.005 K0.000
G3 X45.811 Y25.205 Z-2.500 I-0.189 J0.455 K0.000
G3 X45.507 Y24.745 Z-2.500 I0.189 J-0.455 K0.000
G1 X45.507 Y24.745 Z-3.000
G3 X46.189 Y24.295 Z-3.000 I0.493 J0.005 K0.000
G3 X45.811 Y25.205 Z-3.000 I-0.189 J0.455 K0.000
G3 X45.507 Y24.745 Z-3.000 I0.189 J-0.455 K0.000
G0 Z5.000
G0 X45.005 Y24.739 Z5.000
G0 X45.005 Y24.739 Z3.000
G1 X45.005 Y24.739 Z-3.000
G3 X46.381 Y23.831 Z-3.000 I0.995 J0.011 K0.000
G3 X45.619 Y25.669 Z-3.000 I-0.381 J0.919 K0.000
G3 X45.005 Y24.739 Z-3.000 I0.381 J-0.919 K0.000
G1 X45.005 Y24.739 Z-3.500
G3 X46.381 Y23.831 Z-3.500 I0.995 J0.011 K0.000
G3 X45.619 Y25.669 Z-3.500 I-0.381 J0.919 K0.000
G3 X45.005 Y24.739 Z-3.500 I0.381 J-0.919 K0.000
G0 Z5.000
G0 X45.507 Y24.745 Z5.000
G0 X45.507 Y24.745 Z3.000
G1 X45.507 Y24.745 Z-3.500
G3 X46.189 Y24.295 Z-3.500 I0.493 J0.005 K0.000
G3 X45.811 Y25.205 Z-3.500 I-0.189 J0.455 K0.000
G3 X45.507 Y24.745 Z-3.500 I0.189 J-0.455 K0.000
G1 X45.507 Y24.745 Z-4.000
G3 X46.189 Y24.295 Z-4.000 I0.493 J0.005 K0.000
G3 X45.811 Y25.205 Z-4.000 I-0.189 J0.455 K0.000
G3 X45.507 Y24.745 Z-4.000 I0.189 J-0.455 K0.000
G0 Z5.000
G0 X45.005 Y24.739 Z5.000
G0 X45.005 Y24.739 Z3.000
G1 X45.005 Y24.739 Z-4.000
G3 X46.381 Y23.831 Z-4.000 I0.995 J0.011 K0.000
G3 X45.619 Y25.669 Z-4.000 I-0.381 J0.919 K0.000
G3 X45.005 Y24.739 Z-4.000 I0.381 J-0.919 K0.000
G1 X45.005 Y24.739 Z-4.500
G3 X46.381 Y23.831 Z-4.500 I0.995 J0.011 K0.000
G3 X45.619 Y25.669 Z-4.500 I-0.381 J0.919 K0.000
G3 X45.005 Y24.739 Z-4.500 I0.381 J-0.919 K0.000
G0 Z5.000
G0 X45.507 Y24.745 Z5.000
G0 X45.507 Y24.745 Z3.000
G1 X45.507 Y24.745 Z-4.500
G3 X46.189 Y24.295 Z-4.500 I0.493 J0.005 K0.000
G3 X45.811 Y25.205 Z-4.500 I-0.189 J0.455 K0.000
G3 X45.507 Y24.745 Z-4.500 I0.189 J-0.455 K0.000
G1 X45.507 Y24.745 Z-5.000
G3 X46.189 Y24.295 Z-5.000 I0.493 J0.005 K0.000
G3 X45.811 Y25.205 Z-5.000 I-0.189 J0.455 K0.000
G3 X45.507 Y24.745 Z-5.000 I0.189 J-0.455 K0.000
G0 Z5.000
G0 X45.005 Y24.739 Z5.000
G0 X45.005 Y24.739 Z3.000
G1 X45.005 Y24.739 Z-5.000
G3 X46.381 Y23.831 Z-5.000 I0.995 J0.011 K0.000
G3 X45.619 Y25.669 Z-5.000 I-0.381 J0.919 K0.000
G3 X45.005 Y24.739 Z-5.000 I0.381 J-0.919 K0.000
G1 X45.005 Y24.739 Z-5.500
G3 X46.381 Y23.831 Z-5.500 I0.995 J0.011 K0.000
G3 X45.619 Y25.669 Z-5.500 I-0.381 J0.919 K0.000
G3 X45.005 Y24.739 Z-5.500 I0.381 J-0.919 K0.000
G0 Z5.000
G0 X45.507 Y24.745 Z5.000
G0 X45.507 Y24.745 Z3.000
G1 X45.507 Y24.745 Z-5.500
G3 X46.189 Y24.295 Z-5.500 I0.493 J0.005 K0.000
G3 X45.811 Y25.205 Z-5.500 I-0.189 J0.455 K0.000
G3 X45.507 Y24.745 Z-5.500 I0.189 J-0.455 K0.000
G1 X45.507 Y24.745 Z-6.000
G3 X46.189 Y24.295 Z-6.000 I0.493 J0.005 K0.000
G3 X45.811 Y25.205 Z-6.000 I-0.189 J0.455 K0.000
G3 X45.507 Y24.745 Z-6.000 I0.189 J-0.455 K0.000
G0 Z5.000
G0 X45.005 Y24.739 Z5.000
G0 X45.005 Y24.739 Z3.000
G1 X45.005 Y24.739 Z-6.000
G3 X46.381 Y23.831 Z-6.000 I0.995 J0.011 K0.000
G3 X45.619 Y25.669 Z-6.000 I-0.381 J0.919 K0.000
G3 X45.005 Y24.739 Z-6.000 I0.381 J-0.919 K0.000
G1 X45.005 Y24.739 Z-6.500
G3 X46.381 Y23.831 Z-6.500 I0.995 J0.011 K0.000
G3 X45.619 Y25.669 Z-6.500 I-0.381 J0.919 K0.000
G3 X45.005 Y24.739 Z-6.500 I0.381 J-0.919 K0.000
G0 Z5.000
G0 X45.507 Y24.745 Z5.000
G0 X45.507 Y24.745 Z3.000
G1 X45.507 Y24.745 Z-6.500
G3 X46.189 Y24.295 Z-6.500 I0.493 J0.005 K0.000
G3 X45.811 Y25.205 Z-6.500 I-0.189 J0.455 K0.000
G3 X45.507 Y24.745 Z-6.500 I0.189 J-0.455 K0.000
G1 X45.507 Y24.745 Z-7.000
G3 X46.189 Y24.295 Z-7.000 I0.493 J0.005 K0.000
G3 X45.811 Y25.205 Z-7.000 I-0.189 J0.455 K0.000
G3 X45.507 Y24.745 Z-7.000 I0.189 J-0.455 K0.000
G0 Z5.000
G0 X45.005 Y24.739 Z5.000
G0 X45.005 Y24.739 Z3.000
G1 X45.005 Y24.739 Z-7.000
G3 X46.381 Y23.831 Z-7.000 I0.995 J0.011 K0.000
G3 X45.619 Y25.669 Z-7.000 I-0.381 J0.919 K0.000
G3 X45.005 Y24.739 Z-7.000 I0.381 J-0.919 K0.000
G1 X45.005 Y24.739 Z-7.500
G3 X46.381 Y23.831 Z-7.500 I0.995 J0.011 K0.000
G3 X45.619 Y25.669 Z-7.500 I-0.381 J0.919 K0.000
G3 X45.005 Y24.739 Z-7.500 I0.381 J-0.919 K0.000
G0 Z5.000
G0 X45.507 Y24.745 Z5.000
G0 X45.507 Y24.745 Z3.000
G1 X45.507 Y24.745 Z-7.500
G3 X46.189 Y24.295 Z-7.500 I0.493 J0.005 K0.000
G3 X45.811 Y25.205 Z-7.500 I-0.189 J0.455 K0.000
G3 X45.507 Y24.745 Z-7.500 I0.189 J-0.455 K0.000
G1 X45.507 Y24.745 Z-8.000
G3 X46.189 Y24.295 Z-8.000 I0.493 J0.005 K0.000
G3 X45.811 Y25.205 Z-8.000 I-0.189 J0.455 K0.000
G3 X45.507 Y24.745 Z-8.000 I0.189 J-0.455 K0.000
G0 Z5.000
G0 X45.005 Y24.739 Z5.000
G0 X45.005 Y24.739 Z3.000
G1 X45.005 Y24.739 Z-8.000
G3 X46.381 Y23.831 Z-8.000 I0.995 J0.011 K0.000
G3 X45.619 Y25.669 Z-8.000 I-0.381 J0.919 K0.000
G3 X45.005 Y24.739 Z-8.000 I0.381 J-0.919 K0.000
G1 X45.005 Y24.739 Z-8.500
G3 X46.381 Y23.831 Z-8.500 I0.995 J0.011 K0.000
G3 X45.619 Y25.669 Z-8.500 I-0.381 J0.919 K0.000
G3 X45.005 Y24.739 Z-8.500 I0.381 J-0.919 K0.000
G0 Z5.000
G0 X45.507 Y24.745 Z5.000
G0 X45.507 Y24.745 Z3.000
G1 X45.507 Y24.745 Z-8.500
G3 X46.189 Y24.295 Z-8.500 I0.493 J0.005 K0.000
G3 X45.811 Y25.205 Z-8.500 I-0.189 J0.455 K0.000
G3 X45.507 Y24.745 Z-8.500 I0.189 J-0.455 K0.000
G1 X45.507 Y24.745 Z-9.000
G3 X46.189 Y24.295 Z-9.000 I0.493 J0.005 K0.000
G3 X45.811 Y25.205 Z-9.000 I-0.189 J0.455 K0.000
G3 X45.507 Y24.745 Z-9.000 I0.189 J-0.455 K0.000
G0 Z5.000
G0 X45.005 Y24.739 Z5.000
G0 X45.005 Y24.739 Z3.000
G1 X45.005 Y24.739 Z-9.000
G3 X46.381 Y23.831 Z-9.000 I0.995 J0.011 K0.000
G3 X45.619 Y25.669 Z-9.000 I-0.381 J0.919 K0.000
G3 X45.005 Y24.739 Z-9.000 I0.381 J-0.919 K0.000
G0 Z5.000
G0 Z5.000
G0 X45.005 Y24.739
G0 X45.980 Y-23.755
G0 X45.980 Y-23.755 Z3.000
G1 X45.980 Y-23.755 Z-0.500
G3 X45.619 Y-23.831 Z-0.500 I0.020 J-0.995 K0.000
G3 X46.381 Y-25.669 Z-0.500 I0.381 J-0.919 K0.000
G3 X45.980 Y-23.755 Z-0.500 I-0.381 J0.919 K0.000
G0 Z5.000
G0 X45.990 Y-24.257 Z5.000
G0 X45.990 Y-24.257 Z3.000
G1 X45.990 Y-24.257 Z-0.500
G3 X45.811 Y-24.295 Z-0.500 I0.010 J-0.493 K0.000
G3 X46.189 Y-25.205 Z-0.500 I0.189 J-0.455 K0.000
G3 X45.990 Y-24.257 Z-0.500 I-0.189 J0.455 K0.000
G1 X45.990 Y-24.257 Z-1.000
G3 X45.811 Y-24.295 Z-1.000 I0.010 J-0.493 K0.000
G3 X46.189 Y-25.205 Z-1.000 I0.189 J-0.455 K0.000
G3 X45.990 Y-24.257 Z-1.000 I-0.189 J0.455 K0.000
G0 Z5.000
G0 X45.980 Y-23.755 Z5.000
G0 X45.980 Y-23.755 Z3.000
G1 X45.980 Y-23.755 Z-1.000
G3 X45.619 Y-23.831 Z-1.000 I0.020 J-0.995 K0.000
G3 X46.381 Y-25.669 Z-1.000 I0.381 J-0.919 K0.000
G3 X45.980 Y-23.755 Z-1.000 I-0.381 J0.919 K0.000
G1 X45.980 Y-23.755 Z-1.500
G3 X45.619 Y-23.831 Z-1.500 I0.020 J-0.995 K0.000
G3 X46.381 Y-25.669 Z-1.500 I0.381 J-0.919 K0.000
G3 X45.980 Y-23.755 Z-1.500 I-0.381 J0.919 K0.000
G0 Z5.000
G0 X45.990 Y-24.257 Z5.000
G0 X45.990 Y-24.257 Z3.000
G1 X45.990 Y-24.257 Z-1.500
G3 X45.811 Y-24.295 Z-1.500 I0.010 J-0.493 K0.000
G3 X46.189 Y-25.205 Z-1.500 I0.189 J-0.455 K0.000
G3 X45.990 Y-24.257 Z-1.500 I-0.189 J0.455 K0.000
G1 X45.990 Y-24.257 Z-2.000
G3 X45.811 Y-24.295 Z-2.000 I0.010 J-0.493 K0.000
G3 X46.189 Y-25.205 Z-2.000 I0.189 J-0.455 K0.000
G3 X45.990 Y-24.257 Z-2.000 I-0.189 J0.455 K0.000
G0 Z5.000
G0 X45.980 Y-23.755 Z5.000
G0 X45.980 Y-23.755 Z3.000
G1 X45.980 Y-23.755 Z-2.000
G3 X45.619 Y-23.831 Z-2.000 I0.020 J-0.995 K0.000
G3 X46.381 Y-25.669 Z-2.000 I0.381 J-0.919 K0.000
G3 X45.980 Y-23.755 Z-2.000 I-0.381 J0.919 K0.000
G1 X45.980 Y-23.755 Z-2.500
G3 X45.619 Y-23.831 Z-2.500 I0.020 J-0.995 K0.000
G3 X46.381 Y-25.669 Z-2.500 I0.381 J-0.919 K0.000
G3 X45.980 Y-23.755 Z-2.500 I-0.381 J0.919 K0.000
G0 Z5.000
G0 X45.990 Y-24.257 Z5.000
G0 X45.990 Y-24.257 Z3.000
G1 X45.990 Y-24.257 Z-2.500
G3 X45.811 Y-24.295 Z-2.500 I0.010 J-0.493 K0.000
G3 X46.189 Y-25.205 Z-2.500 I0.189 J-0.455 K0.000
G3 X45.990 Y-24.257 Z-2.500 I-0.189 J0.455 K0.000
G1 X45.990 Y-24.257 Z-3.000
G3 X45.811 Y-24.295 Z-3.000 I0.010 J-0.493 K0.000
G3 X46.189 Y-25.205 Z-3.000 I0.189 J-0.455 K0.000
G3 X45.990 Y-24.257 Z-3.000 I-0.189 J0.455 K0.000
G0 Z5.000
G0 X45.980 Y-23.755 Z5.000
G0 X45.980 Y-23.755 Z3.000
G1 X45.980 Y-23.755 Z-3.000
G3 X45.619 Y-23.831 Z-3.000 I0.020 J-0.995 K0.000
G3 X46.381 Y-25.669 Z-3.000 I0.381 J-0.919 K0.000
G3 X45.980 Y-23.755 Z-3.000 I-0.381 J0.919 K0.000
G1 X45.980 Y-23.755 Z-3.500
G3 X45.619 Y-23.831 Z-3.500 I0.020 J-0.995 K0.000
G3 X46.381 Y-25.669 Z-3.500 I0.381 J-0.919 K0.000
G3 X45.980 Y-23.755 Z-3.500 I-0.381 J0.919 K0.000
G0 Z5.000
G0 X45.990 Y-24.257 Z5.000
G0 X45.990 Y-24.257 Z3.000
G1 X45.990 Y-24.257 Z-3.500
G3 X45.811 Y-24.295 Z-3.500 I0.010 J-0.493 K0.000
G3 X46.189 Y-25.205 Z-3.500 I0.189 J-0.455 K0.000
G3 X45.990 Y-24.257 Z-3.500 I-0.189 J0.455 K0.000
G1 X45.990 Y-24.257 Z-4.000
G3 X45.811 Y-24.295 Z-4.000 I0.010 J-0.493 K0.000
G3 X46.189 Y-25.205 Z-4.000 I0.189 J-0.455 K0.000
G3 X45.990 Y-24.257 Z-4.000 I-0.189 J0.455 K0.000
G0 Z5.000
G0 X45.980 Y-23.755 Z5.000
G0 X45.980 Y-23.755 Z3.000
G1 X45.980 Y-23.755 Z-4.000
G3 X45.619 Y-23.831 Z-4.000 I0.020 J-0.995 K0.000
G3 X46.381 Y-25.669 Z-4.000 I0.381 J-0.919 K0.000
G3 X45.980 Y-23.755 Z-4.000 I-0.381 J0.919 K0.000
G1 X45.980 Y-23.755 Z-4.500
G3 X45.619 Y-23.831 Z-4.500 I0.020 J-0.995 K0.000
G3 X46.381 Y-25.669 Z-4.500 I0.381 J-0.919 K0.000
G3 X45.980 Y-23.755 Z-4.500 I-0.381 J0.919 K0.000
G0 Z5.000
G0 X45.990 Y-24.257 Z5.000
G0 X45.990 Y-24.257 Z3.000
G1 X45.990 Y-24.257 Z-4.500
G3 X45.811 Y-24.295 Z-4.500 I0.010 J-0.493 K0.000
G3 X46.189 Y-25.205 Z-4.500 I0.189 J-0.455 K0.000
G3 X45.990 Y-24.257 Z-4.500 I-0.189 J0.455 K0.000
G1 X45.990 Y-24.257 Z-5.000
G3 X45.811 Y-24.295 Z-5.000 I0.010 J-0.493 K0.000
G3 X46.189 Y-25.205 Z-5.000 I0.189 J-0.455 K0.000
G3 X45.990 Y-24.257 Z-5.000 I-0.189 J0.455 K0.000
G0 Z5.000
G0 X45.980 Y-23.755 Z5.000
G0 X45.980 Y-23.755 Z3.000
G1 X45.980 Y-23.755 Z-5.000
G3 X45.619 Y-23.831 Z-5.000 I0.020 J-0.995 K0.000
G3 X46.381 Y-25.669 Z-5.000 I0.381 J-0.919 K0.000
G3 X45.980 Y-23.755 Z-5.000 I-0.381 J0.919 K0.000
G1 X45.980 Y-23.755 Z-5.500
G3 X45.619 Y-23.831 Z-5.500 I0.020 J-0.995 K0.000
G3 X46.381 Y-25.669 Z-5.500 I0.381 J-0.919 K0.000
G3 X45.980 Y-23.755 Z-5.500 I-0.381 J0.919 K0.000
G0 Z5.000
G0 X45.990 Y-24.257 Z5.000
G0 X45.990 Y-24.257 Z3.000
G1 X45.990 Y-24.257 Z-5.500
G3 X45.811 Y-24.295 Z-5.500 I0.010 J-0.493 K0.000
G3 X46.189 Y-25.205 Z-5.500 I0.189 J-0.455 K0.000
G3 X45.990 Y-24.257 Z-5.500 I-0.189 J0.455 K0.000
G1 X45.990 Y-24.257 Z-6.000
G3 X45.811 Y-24.295 Z-6.000 I0.010 J-0.493 K0.000
G3 X46.189 Y-25.205 Z-6.000 I0.189 J-0.455 K0.000
G3 X45.990 Y-24.257 Z-6.000 I-0.189 J0.455 K0.000
G0 Z5.000
G0 X45.980 Y-23.755 Z5.000
G0 X45.980 Y-23.755 Z3.000
G1 X45.980 Y-23.755 Z-6.000
G3 X45.619 Y-23.831 Z-6.000 I0.020 J-0.995 K0.000
G3 X46.381 Y-25.669 Z-6.000 I0.381 J-0.919 K0.000
G3 X45.980 Y-23.755 Z-6.000 I-0.381 J0.919 K0.000
G1 X45.980 Y-23.755 Z-6.500
G3 X45.619 Y-23.831 Z-6.500 I0.020 J-0.995 K0.000
G3 X46.381 Y-25.669 Z-6.500 I0.381 J-0.919 K0.000
G3 X45.980 Y-23.755 Z-6.500 I-0.381 J0.919 K0.000
G0 Z5.000
G0 X45.990 Y-24.257 Z5.000
G0 X45.990 Y-24.257 Z3.000
G1 X45.990 Y-24.257 Z-6.500
G3 X45.811 Y-24.295 Z-6.500 I0.010 J-0.493 K0.000
G3 X46.189 Y-25.205 Z-6.500 I0.189 J-0.455 K0.000
G3 X45.990 Y-24.257 Z-6.500 I-0.189 J0.455 K0.000
G1 X45.990 Y-24.257 Z-7.000
G3 X45.811 Y-24.295 Z-7.000 I0.010 J-0.493 K0.000
G3 X46.189 Y-25.205 Z-7.000 I0.189 J-0.455 K0.000
G3 X45.990 Y-24.257 Z-7.000 I-0.189 J0.455 K0.000
G0 Z5.000
G0 X45.980 Y-23.755 Z5.000
G0 X45.980 Y-23.755 Z3.000
G1 X45.980 Y-23.755 Z-7.000
G3 X45.619 Y-23.831 Z-7.000 I0.020 J-0.995 K0.000
G3 X46.381 Y-25.669 Z-7.000 I0.381 J-0.919 K0.000
G3 X45.980 Y-23.755 Z-7.000 I-0.381 J0.919 K0.000
G1 X45.980 Y-23.755 Z-7.500
G3 X45.619 Y-23.831 Z-7.500 I0.020 J-0.995 K0.000
G3 X46.381 Y-25.669 Z-7.500 I0.381 J-0.919 K0.000
G3 X45.980 Y-23.755 Z-7.500 I-0.381 J0.919 K0.000
G0 Z5.000
G0 X45.990 Y-24.257 Z5.000
G0 X45.990 Y-24.257 Z3.000
G1 X45.990 Y-24.257 Z-7.500
G3 X45.811 Y-24.295 Z-7.500 I0.010 J-0.493 K0.000
G3 X46.189 Y-25.205 Z-7.500 I0.189 J-0.455 K0.000
G3 X45.990 Y-24.257 Z-7.500 I-0.189 J0.455 K0.000
G1 X45.990 Y-24.257 Z-8.000
G3 X45.811 Y-24.295 Z-8.000 I0.010 J-0.493 K0.000
G3 X46.189 Y-25.205 Z-8.000 I0.189 J-0.455 K0.000
G3 X45.990 Y-24.257 Z-8.000 I-0.189 J0.455 K0.000
G0 Z5.000
G0 X45.980 Y-23.755 Z5.000
G0 X45.980 Y-23.755 Z3.000
G1 X45.980 Y-23.755 Z-8.000
G3 X45.619 Y-23.831 Z-8.000 I0.020 J-0.995 K0.000
G3 X46.381 Y-25.669 Z-8.000 I0.381 J-0.919 K0.000
G3 X45.980 Y-23.755 Z-8.000 I-0.381 J0.919 K0.000
G1 X45.980 Y-23.755 Z-8.500
G3 X45.619 Y-23.831 Z-8.500 I0.020 J-0.995 K0.000
G3 X46.381 Y-25.669 Z-8.500 I0.381 J-0.919 K0.000
G3 X45.980 Y-23.755 Z-8.500 I-0.381 J0.919 K0.000
G0 Z5.000
G0 X45.990 Y-24.257 Z5.000
G0 X45.990 Y-24.257 Z3.000
G1 X45.990 Y-24.257 Z-8.500
G3 X45.811 Y-24.295 Z-8.500 I0.010 J-0.493 K0.000
G3 X46.189 Y-25.205 Z-8.500 I0.189 J-0.455 K0.000
G3 X45.990 Y-24.257 Z-8.500 I-0.189 J0.455 K0.000
G1 X45.990 Y-24.257 Z-9.000
G3 X45.811 Y-24.295 Z-9.000 I0.010 J-0.493 K0.000
G3 X46.189 Y-25.205 Z-9.000 I0.189 J-0.455 K0.000
G3 X45.990 Y-24.257 Z-9.000 I-0.189 J0.455 K0.000
G0 Z5.000
G0 X45.980 Y-23.755 Z5.000
G0 X45.980 Y-23.755 Z3.000
G1 X45.980 Y-23.755 Z-9.000
G3 X45.619 Y-23.831 Z-9.000 I0.020 J-0.995 K0.000
G3 X46.381 Y-25.669 Z-9.000 I0.381 J-0.919 K0.000
G3 X45.980 Y-23.755 Z-9.000 I-0.381 J0.919 K0.000
G0 Z5.000
G0 Z5.000
(Finish operation: Pocket_Shape003)
(Begin postamble)
M5
G17 G90
M2
