(Exported by FreeCAD)
(Post Processor: grbl_post)
(Output Time:2024-06-02 21:28:20.520994)
(Begin preamble)
G17 G90
G21
(Begin operation: Fixture)
(Path: Fixture)
G54
(Finish operation: Fixture)
(Begin operation: 1mm Endmill001)
(Path: 1mm Endmill001)
(1mm Endmill001)
(Begin toolchange)
( M6 T3 )
(Finish operation: 1mm Endmill001)
(Begin operation: Pocket_Shape004)
(Path: Pocket_Shape004)
(Pocket_Shape004)
G0 Z5.000
G0 X-4.832 Y-30.325
G0 Z3.000
G1 X-4.832 Y-30.325 Z-0.500
G3 X-4.925 Y-30.268 Z-0.500 I-0.173 J-0.178 K0.000
G1 X-5.039 Y-30.250 Z-0.500
G1 X-44.961 Y-30.250 Z-0.500
G3 X-45.075 Y-30.732 Z-0.500 I-0.034 J-0.246 K0.000
G1 X-44.961 Y-30.750 Z-0.500
G1 X-5.039 Y-30.750 Z-0.500
G3 X-4.832 Y-30.325 Z-0.500 I0.034 J0.246 K0.000
G1 X-4.832 Y-30.325 Z-1.000
G3 X-4.925 Y-30.268 Z-1.000 I-0.173 J-0.178 K0.000
G1 X-5.039 Y-30.250 Z-1.000
G1 X-44.961 Y-30.250 Z-1.000
G3 X-45.075 Y-30.732 Z-1.000 I-0.034 J-0.246 K0.000
G1 X-44.961 Y-30.750 Z-1.000
G1 X-5.039 Y-30.750 Z-1.000
G3 X-4.832 Y-30.325 Z-1.000 I0.034 J0.246 K0.000
G1 X-4.832 Y-30.325 Z-1.500
G3 X-4.925 Y-30.268 Z-1.500 I-0.173 J-0.178 K0.000
G1 X-5.039 Y-30.250 Z-1.500
G1 X-44.961 Y-30.250 Z-1.500
G3 X-45.075 Y-30.732 Z-1.500 I-0.034 J-0.246 K0.000
G1 X-44.961 Y-30.750 Z-1.500
G1 X-5.039 Y-30.750 Z-1.500
G3 X-4.832 Y-30.325 Z-1.500 I0.034 J0.246 K0.000
G0 Z5.000
G0 Z5.000
G0 X-4.832 Y-30.325
G0 X34.756 Y-30.495
G0 X34.756 Y-30.495 Z3.000
G1 X34.756 Y-30.495 Z-0.500
G3 X34.925 Y-30.732 Z-0.500 I0.249 J-0.001 K0.000
G1 X35.039 Y-30.750 Z-0.500
G1 X44.961 Y-30.750 Z-0.500
G3 X45.075 Y-30.268 Z-0.500 I0.034 J0.246 K0.000
G1 X44.961 Y-30.250 Z-0.500
G1 X35.039 Y-30.250 Z-0.500
G3 X34.756 Y-30.495 Z-0.500 I-0.034 J-0.246 K0.000
G1 X34.756 Y-30.495 Z-1.000
G3 X34.925 Y-30.732 Z-1.000 I0.249 J-0.001 K0.000
G1 X35.039 Y-30.750 Z-1.000
G1 X44.961 Y-30.750 Z-1.000
G3 X45.075 Y-30.268 Z-1.000 I0.034 J0.246 K0.000
G1 X44.961 Y-30.250 Z-1.000
G1 X35.039 Y-30.250 Z-1.000
G3 X34.756 Y-30.495 Z-1.000 I-0.034 J-0.246 K0.000
G1 X34.756 Y-30.495 Z-1.500
G3 X34.925 Y-30.732 Z-1.500 I0.249 J-0.001 K0.000
G1 X35.039 Y-30.750 Z-1.500
G1 X44.961 Y-30.750 Z-1.500
G3 X45.075 Y-30.268 Z-1.500 I0.034 J0.246 K0.000
G1 X44.961 Y-30.250 Z-1.500
G1 X35.039 Y-30.250 Z-1.500
G3 X34.756 Y-30.495 Z-1.500 I-0.034 J-0.246 K0.000
G0 Z5.000
G0 Z5.000
G0 X34.756 Y-30.495
G0 Y30.250
G0 Y30.250 Z3.000
G1 X34.756 Y30.250 Z-0.500
G1 X52.561 Y30.250 Z-0.500
G3 X52.104 Y30.750 Z-0.500 I-2.843 J-2.138 K0.000
G1 X5.039 Y30.750 Z-0.500
G3 X4.925 Y30.268 Z-0.500 I-0.034 J-0.246 K0.000
G1 X5.039 Y30.250 Z-0.500
G1 X34.756 Y30.250 Z-0.500
G1 X34.756 Y30.250 Z-1.000
G1 X52.561 Y30.250 Z-1.000
G3 X52.104 Y30.750 Z-1.000 I-2.843 J-2.138 K0.000
G1 X5.039 Y30.750 Z-1.000
G3 X4.925 Y30.268 Z-1.000 I-0.034 J-0.246 K0.000
G1 X5.039 Y30.250 Z-1.000
G1 X34.756 Y30.250 Z-1.000
G1 X34.756 Y30.250 Z-1.500
G1 X52.561 Y30.250 Z-1.500
G3 X52.104 Y30.750 Z-1.500 I-2.843 J-2.138 K0.000
G1 X5.039 Y30.750 Z-1.500
G3 X4.925 Y30.268 Z-1.500 I-0.034 J-0.246 K0.000
G1 X5.039 Y30.250 Z-1.500
G1 X34.756 Y30.250 Z-1.500
G0 Z5.000
G0 Z5.000
G0 X34.756 Y30.250
G0 X-4.756 Y30.495
G0 X-4.756 Y30.495 Z3.000
G1 X-4.756 Y30.495 Z-0.500
G3 X-4.925 Y30.732 Z-0.500 I-0.249 J0.002 K0.000
G1 X-5.039 Y30.750 Z-0.500
G1 X-44.961 Y30.750 Z-0.500
G3 X-45.075 Y30.268 Z-0.500 I-0.034 J-0.246 K0.000
G1 X-44.961 Y30.250 Z-0.500
G1 X-5.039 Y30.250 Z-0.500
G3 X-4.756 Y30.495 Z-0.500 I0.034 J0.246 K0.000
G1 X-4.756 Y30.495 Z-1.000
G3 X-4.925 Y30.732 Z-1.000 I-0.249 J0.002 K0.000
G1 X-5.039 Y30.750 Z-1.000
G1 X-44.961 Y30.750 Z-1.000
G3 X-45.075 Y30.268 Z-1.000 I-0.034 J-0.246 K0.000
G1 X-44.961 Y30.250 Z-1.000
G1 X-5.039 Y30.250 Z-1.000
G3 X-4.756 Y30.495 Z-1.000 I0.034 J0.246 K0.000
G1 X-4.756 Y30.495 Z-1.500
G3 X-4.925 Y30.732 Z-1.500 I-0.249 J0.002 K0.000
G1 X-5.039 Y30.750 Z-1.500
G1 X-44.961 Y30.750 Z-1.500
G3 X-45.075 Y30.268 Z-1.500 I-0.034 J-0.246 K0.000
G1 X-44.961 Y30.250 Z-1.500
G1 X-5.039 Y30.250 Z-1.500
G3 X-4.756 Y30.495 Z-1.500 I0.034 J0.246 K0.000
G0 Z5.000
G0 Z5.000
(Finish operation: Pocket_Shape004)
(Begin postamble)
M5
G17 G90
M2
