(Exported by FreeCAD)
(Post Processor: grbl_post)
(Output Time:2024-06-02 21:28:05.407523)
(Begin preamble)
G17 G90
G21
(Begin operation: Fixture)
(Path: Fixture)
G54
(Finish operation: Fixture)
(Begin operation: 2mm Endmill001)
(Path: 2mm Endmill001)
(2mm Endmill001)
(Begin toolchange)
( M6 T2 )
(Finish operation: 2mm Endmill001)
(Begin operation: Profile)
(Path: Profile)
(Profile)
(Compensated Tool Path. Diameter: 2.0)
G0 Z5.000
G0 X38.492 Y23.742
G0 Z3.000
G1 X38.492 Y23.742 Z-0.500
G2 X38.500 Y23.684 Z-0.500 I-0.034 J-0.034 K0.000
G1 X38.500 Y-23.684 Z-0.500
G2 X38.434 Y-23.750 Z-0.500 I-0.042 J-0.024 K0.000
G1 X-38.434 Y-23.750 Z-0.500
G2 X-38.500 Y-23.684 Z-0.500 I-0.024 J0.042 K0.000
G1 X-38.500 Y23.684 Z-0.500
G2 X-38.434 Y23.750 Z-0.500 I0.042 J0.024 K0.000
G1 X38.434 Y23.750 Z-0.500
G2 X38.492 Y23.742 Z-0.500 I0.024 J-0.042 K0.000
G1 X38.492 Y23.742 Z-1.000
G2 X38.500 Y23.684 Z-1.000 I-0.034 J-0.034 K0.000
G1 X38.500 Y-23.684 Z-1.000
G2 X38.434 Y-23.750 Z-1.000 I-0.042 J-0.024 K0.000
G1 X-38.434 Y-23.750 Z-1.000
G2 X-38.500 Y-23.684 Z-1.000 I-0.024 J0.042 K0.000
G1 X-38.500 Y23.684 Z-1.000
G2 X-38.434 Y23.750 Z-1.000 I0.042 J0.024 K0.000
G1 X38.434 Y23.750 Z-1.000
G2 X38.492 Y23.742 Z-1.000 I0.024 J-0.042 K0.000
G1 X38.492 Y23.742 Z-1.500
G2 X38.500 Y23.684 Z-1.500 I-0.034 J-0.034 K0.000
G1 X38.500 Y-23.684 Z-1.500
G2 X38.434 Y-23.750 Z-1.500 I-0.042 J-0.024 K0.000
G1 X-38.434 Y-23.750 Z-1.500
G2 X-38.500 Y-23.684 Z-1.500 I-0.024 J0.042 K0.000
G1 X-38.500 Y23.684 Z-1.500
G2 X-38.434 Y23.750 Z-1.500 I0.042 J0.024 K0.000
G1 X38.434 Y23.750 Z-1.500
G2 X38.492 Y23.742 Z-1.500 I0.024 J-0.042 K0.000
G1 X38.492 Y23.742 Z-2.000
G2 X38.500 Y23.684 Z-2.000 I-0.034 J-0.034 K0.000
G1 X38.500 Y-23.684 Z-2.000
G2 X38.434 Y-23.750 Z-2.000 I-0.042 J-0.024 K0.000
G1 X-38.434 Y-23.750 Z-2.000
G2 X-38.500 Y-23.684 Z-2.000 I-0.024 J0.042 K0.000
G1 X-38.500 Y23.684 Z-2.000
G2 X-38.434 Y23.750 Z-2.000 I0.042 J0.024 K0.000
G1 X38.434 Y23.750 Z-2.000
G2 X38.492 Y23.742 Z-2.000 I0.024 J-0.042 K0.000
G1 X38.492 Y23.742 Z-2.500
G2 X38.500 Y23.684 Z-2.500 I-0.034 J-0.034 K0.000
G1 X38.500 Y-23.684 Z-2.500
G2 X38.434 Y-23.750 Z-2.500 I-0.042 J-0.024 K0.000
G1 X-38.434 Y-23.750 Z-2.500
G2 X-38.500 Y-23.684 Z-2.500 I-0.024 J0.042 K0.000
G1 X-38.500 Y23.684 Z-2.500
G2 X-38.434 Y23.750 Z-2.500 I0.042 J0.024 K0.000
G1 X38.434 Y23.750 Z-2.500
G2 X38.492 Y23.742 Z-2.500 I0.024 J-0.042 K0.000
G1 X38.492 Y23.742 Z-3.000
G2 X38.500 Y23.684 Z-3.000 I-0.034 J-0.034 K0.000
G1 X38.500 Y-23.684 Z-3.000
G2 X38.434 Y-23.750 Z-3.000 I-0.042 J-0.024 K0.000
G1 X-38.434 Y-23.750 Z-3.000
G2 X-38.500 Y-23.684 Z-3.000 I-0.024 J0.042 K0.000
G1 X-38.500 Y23.684 Z-3.000
G2 X-38.434 Y23.750 Z-3.000 I0.042 J0.024 K0.000
G1 X38.434 Y23.750 Z-3.000
G2 X38.492 Y23.742 Z-3.000 I0.024 J-0.042 K0.000
G1 X38.492 Y23.742 Z-3.500
G2 X38.500 Y23.684 Z-3.500 I-0.034 J-0.034 K0.000
G1 X38.500 Y-23.684 Z-3.500
G2 X38.434 Y-23.750 Z-3.500 I-0.042 J-0.024 K0.000
G1 X-38.434 Y-23.750 Z-3.500
G2 X-38.500 Y-23.684 Z-3.500 I-0.024 J0.042 K0.000
G1 X-38.500 Y23.684 Z-3.500
G2 X-38.434 Y23.750 Z-3.500 I0.042 J0.024 K0.000
G1 X38.434 Y23.750 Z-3.500
G2 X38.492 Y23.742 Z-3.500 I0.024 J-0.042 K0.000
G1 X38.492 Y23.742 Z-4.000
G2 X38.500 Y23.684 Z-4.000 I-0.034 J-0.034 K0.000
G1 X38.500 Y-23.684 Z-4.000
G2 X38.434 Y-23.750 Z-4.000 I-0.042 J-0.024 K0.000
G1 X-38.434 Y-23.750 Z-4.000
G2 X-38.500 Y-23.684 Z-4.000 I-0.024 J0.042 K0.000
G1 X-38.500 Y23.684 Z-4.000
G2 X-38.434 Y23.750 Z-4.000 I0.042 J0.024 K0.000
G1 X38.434 Y23.750 Z-4.000
G2 X38.492 Y23.742 Z-4.000 I0.024 J-0.042 K0.000
G1 X38.492 Y23.742 Z-4.500
G2 X38.500 Y23.684 Z-4.500 I-0.034 J-0.034 K0.000
G1 X38.500 Y-23.684 Z-4.500
G2 X38.434 Y-23.750 Z-4.500 I-0.042 J-0.024 K0.000
G1 X-38.434 Y-23.750 Z-4.500
G2 X-38.500 Y-23.684 Z-4.500 I-0.024 J0.042 K0.000
G1 X-38.500 Y23.684 Z-4.500
G2 X-38.434 Y23.750 Z-4.500 I0.042 J0.024 K0.000
G1 X38.434 Y23.750 Z-4.500
G2 X38.492 Y23.742 Z-4.500 I0.024 J-0.042 K0.000
G1 X38.492 Y23.742 Z-5.000
G2 X38.500 Y23.684 Z-5.000 I-0.034 J-0.034 K0.000
G1 X38.500 Y-23.684 Z-5.000
G2 X38.434 Y-23.750 Z-5.000 I-0.042 J-0.024 K0.000
G1 X-38.434 Y-23.750 Z-5.000
G2 X-38.500 Y-23.684 Z-5.000 I-0.024 J0.042 K0.000
G1 X-38.500 Y23.684 Z-5.000
G2 X-38.434 Y23.750 Z-5.000 I0.042 J0.024 K0.000
G1 X38.434 Y23.750 Z-5.000
G2 X38.492 Y23.742 Z-5.000 I0.024 J-0.042 K0.000
G1 X38.492 Y23.742 Z-5.500
G2 X38.500 Y23.684 Z-5.500 I-0.034 J-0.034 K0.000
G1 X38.500 Y-23.684 Z-5.500
G2 X38.434 Y-23.750 Z-5.500 I-0.042 J-0.024 K0.000
G1 X-38.434 Y-23.750 Z-5.500
G2 X-38.500 Y-23.684 Z-5.500 I-0.024 J0.042 K0.000
G1 X-38.500 Y23.684 Z-5.500
G2 X-38.434 Y23.750 Z-5.500 I0.042 J0.024 K0.000
G1 X38.434 Y23.750 Z-5.500
G2 X38.492 Y23.742 Z-5.500 I0.024 J-0.042 K0.000
G1 X38.492 Y23.742 Z-6.000
G2 X38.500 Y23.684 Z-6.000 I-0.034 J-0.034 K0.000
G1 X38.500 Y-23.684 Z-6.000
G2 X38.434 Y-23.750 Z-6.000 I-0.042 J-0.024 K0.000
G1 X-38.434 Y-23.750 Z-6.000
G2 X-38.500 Y-23.684 Z-6.000 I-0.024 J0.042 K0.000
G1 X-38.500 Y23.684 Z-6.000
G2 X-38.434 Y23.750 Z-6.000 I0.042 J0.024 K0.000
G1 X38.434 Y23.750 Z-6.000
G2 X38.492 Y23.742 Z-6.000 I0.024 J-0.042 K0.000
G1 X38.492 Y23.742 Z-6.500
G2 X38.500 Y23.684 Z-6.500 I-0.034 J-0.034 K0.000
G1 X38.500 Y-23.684 Z-6.500
G2 X38.434 Y-23.750 Z-6.500 I-0.042 J-0.024 K0.000
G1 X-38.434 Y-23.750 Z-6.500
G2 X-38.500 Y-23.684 Z-6.500 I-0.024 J0.042 K0.000
G1 X-38.500 Y23.684 Z-6.500
G2 X-38.434 Y23.750 Z-6.500 I0.042 J0.024 K0.000
G1 X38.434 Y23.750 Z-6.500
G2 X38.492 Y23.742 Z-6.500 I0.024 J-0.042 K0.000
G1 X38.492 Y23.742 Z-7.000
G2 X38.500 Y23.684 Z-7.000 I-0.034 J-0.034 K0.000
G1 X38.500 Y-23.684 Z-7.000
G2 X38.434 Y-23.750 Z-7.000 I-0.042 J-0.024 K0.000
G1 X-38.434 Y-23.750 Z-7.000
G2 X-38.500 Y-23.684 Z-7.000 I-0.024 J0.042 K0.000
G1 X-38.500 Y23.684 Z-7.000
G2 X-38.434 Y23.750 Z-7.000 I0.042 J0.024 K0.000
G1 X38.434 Y23.750 Z-7.000
G2 X38.492 Y23.742 Z-7.000 I0.024 J-0.042 K0.000
G1 X38.492 Y23.742 Z-7.500
G2 X38.500 Y23.684 Z-7.500 I-0.034 J-0.034 K0.000
G1 X38.500 Y-23.684 Z-7.500
G2 X38.434 Y-23.750 Z-7.500 I-0.042 J-0.024 K0.000
G1 X-38.434 Y-23.750 Z-7.500
G2 X-38.500 Y-23.684 Z-7.500 I-0.024 J0.042 K0.000
G1 X-38.500 Y23.684 Z-7.500
G2 X-38.434 Y23.750 Z-7.500 I0.042 J0.024 K0.000
G1 X38.434 Y23.750 Z-7.500
G2 X38.492 Y23.742 Z-7.500 I0.024 J-0.042 K0.000
G1 X38.492 Y23.742 Z-8.000
G2 X38.500 Y23.684 Z-8.000 I-0.034 J-0.034 K0.000
G1 X38.500 Y-23.684 Z-8.000
G2 X38.434 Y-23.750 Z-8.000 I-0.042 J-0.024 K0.000
G1 X-38.434 Y-23.750 Z-8.000
G2 X-38.500 Y-23.684 Z-8.000 I-0.024 J0.042 K0.000
G1 X-38.500 Y23.684 Z-8.000
G2 X-38.434 Y23.750 Z-8.000 I0.042 J0.024 K0.000
G1 X38.434 Y23.750 Z-8.000
G2 X38.492 Y23.742 Z-8.000 I0.024 J-0.042 K0.000
G1 X38.492 Y23.742 Z-8.500
G2 X38.500 Y23.684 Z-8.500 I-0.034 J-0.034 K0.000
G1 X38.500 Y-23.684 Z-8.500
G2 X38.434 Y-23.750 Z-8.500 I-0.042 J-0.024 K0.000
G1 X-38.434 Y-23.750 Z-8.500
G2 X-38.500 Y-23.684 Z-8.500 I-0.024 J0.042 K0.000
G1 X-38.500 Y23.684 Z-8.500
G2 X-38.434 Y23.750 Z-8.500 I0.042 J0.024 K0.000
G1 X38.434 Y23.750 Z-8.500
G2 X38.492 Y23.742 Z-8.500 I0.024 J-0.042 K0.000
G1 X38.492 Y23.742 Z-9.000
G2 X38.500 Y23.684 Z-9.000 I-0.034 J-0.034 K0.000
G1 X38.500 Y-23.684 Z-9.000
G2 X38.434 Y-23.750 Z-9.000 I-0.042 J-0.024 K0.000
G1 X-38.434 Y-23.750 Z-9.000
G2 X-38.500 Y-23.684 Z-9.000 I-0.024 J0.042 K0.000
G1 X-38.500 Y23.684 Z-9.000
G2 X-38.434 Y23.750 Z-9.000 I0.042 J0.024 K0.000
G1 X38.434 Y23.750 Z-9.000
G2 X38.492 Y23.742 Z-9.000 I0.024 J-0.042 K0.000
G1 X38.492 Y23.742 Z-9.500
G2 X38.500 Y23.684 Z-9.500 I-0.034 J-0.034 K0.000
G1 X38.500 Y-23.684 Z-9.500
G2 X38.434 Y-23.750 Z-9.500 I-0.042 J-0.024 K0.000
G1 X-38.434 Y-23.750 Z-9.500
G2 X-38.500 Y-23.684 Z-9.500 I-0.024 J0.042 K0.000
G1 X-38.500 Y23.684 Z-9.500
G2 X-38.434 Y23.750 Z-9.500 I0.042 J0.024 K0.000
G1 X38.434 Y23.750 Z-9.500
G2 X38.492 Y23.742 Z-9.500 I0.024 J-0.042 K0.000
G1 X38.492 Y23.742 Z-10.000
G2 X38.500 Y23.684 Z-10.000 I-0.034 J-0.034 K0.000
G1 X38.500 Y-23.684 Z-10.000
G2 X38.434 Y-23.750 Z-10.000 I-0.042 J-0.024 K0.000
G1 X-38.434 Y-23.750 Z-10.000
G2 X-38.500 Y-23.684 Z-10.000 I-0.024 J0.042 K0.000
G1 X-38.500 Y23.684 Z-10.000
G2 X-38.434 Y23.750 Z-10.000 I0.042 J0.024 K0.000
G1 X38.434 Y23.750 Z-10.000
G2 X38.492 Y23.742 Z-10.000 I0.024 J-0.042 K0.000
G1 X38.492 Y23.742 Z-10.500
G2 X38.500 Y23.684 Z-10.500 I-0.034 J-0.034 K0.000
G1 X38.500 Y-23.684 Z-10.500
G2 X38.434 Y-23.750 Z-10.500 I-0.042 J-0.024 K0.000
G1 X-38.434 Y-23.750 Z-10.500
G2 X-38.500 Y-23.684 Z-10.500 I-0.024 J0.042 K0.000
G1 X-38.500 Y23.684 Z-10.500
G2 X-38.434 Y23.750 Z-10.500 I0.042 J0.024 K0.000
G1 X38.434 Y23.750 Z-10.500
G2 X38.492 Y23.742 Z-10.500 I0.024 J-0.042 K0.000
G0 Z5.000
G0 Z5.000
(Finish operation: Profile)
(Begin postamble)
M5
G17 G90
M2
