(Exported by FreeCAD)
(Post Processor: grbl_post)
(Output Time:2024-06-02 21:28:08.220682)
(Begin preamble)
G17 G90
G21
(Begin operation: Fixture)
(Path: Fixture)
G54
(Finish operation: Fixture)
(Begin operation: 2mm Endmill001)
(Path: 2mm Endmill001)
(2mm Endmill001)
(Begin toolchange)
( M6 T2 )
(Finish operation: 2mm Endmill001)
(Begin operation: Pocket_Shape)
(Path: Pocket_Shape)
(Pocket_Shape)
G0 Z5.000
G0 X41.992 Y27.492
G0 Z3.000
G1 X41.992 Y27.492 Z-0.500
G3 X41.934 Y27.500 Z-0.500 I-0.034 J-0.034 K0.000
G1 X-41.934 Y27.500 Z-0.500
G3 X-42.000 Y27.434 Z-0.500 I-0.024 J-0.042 K0.000
G1 X-42.000 Y-27.434 Z-0.500
G3 X-41.934 Y-27.500 Z-0.500 I0.042 J-0.024 K0.000
G1 X41.934 Y-27.500 Z-0.500
G3 X42.000 Y-27.434 Z-0.500 I0.024 J0.042 K0.000
G1 X42.000 Y27.434 Z-0.500
G3 X41.992 Y27.492 Z-0.500 I-0.042 J0.024 K0.000
G0 Z5.000
G0 X41.000 Y26.500 Z5.000
G0 X41.000 Y26.500 Z3.000
G1 X41.000 Y26.500 Z-0.500
G1 X39.678 Y26.500 Z-0.500
G2 X41.000 Y25.386 Z-0.500 I-1.115 J-2.664 K0.000
G1 X41.000 Y26.500 Z-0.500
G0 Z5.000
G0 X39.843 Y25.226 Z5.000
G0 X39.843 Y25.226 Z3.000
G1 X39.843 Y25.226 Z-0.500
G3 X38.631 Y25.741 Z-0.500 I-1.347 J-1.484 K0.000
G1 X-38.500 Y25.750 Z-0.500
G3 X-40.491 Y23.881 Z-0.500 I0.008 J-2.004 K0.000
G1 X-40.500 Y-23.750 Z-0.500
G3 X-38.631 Y-25.741 Z-0.500 I2.004 J0.008 K0.000
G1 X38.500 Y-25.750 Z-0.500
G3 X40.491 Y-23.881 Z-0.500 I-0.008 J2.004 K0.000
G1 X40.500 Y23.750 Z-0.500
G3 X39.843 Y25.226 Z-0.500 I-2.004 J-0.008 K0.000
G0 Z5.000
G0 X41.000 Y-25.386 Z5.000
G0 X41.000 Y-25.386 Z3.000
G1 X41.000 Y-25.386 Z-0.500
G2 X39.678 Y-26.500 Z-0.500 I-2.437 J1.550 K0.000
G1 X41.000 Y-26.500 Z-0.500
G1 X41.000 Y-25.386 Z-0.500
G0 Z5.000
G0 X-39.678 Y-26.500 Z5.000
G0 X-39.678 Y-26.500 Z3.000
G1 X-39.678 Y-26.500 Z-0.500
G2 X-41.000 Y-25.386 Z-0.500 I1.115 J2.664 K0.000
G1 X-41.000 Y-26.500 Z-0.500
G1 X-39.678 Y-26.500 Z-0.500
G0 Z5.000
G0 X-41.000 Y25.386 Z5.000
G0 X-41.000 Y25.386 Z3.000
G1 X-41.000 Y25.386 Z-0.500
G2 X-39.678 Y26.500 Z-0.500 I2.437 J-1.550 K0.000
G1 X-41.000 Y26.500 Z-0.500
G1 X-41.000 Y25.386 Z-0.500
G1 X-41.000 Y25.386 Z-1.000
G2 X-39.678 Y26.500 Z-1.000 I2.437 J-1.550 K0.000
G1 X-41.000 Y26.500 Z-1.000
G1 X-41.000 Y25.386 Z-1.000
G0 Z5.000
G0 X-40.169 Y24.843 Z5.000
G0 X-40.169 Y24.843 Z3.000
G1 X-40.169 Y24.843 Z-1.000
G3 X-40.491 Y23.881 Z-1.000 I1.677 J-1.097 K0.000
G1 X-40.500 Y-23.750 Z-1.000
G3 X-38.631 Y-25.741 Z-1.000 I2.004 J0.008 K0.000
G1 X38.500 Y-25.750 Z-1.000
G3 X40.491 Y-23.881 Z-1.000 I-0.008 J2.004 K0.000
G1 X40.500 Y23.750 Z-1.000
G3 X38.631 Y25.741 Z-1.000 I-2.004 J-0.008 K0.000
G1 X-38.500 Y25.750 Z-1.000
G3 X-40.169 Y24.843 Z-1.000 I0.008 J-2.004 K0.000
G0 Z5.000
G0 X-42.000 Z5.000
G0 X-42.000 Z3.000
G1 X-42.000 Y24.843 Z-1.000
G1 X-42.000 Y-27.434 Z-1.000
G3 X-41.934 Y-27.500 Z-1.000 I0.042 J-0.024 K0.000
G1 X41.934 Y-27.500 Z-1.000
G3 X42.000 Y-27.434 Z-1.000 I0.024 J0.042 K0.000
G1 X42.000 Y27.434 Z-1.000
G3 X41.934 Y27.500 Z-1.000 I-0.042 J0.024 K0.000
G1 X-41.934 Y27.500 Z-1.000
G3 X-42.000 Y27.434 Z-1.000 I-0.024 J-0.042 K0.000
G1 X-42.000 Y24.843 Z-1.000
G0 Z5.000
G0 X-41.000 Y-25.386 Z5.000
G0 X-41.000 Y-25.386 Z3.000
G1 X-41.000 Y-25.386 Z-1.000
G1 X-41.000 Y-26.500 Z-1.000
G1 X-39.678 Y-26.500 Z-1.000
G2 X-41.000 Y-25.386 Z-1.000 I1.115 J2.664 K0.000
G0 Z5.000
G0 X39.678 Y-26.500 Z5.000
G0 X39.678 Y-26.500 Z3.000
G1 X39.678 Y-26.500 Z-1.000
G1 X41.000 Y-26.500 Z-1.000
G1 X41.000 Y-25.386 Z-1.000
G2 X39.678 Y-26.500 Z-1.000 I-2.437 J1.550 K0.000
G0 Z5.000
G0 X41.000 Y25.386 Z5.000
G0 X41.000 Y25.386 Z3.000
G1 X41.000 Y25.386 Z-1.000
G1 X41.000 Y26.500 Z-1.000
G1 X39.678 Y26.500 Z-1.000
G2 X41.000 Y25.386 Z-1.000 I-1.115 J-2.664 K0.000
G1 X41.000 Y25.386 Z-1.500
G1 X41.000 Y26.500 Z-1.500
G1 X39.678 Y26.500 Z-1.500
G2 X41.000 Y25.386 Z-1.500 I-1.115 J-2.664 K0.000
G0 Z5.000
G0 X40.171 Y24.842 Z5.000
G0 X40.171 Y24.842 Z3.000
G1 X40.171 Y24.842 Z-1.500
G3 X38.631 Y25.741 Z-1.500 I-1.675 J-1.100 K0.000
G1 X-38.500 Y25.750 Z-1.500
G3 X-40.491 Y23.881 Z-1.500 I0.008 J-2.004 K0.000
G1 X-40.500 Y-23.750 Z-1.500
G3 X-38.631 Y-25.741 Z-1.500 I2.004 J0.008 K0.000
G1 X38.500 Y-25.750 Z-1.500
G3 X40.491 Y-23.881 Z-1.500 I-0.008 J2.004 K0.000
G1 X40.500 Y23.750 Z-1.500
G3 X40.171 Y24.842 Z-1.500 I-2.004 J-0.008 K0.000
G0 Z5.000
G0 X42.000 Z5.000
G0 X42.000 Z3.000
G1 X42.000 Y24.842 Z-1.500
G1 X42.000 Y27.434 Z-1.500
G3 X41.934 Y27.500 Z-1.500 I-0.042 J0.024 K0.000
G1 X-41.934 Y27.500 Z-1.500
G3 X-42.000 Y27.434 Z-1.500 I-0.024 J-0.042 K0.000
G1 X-42.000 Y-27.434 Z-1.500
G3 X-41.934 Y-27.500 Z-1.500 I0.042 J-0.024 K0.000
G1 X41.934 Y-27.500 Z-1.500
G3 X42.000 Y-27.434 Z-1.500 I0.024 J0.042 K0.000
G1 X42.000 Y24.842 Z-1.500
G0 Z5.000
G0 X41.000 Y-25.386 Z5.000
G0 X41.000 Y-25.386 Z3.000
G1 X41.000 Y-25.386 Z-1.500
G2 X39.678 Y-26.500 Z-1.500 I-2.437 J1.550 K0.000
G1 X41.000 Y-26.500 Z-1.500
G1 X41.000 Y-25.386 Z-1.500
G0 Z5.000
G0 X-39.678 Y-26.500 Z5.000
G0 X-39.678 Y-26.500 Z3.000
G1 X-39.678 Y-26.500 Z-1.500
G2 X-41.000 Y-25.386 Z-1.500 I1.115 J2.664 K0.000
G1 X-41.000 Y-26.500 Z-1.500
G1 X-39.678 Y-26.500 Z-1.500
G0 Z5.000
G0 X-41.000 Y25.386 Z5.000
G0 X-41.000 Y25.386 Z3.000
G1 X-41.000 Y25.386 Z-1.500
G2 X-39.678 Y26.500 Z-1.500 I2.437 J-1.550 K0.000
G1 X-41.000 Y26.500 Z-1.500
G1 X-41.000 Y25.386 Z-1.500
G1 X-41.000 Y25.386 Z-2.000
G2 X-39.678 Y26.500 Z-2.000 I2.437 J-1.550 K0.000
G1 X-41.000 Y26.500 Z-2.000
G1 X-41.000 Y25.386 Z-2.000
G0 Z5.000
G0 X-40.169 Y24.843 Z5.000
G0 X-40.169 Y24.843 Z3.000
G1 X-40.169 Y24.843 Z-2.000
G3 X-40.491 Y23.881 Z-2.000 I1.677 J-1.097 K0.000
G1 X-40.500 Y-23.750 Z-2.000
G3 X-38.631 Y-25.741 Z-2.000 I2.004 J0.008 K0.000
G1 X38.500 Y-25.750 Z-2.000
G3 X40.491 Y-23.881 Z-2.000 I-0.008 J2.004 K0.000
G1 X40.500 Y23.750 Z-2.000
G3 X38.631 Y25.741 Z-2.000 I-2.004 J-0.008 K0.000
G1 X-38.500 Y25.750 Z-2.000
G3 X-40.169 Y24.843 Z-2.000 I0.008 J-2.004 K0.000
G0 Z5.000
G0 X-42.000 Z5.000
G0 X-42.000 Z3.000
G1 X-42.000 Y24.843 Z-2.000
G1 X-42.000 Y-27.434 Z-2.000
G3 X-41.934 Y-27.500 Z-2.000 I0.042 J-0.024 K0.000
G1 X41.934 Y-27.500 Z-2.000
G3 X42.000 Y-27.434 Z-2.000 I0.024 J0.042 K0.000
G1 X42.000 Y27.434 Z-2.000
G3 X41.934 Y27.500 Z-2.000 I-0.042 J0.024 K0.000
G1 X-41.934 Y27.500 Z-2.000
G3 X-42.000 Y27.434 Z-2.000 I-0.024 J-0.042 K0.000
G1 X-42.000 Y24.843 Z-2.000
G0 Z5.000
G0 X-41.000 Y-25.386 Z5.000
G0 X-41.000 Y-25.386 Z3.000
G1 X-41.000 Y-25.386 Z-2.000
G1 X-41.000 Y-26.500 Z-2.000
G1 X-39.678 Y-26.500 Z-2.000
G2 X-41.000 Y-25.386 Z-2.000 I1.115 J2.664 K0.000
G0 Z5.000
G0 X39.678 Y-26.500 Z5.000
G0 X39.678 Y-26.500 Z3.000
G1 X39.678 Y-26.500 Z-2.000
G1 X41.000 Y-26.500 Z-2.000
G1 X41.000 Y-25.386 Z-2.000
G2 X39.678 Y-26.500 Z-2.000 I-2.437 J1.550 K0.000
G0 Z5.000
G0 X41.000 Y25.386 Z5.000
G0 X41.000 Y25.386 Z3.000
G1 X41.000 Y25.386 Z-2.000
G1 X41.000 Y26.500 Z-2.000
G1 X39.678 Y26.500 Z-2.000
G2 X41.000 Y25.386 Z-2.000 I-1.115 J-2.664 K0.000
G1 X41.000 Y25.386 Z-2.500
G1 X41.000 Y26.500 Z-2.500
G1 X39.678 Y26.500 Z-2.500
G2 X41.000 Y25.386 Z-2.500 I-1.115 J-2.664 K0.000
G0 Z5.000
G0 X40.171 Y24.842 Z5.000
G0 X40.171 Y24.842 Z3.000
G1 X40.171 Y24.842 Z-2.500
G3 X38.631 Y25.741 Z-2.500 I-1.675 J-1.100 K0.000
G1 X-38.500 Y25.750 Z-2.500
G3 X-40.491 Y23.881 Z-2.500 I0.008 J-2.004 K0.000
G1 X-40.500 Y-23.750 Z-2.500
G3 X-38.631 Y-25.741 Z-2.500 I2.004 J0.008 K0.000
G1 X38.500 Y-25.750 Z-2.500
G3 X40.491 Y-23.881 Z-2.500 I-0.008 J2.004 K0.000
G1 X40.500 Y23.750 Z-2.500
G3 X40.171 Y24.842 Z-2.500 I-2.004 J-0.008 K0.000
G0 Z5.000
G0 X42.000 Z5.000
G0 X42.000 Z3.000
G1 X42.000 Y24.842 Z-2.500
G1 X42.000 Y27.434 Z-2.500
G3 X41.934 Y27.500 Z-2.500 I-0.042 J0.024 K0.000
G1 X-41.934 Y27.500 Z-2.500
G3 X-42.000 Y27.434 Z-2.500 I-0.024 J-0.042 K0.000
G1 X-42.000 Y-27.434 Z-2.500
G3 X-41.934 Y-27.500 Z-2.500 I0.042 J-0.024 K0.000
G1 X41.934 Y-27.500 Z-2.500
G3 X42.000 Y-27.434 Z-2.500 I0.024 J0.042 K0.000
G1 X42.000 Y24.842 Z-2.500
G0 Z5.000
G0 X41.000 Y-25.386 Z5.000
G0 X41.000 Y-25.386 Z3.000
G1 X41.000 Y-25.386 Z-2.500
G2 X39.678 Y-26.500 Z-2.500 I-2.437 J1.550 K0.000
G1 X41.000 Y-26.500 Z-2.500
G1 X41.000 Y-25.386 Z-2.500
G0 Z5.000
G0 X-39.678 Y-26.500 Z5.000
G0 X-39.678 Y-26.500 Z3.000
G1 X-39.678 Y-26.500 Z-2.500
G2 X-41.000 Y-25.386 Z-2.500 I1.115 J2.664 K0.000
G1 X-41.000 Y-26.500 Z-2.500
G1 X-39.678 Y-26.500 Z-2.500
G0 Z5.000
G0 X-41.000 Y25.386 Z5.000
G0 X-41.000 Y25.386 Z3.000
G1 X-41.000 Y25.386 Z-2.500
G2 X-39.678 Y26.500 Z-2.500 I2.437 J-1.550 K0.000
G1 X-41.000 Y26.500 Z-2.500
G1 X-41.000 Y25.386 Z-2.500
G1 X-41.000 Y25.386 Z-3.000
G2 X-39.678 Y26.500 Z-3.000 I2.437 J-1.550 K0.000
G1 X-41.000 Y26.500 Z-3.000
G1 X-41.000 Y25.386 Z-3.000
G0 Z5.000
G0 X-40.169 Y24.843 Z5.000
G0 X-40.169 Y24.843 Z3.000
G1 X-40.169 Y24.843 Z-3.000
G3 X-40.491 Y23.881 Z-3.000 I1.677 J-1.097 K0.000
G1 X-40.500 Y-23.750 Z-3.000
G3 X-38.631 Y-25.741 Z-3.000 I2.004 J0.008 K0.000
G1 X38.500 Y-25.750 Z-3.000
G3 X40.491 Y-23.881 Z-3.000 I-0.008 J2.004 K0.000
G1 X40.500 Y23.750 Z-3.000
G3 X38.631 Y25.741 Z-3.000 I-2.004 J-0.008 K0.000
G1 X-38.500 Y25.750 Z-3.000
G3 X-40.169 Y24.843 Z-3.000 I0.008 J-2.004 K0.000
G0 Z5.000
G0 X-42.000 Z5.000
G0 X-42.000 Z3.000
G1 X-42.000 Y24.843 Z-3.000
G1 X-42.000 Y-27.434 Z-3.000
G3 X-41.934 Y-27.500 Z-3.000 I0.042 J-0.024 K0.000
G1 X41.934 Y-27.500 Z-3.000
G3 X42.000 Y-27.434 Z-3.000 I0.024 J0.042 K0.000
G1 X42.000 Y27.434 Z-3.000
G3 X41.934 Y27.500 Z-3.000 I-0.042 J0.024 K0.000
G1 X-41.934 Y27.500 Z-3.000
G3 X-42.000 Y27.434 Z-3.000 I-0.024 J-0.042 K0.000
G1 X-42.000 Y24.843 Z-3.000
G0 Z5.000
G0 X-41.000 Y-25.386 Z5.000
G0 X-41.000 Y-25.386 Z3.000
G1 X-41.000 Y-25.386 Z-3.000
G1 X-41.000 Y-26.500 Z-3.000
G1 X-39.678 Y-26.500 Z-3.000
G2 X-41.000 Y-25.386 Z-3.000 I1.115 J2.664 K0.000
G0 Z5.000
G0 X39.678 Y-26.500 Z5.000
G0 X39.678 Y-26.500 Z3.000
G1 X39.678 Y-26.500 Z-3.000
G1 X41.000 Y-26.500 Z-3.000
G1 X41.000 Y-25.386 Z-3.000
G2 X39.678 Y-26.500 Z-3.000 I-2.437 J1.550 K0.000
G0 Z5.000
G0 X41.000 Y25.386 Z5.000
G0 X41.000 Y25.386 Z3.000
G1 X41.000 Y25.386 Z-3.000
G1 X41.000 Y26.500 Z-3.000
G1 X39.678 Y26.500 Z-3.000
G2 X41.000 Y25.386 Z-3.000 I-1.115 J-2.664 K0.000
G1 X41.000 Y25.386 Z-3.500
G1 X41.000 Y26.500 Z-3.500
G1 X39.678 Y26.500 Z-3.500
G2 X41.000 Y25.386 Z-3.500 I-1.115 J-2.664 K0.000
G0 Z5.000
G0 X40.171 Y24.842 Z5.000
G0 X40.171 Y24.842 Z3.000
G1 X40.171 Y24.842 Z-3.500
G3 X38.631 Y25.741 Z-3.500 I-1.675 J-1.100 K0.000
G1 X-38.500 Y25.750 Z-3.500
G3 X-40.491 Y23.881 Z-3.500 I0.008 J-2.004 K0.000
G1 X-40.500 Y-23.750 Z-3.500
G3 X-38.631 Y-25.741 Z-3.500 I2.004 J0.008 K0.000
G1 X38.500 Y-25.750 Z-3.500
G3 X40.491 Y-23.881 Z-3.500 I-0.008 J2.004 K0.000
G1 X40.500 Y23.750 Z-3.500
G3 X40.171 Y24.842 Z-3.500 I-2.004 J-0.008 K0.000
G0 Z5.000
G0 X42.000 Z5.000
G0 X42.000 Z3.000
G1 X42.000 Y24.842 Z-3.500
G1 X42.000 Y27.434 Z-3.500
G3 X41.934 Y27.500 Z-3.500 I-0.042 J0.024 K0.000
G1 X-41.934 Y27.500 Z-3.500
G3 X-42.000 Y27.434 Z-3.500 I-0.024 J-0.042 K0.000
G1 X-42.000 Y-27.434 Z-3.500
G3 X-41.934 Y-27.500 Z-3.500 I0.042 J-0.024 K0.000
G1 X41.934 Y-27.500 Z-3.500
G3 X42.000 Y-27.434 Z-3.500 I0.024 J0.042 K0.000
G1 X42.000 Y24.842 Z-3.500
G0 Z5.000
G0 X41.000 Y-25.386 Z5.000
G0 X41.000 Y-25.386 Z3.000
G1 X41.000 Y-25.386 Z-3.500
G2 X39.678 Y-26.500 Z-3.500 I-2.437 J1.550 K0.000
G1 X41.000 Y-26.500 Z-3.500
G1 X41.000 Y-25.386 Z-3.500
G0 Z5.000
G0 X-39.678 Y-26.500 Z5.000
G0 X-39.678 Y-26.500 Z3.000
G1 X-39.678 Y-26.500 Z-3.500
G2 X-41.000 Y-25.386 Z-3.500 I1.115 J2.664 K0.000
G1 X-41.000 Y-26.500 Z-3.500
G1 X-39.678 Y-26.500 Z-3.500
G0 Z5.000
G0 X-41.000 Y25.386 Z5.000
G0 X-41.000 Y25.386 Z3.000
G1 X-41.000 Y25.386 Z-3.500
G2 X-39.678 Y26.500 Z-3.500 I2.437 J-1.550 K0.000
G1 X-41.000 Y26.500 Z-3.500
G1 X-41.000 Y25.386 Z-3.500
G1 X-41.000 Y25.386 Z-4.000
G2 X-39.678 Y26.500 Z-4.000 I2.437 J-1.550 K0.000
G1 X-41.000 Y26.500 Z-4.000
G1 X-41.000 Y25.386 Z-4.000
G0 Z5.000
G0 X-40.169 Y24.843 Z5.000
G0 X-40.169 Y24.843 Z3.000
G1 X-40.169 Y24.843 Z-4.000
G3 X-40.491 Y23.881 Z-4.000 I1.677 J-1.097 K0.000
G1 X-40.500 Y-23.750 Z-4.000
G3 X-38.631 Y-25.741 Z-4.000 I2.004 J0.008 K0.000
G1 X38.500 Y-25.750 Z-4.000
G3 X40.491 Y-23.881 Z-4.000 I-0.008 J2.004 K0.000
G1 X40.500 Y23.750 Z-4.000
G3 X38.631 Y25.741 Z-4.000 I-2.004 J-0.008 K0.000
G1 X-38.500 Y25.750 Z-4.000
G3 X-40.169 Y24.843 Z-4.000 I0.008 J-2.004 K0.000
G0 Z5.000
G0 X-42.000 Z5.000
G0 X-42.000 Z3.000
G1 X-42.000 Y24.843 Z-4.000
G1 X-42.000 Y-27.434 Z-4.000
G3 X-41.934 Y-27.500 Z-4.000 I0.042 J-0.024 K0.000
G1 X41.934 Y-27.500 Z-4.000
G3 X42.000 Y-27.434 Z-4.000 I0.024 J0.042 K0.000
G1 X42.000 Y27.434 Z-4.000
G3 X41.934 Y27.500 Z-4.000 I-0.042 J0.024 K0.000
G1 X-41.934 Y27.500 Z-4.000
G3 X-42.000 Y27.434 Z-4.000 I-0.024 J-0.042 K0.000
G1 X-42.000 Y24.843 Z-4.000
G0 Z5.000
G0 X-41.000 Y-25.386 Z5.000
G0 X-41.000 Y-25.386 Z3.000
G1 X-41.000 Y-25.386 Z-4.000
G1 X-41.000 Y-26.500 Z-4.000
G1 X-39.678 Y-26.500 Z-4.000
G2 X-41.000 Y-25.386 Z-4.000 I1.115 J2.664 K0.000
G0 Z5.000
G0 X39.678 Y-26.500 Z5.000
G0 X39.678 Y-26.500 Z3.000
G1 X39.678 Y-26.500 Z-4.000
G1 X41.000 Y-26.500 Z-4.000
G1 X41.000 Y-25.386 Z-4.000
G2 X39.678 Y-26.500 Z-4.000 I-2.437 J1.550 K0.000
G0 Z5.000
G0 X41.000 Y25.386 Z5.000
G0 X41.000 Y25.386 Z3.000
G1 X41.000 Y25.386 Z-4.000
G1 X41.000 Y26.500 Z-4.000
G1 X39.678 Y26.500 Z-4.000
G2 X41.000 Y25.386 Z-4.000 I-1.115 J-2.664 K0.000
G1 X41.000 Y25.386 Z-4.500
G1 X41.000 Y26.500 Z-4.500
G1 X39.678 Y26.500 Z-4.500
G2 X41.000 Y25.386 Z-4.500 I-1.115 J-2.664 K0.000
G0 Z5.000
G0 X40.171 Y24.842 Z5.000
G0 X40.171 Y24.842 Z3.000
G1 X40.171 Y24.842 Z-4.500
G3 X38.631 Y25.741 Z-4.500 I-1.675 J-1.100 K0.000
G1 X-38.500 Y25.750 Z-4.500
G3 X-40.491 Y23.881 Z-4.500 I0.008 J-2.004 K0.000
G1 X-40.500 Y-23.750 Z-4.500
G3 X-38.631 Y-25.741 Z-4.500 I2.004 J0.008 K0.000
G1 X38.500 Y-25.750 Z-4.500
G3 X40.491 Y-23.881 Z-4.500 I-0.008 J2.004 K0.000
G1 X40.500 Y23.750 Z-4.500
G3 X40.171 Y24.842 Z-4.500 I-2.004 J-0.008 K0.000
G0 Z5.000
G0 X42.000 Z5.000
G0 X42.000 Z3.000
G1 X42.000 Y24.842 Z-4.500
G1 X42.000 Y27.434 Z-4.500
G3 X41.934 Y27.500 Z-4.500 I-0.042 J0.024 K0.000
G1 X-41.934 Y27.500 Z-4.500
G3 X-42.000 Y27.434 Z-4.500 I-0.024 J-0.042 K0.000
G1 X-42.000 Y-27.434 Z-4.500
G3 X-41.934 Y-27.500 Z-4.500 I0.042 J-0.024 K0.000
G1 X41.934 Y-27.500 Z-4.500
G3 X42.000 Y-27.434 Z-4.500 I0.024 J0.042 K0.000
G1 X42.000 Y24.842 Z-4.500
G0 Z5.000
G0 X41.000 Y-25.386 Z5.000
G0 X41.000 Y-25.386 Z3.000
G1 X41.000 Y-25.386 Z-4.500
G2 X39.678 Y-26.500 Z-4.500 I-2.437 J1.550 K0.000
G1 X41.000 Y-26.500 Z-4.500
G1 X41.000 Y-25.386 Z-4.500
G0 Z5.000
G0 X-39.678 Y-26.500 Z5.000
G0 X-39.678 Y-26.500 Z3.000
G1 X-39.678 Y-26.500 Z-4.500
G2 X-41.000 Y-25.386 Z-4.500 I1.115 J2.664 K0.000
G1 X-41.000 Y-26.500 Z-4.500
G1 X-39.678 Y-26.500 Z-4.500
G0 Z5.000
G0 X-41.000 Y25.386 Z5.000
G0 X-41.000 Y25.386 Z3.000
G1 X-41.000 Y25.386 Z-4.500
G2 X-39.678 Y26.500 Z-4.500 I2.437 J-1.550 K0.000
G1 X-41.000 Y26.500 Z-4.500
G1 X-41.000 Y25.386 Z-4.500
G1 X-41.000 Y25.386 Z-5.000
G2 X-39.678 Y26.500 Z-5.000 I2.437 J-1.550 K0.000
G1 X-41.000 Y26.500 Z-5.000
G1 X-41.000 Y25.386 Z-5.000
G0 Z5.000
G0 X-40.169 Y24.843 Z5.000
G0 X-40.169 Y24.843 Z3.000
G1 X-40.169 Y24.843 Z-5.000
G3 X-40.491 Y23.881 Z-5.000 I1.677 J-1.097 K0.000
G1 X-40.500 Y-23.750 Z-5.000
G3 X-38.631 Y-25.741 Z-5.000 I2.004 J0.008 K0.000
G1 X38.500 Y-25.750 Z-5.000
G3 X40.491 Y-23.881 Z-5.000 I-0.008 J2.004 K0.000
G1 X40.500 Y23.750 Z-5.000
G3 X38.631 Y25.741 Z-5.000 I-2.004 J-0.008 K0.000
G1 X-38.500 Y25.750 Z-5.000
G3 X-40.169 Y24.843 Z-5.000 I0.008 J-2.004 K0.000
G0 Z5.000
G0 X-42.000 Z5.000
G0 X-42.000 Z3.000
G1 X-42.000 Y24.843 Z-5.000
G1 X-42.000 Y-27.434 Z-5.000
G3 X-41.934 Y-27.500 Z-5.000 I0.042 J-0.024 K0.000
G1 X41.934 Y-27.500 Z-5.000
G3 X42.000 Y-27.434 Z-5.000 I0.024 J0.042 K0.000
G1 X42.000 Y27.434 Z-5.000
G3 X41.934 Y27.500 Z-5.000 I-0.042 J0.024 K0.000
G1 X-41.934 Y27.500 Z-5.000
G3 X-42.000 Y27.434 Z-5.000 I-0.024 J-0.042 K0.000
G1 X-42.000 Y24.843 Z-5.000
G0 Z5.000
G0 X-41.000 Y-25.386 Z5.000
G0 X-41.000 Y-25.386 Z3.000
G1 X-41.000 Y-25.386 Z-5.000
G1 X-41.000 Y-26.500 Z-5.000
G1 X-39.678 Y-26.500 Z-5.000
G2 X-41.000 Y-25.386 Z-5.000 I1.115 J2.664 K0.000
G0 Z5.000
G0 X39.678 Y-26.500 Z5.000
G0 X39.678 Y-26.500 Z3.000
G1 X39.678 Y-26.500 Z-5.000
G1 X41.000 Y-26.500 Z-5.000
G1 X41.000 Y-25.386 Z-5.000
G2 X39.678 Y-26.500 Z-5.000 I-2.437 J1.550 K0.000
G0 Z5.000
G0 X41.000 Y25.386 Z5.000
G0 X41.000 Y25.386 Z3.000
G1 X41.000 Y25.386 Z-5.000
G1 X41.000 Y26.500 Z-5.000
G1 X39.678 Y26.500 Z-5.000
G2 X41.000 Y25.386 Z-5.000 I-1.115 J-2.664 K0.000
G1 X41.000 Y25.386 Z-5.500
G1 X41.000 Y26.500 Z-5.500
G1 X39.678 Y26.500 Z-5.500
G2 X41.000 Y25.386 Z-5.500 I-1.115 J-2.664 K0.000
G0 Z5.000
G0 X40.171 Y24.842 Z5.000
G0 X40.171 Y24.842 Z3.000
G1 X40.171 Y24.842 Z-5.500
G3 X38.631 Y25.741 Z-5.500 I-1.675 J-1.100 K0.000
G1 X-38.500 Y25.750 Z-5.500
G3 X-40.491 Y23.881 Z-5.500 I0.008 J-2.004 K0.000
G1 X-40.500 Y-23.750 Z-5.500
G3 X-38.631 Y-25.741 Z-5.500 I2.004 J0.008 K0.000
G1 X38.500 Y-25.750 Z-5.500
G3 X40.491 Y-23.881 Z-5.500 I-0.008 J2.004 K0.000
G1 X40.500 Y23.750 Z-5.500
G3 X40.171 Y24.842 Z-5.500 I-2.004 J-0.008 K0.000
G0 Z5.000
G0 X42.000 Z5.000
G0 X42.000 Z3.000
G1 X42.000 Y24.842 Z-5.500
G1 X42.000 Y27.434 Z-5.500
G3 X41.934 Y27.500 Z-5.500 I-0.042 J0.024 K0.000
G1 X-41.934 Y27.500 Z-5.500
G3 X-42.000 Y27.434 Z-5.500 I-0.024 J-0.042 K0.000
G1 X-42.000 Y-27.434 Z-5.500
G3 X-41.934 Y-27.500 Z-5.500 I0.042 J-0.024 K0.000
G1 X41.934 Y-27.500 Z-5.500
G3 X42.000 Y-27.434 Z-5.500 I0.024 J0.042 K0.000
G1 X42.000 Y24.842 Z-5.500
G0 Z5.000
G0 X41.000 Y-25.386 Z5.000
G0 X41.000 Y-25.386 Z3.000
G1 X41.000 Y-25.386 Z-5.500
G2 X39.678 Y-26.500 Z-5.500 I-2.437 J1.550 K0.000
G1 X41.000 Y-26.500 Z-5.500
G1 X41.000 Y-25.386 Z-5.500
G0 Z5.000
G0 X-39.678 Y-26.500 Z5.000
G0 X-39.678 Y-26.500 Z3.000
G1 X-39.678 Y-26.500 Z-5.500
G2 X-41.000 Y-25.386 Z-5.500 I1.115 J2.664 K0.000
G1 X-41.000 Y-26.500 Z-5.500
G1 X-39.678 Y-26.500 Z-5.500
G0 Z5.000
G0 X-41.000 Y25.386 Z5.000
G0 X-41.000 Y25.386 Z3.000
G1 X-41.000 Y25.386 Z-5.500
G2 X-39.678 Y26.500 Z-5.500 I2.437 J-1.550 K0.000
G1 X-41.000 Y26.500 Z-5.500
G1 X-41.000 Y25.386 Z-5.500
G1 X-41.000 Y25.386 Z-6.000
G2 X-39.678 Y26.500 Z-6.000 I2.437 J-1.550 K0.000
G1 X-41.000 Y26.500 Z-6.000
G1 X-41.000 Y25.386 Z-6.000
G0 Z5.000
G0 X-40.169 Y24.843 Z5.000
G0 X-40.169 Y24.843 Z3.000
G1 X-40.169 Y24.843 Z-6.000
G3 X-40.491 Y23.881 Z-6.000 I1.677 J-1.097 K0.000
G1 X-40.500 Y-23.750 Z-6.000
G3 X-38.631 Y-25.741 Z-6.000 I2.004 J0.008 K0.000
G1 X38.500 Y-25.750 Z-6.000
G3 X40.491 Y-23.881 Z-6.000 I-0.008 J2.004 K0.000
G1 X40.500 Y23.750 Z-6.000
G3 X38.631 Y25.741 Z-6.000 I-2.004 J-0.008 K0.000
G1 X-38.500 Y25.750 Z-6.000
G3 X-40.169 Y24.843 Z-6.000 I0.008 J-2.004 K0.000
G0 Z5.000
G0 X-42.000 Z5.000
G0 X-42.000 Z3.000
G1 X-42.000 Y24.843 Z-6.000
G1 X-42.000 Y-27.434 Z-6.000
G3 X-41.934 Y-27.500 Z-6.000 I0.042 J-0.024 K0.000
G1 X41.934 Y-27.500 Z-6.000
G3 X42.000 Y-27.434 Z-6.000 I0.024 J0.042 K0.000
G1 X42.000 Y27.434 Z-6.000
G3 X41.934 Y27.500 Z-6.000 I-0.042 J0.024 K0.000
G1 X-41.934 Y27.500 Z-6.000
G3 X-42.000 Y27.434 Z-6.000 I-0.024 J-0.042 K0.000
G1 X-42.000 Y24.843 Z-6.000
G0 Z5.000
G0 X-41.000 Y-25.386 Z5.000
G0 X-41.000 Y-25.386 Z3.000
G1 X-41.000 Y-25.386 Z-6.000
G1 X-41.000 Y-26.500 Z-6.000
G1 X-39.678 Y-26.500 Z-6.000
G2 X-41.000 Y-25.386 Z-6.000 I1.115 J2.664 K0.000
G0 Z5.000
G0 X39.678 Y-26.500 Z5.000
G0 X39.678 Y-26.500 Z3.000
G1 X39.678 Y-26.500 Z-6.000
G1 X41.000 Y-26.500 Z-6.000
G1 X41.000 Y-25.386 Z-6.000
G2 X39.678 Y-26.500 Z-6.000 I-2.437 J1.550 K0.000
G0 Z5.000
G0 X41.000 Y25.386 Z5.000
G0 X41.000 Y25.386 Z3.000
G1 X41.000 Y25.386 Z-6.000
G1 X41.000 Y26.500 Z-6.000
G1 X39.678 Y26.500 Z-6.000
G2 X41.000 Y25.386 Z-6.000 I-1.115 J-2.664 K0.000
G1 X41.000 Y25.386 Z-6.500
G1 X41.000 Y26.500 Z-6.500
G1 X39.678 Y26.500 Z-6.500
G2 X41.000 Y25.386 Z-6.500 I-1.115 J-2.664 K0.000
G0 Z5.000
G0 X40.171 Y24.842 Z5.000
G0 X40.171 Y24.842 Z3.000
G1 X40.171 Y24.842 Z-6.500
G3 X38.631 Y25.741 Z-6.500 I-1.675 J-1.100 K0.000
G1 X-38.500 Y25.750 Z-6.500
G3 X-40.491 Y23.881 Z-6.500 I0.008 J-2.004 K0.000
G1 X-40.500 Y-23.750 Z-6.500
G3 X-38.631 Y-25.741 Z-6.500 I2.004 J0.008 K0.000
G1 X38.500 Y-25.750 Z-6.500
G3 X40.491 Y-23.881 Z-6.500 I-0.008 J2.004 K0.000
G1 X40.500 Y23.750 Z-6.500
G3 X40.171 Y24.842 Z-6.500 I-2.004 J-0.008 K0.000
G0 Z5.000
G0 X42.000 Z5.000
G0 X42.000 Z3.000
G1 X42.000 Y24.842 Z-6.500
G1 X42.000 Y27.434 Z-6.500
G3 X41.934 Y27.500 Z-6.500 I-0.042 J0.024 K0.000
G1 X-41.934 Y27.500 Z-6.500
G3 X-42.000 Y27.434 Z-6.500 I-0.024 J-0.042 K0.000
G1 X-42.000 Y-27.434 Z-6.500
G3 X-41.934 Y-27.500 Z-6.500 I0.042 J-0.024 K0.000
G1 X41.934 Y-27.500 Z-6.500
G3 X42.000 Y-27.434 Z-6.500 I0.024 J0.042 K0.000
G1 X42.000 Y24.842 Z-6.500
G0 Z5.000
G0 X41.000 Y-25.386 Z5.000
G0 X41.000 Y-25.386 Z3.000
G1 X41.000 Y-25.386 Z-6.500
G2 X39.678 Y-26.500 Z-6.500 I-2.437 J1.550 K0.000
G1 X41.000 Y-26.500 Z-6.500
G1 X41.000 Y-25.386 Z-6.500
G0 Z5.000
G0 X-39.678 Y-26.500 Z5.000
G0 X-39.678 Y-26.500 Z3.000
G1 X-39.678 Y-26.500 Z-6.500
G2 X-41.000 Y-25.386 Z-6.500 I1.115 J2.664 K0.000
G1 X-41.000 Y-26.500 Z-6.500
G1 X-39.678 Y-26.500 Z-6.500
G0 Z5.000
G0 X-41.000 Y25.386 Z5.000
G0 X-41.000 Y25.386 Z3.000
G1 X-41.000 Y25.386 Z-6.500
G2 X-39.678 Y26.500 Z-6.500 I2.437 J-1.550 K0.000
G1 X-41.000 Y26.500 Z-6.500
G1 X-41.000 Y25.386 Z-6.500
G1 X-41.000 Y25.386 Z-7.000
G2 X-39.678 Y26.500 Z-7.000 I2.437 J-1.550 K0.000
G1 X-41.000 Y26.500 Z-7.000
G1 X-41.000 Y25.386 Z-7.000
G0 Z5.000
G0 X-40.169 Y24.843 Z5.000
G0 X-40.169 Y24.843 Z3.000
G1 X-40.169 Y24.843 Z-7.000
G3 X-40.491 Y23.881 Z-7.000 I1.677 J-1.097 K0.000
G1 X-40.500 Y-23.750 Z-7.000
G3 X-38.631 Y-25.741 Z-7.000 I2.004 J0.008 K0.000
G1 X38.500 Y-25.750 Z-7.000
G3 X40.491 Y-23.881 Z-7.000 I-0.008 J2.004 K0.000
G1 X40.500 Y23.750 Z-7.000
G3 X38.631 Y25.741 Z-7.000 I-2.004 J-0.008 K0.000
G1 X-38.500 Y25.750 Z-7.000
G3 X-40.169 Y24.843 Z-7.000 I0.008 J-2.004 K0.000
G0 Z5.000
G0 X-42.000 Z5.000
G0 X-42.000 Z3.000
G1 X-42.000 Y24.843 Z-7.000
G1 X-42.000 Y-27.434 Z-7.000
G3 X-41.934 Y-27.500 Z-7.000 I0.042 J-0.024 K0.000
G1 X41.934 Y-27.500 Z-7.000
G3 X42.000 Y-27.434 Z-7.000 I0.024 J0.042 K0.000
G1 X42.000 Y27.434 Z-7.000
G3 X41.934 Y27.500 Z-7.000 I-0.042 J0.024 K0.000
G1 X-41.934 Y27.500 Z-7.000
G3 X-42.000 Y27.434 Z-7.000 I-0.024 J-0.042 K0.000
G1 X-42.000 Y24.843 Z-7.000
G0 Z5.000
G0 X-41.000 Y-25.386 Z5.000
G0 X-41.000 Y-25.386 Z3.000
G1 X-41.000 Y-25.386 Z-7.000
G1 X-41.000 Y-26.500 Z-7.000
G1 X-39.678 Y-26.500 Z-7.000
G2 X-41.000 Y-25.386 Z-7.000 I1.115 J2.664 K0.000
G0 Z5.000
G0 X39.678 Y-26.500 Z5.000
G0 X39.678 Y-26.500 Z3.000
G1 X39.678 Y-26.500 Z-7.000
G1 X41.000 Y-26.500 Z-7.000
G1 X41.000 Y-25.386 Z-7.000
G2 X39.678 Y-26.500 Z-7.000 I-2.437 J1.550 K0.000
G0 Z5.000
G0 X41.000 Y25.386 Z5.000
G0 X41.000 Y25.386 Z3.000
G1 X41.000 Y25.386 Z-7.000
G1 X41.000 Y26.500 Z-7.000
G1 X39.678 Y26.500 Z-7.000
G2 X41.000 Y25.386 Z-7.000 I-1.115 J-2.664 K0.000
G1 X41.000 Y25.386 Z-7.500
G1 X41.000 Y26.500 Z-7.500
G1 X39.678 Y26.500 Z-7.500
G2 X41.000 Y25.386 Z-7.500 I-1.115 J-2.664 K0.000
G0 Z5.000
G0 X40.171 Y24.842 Z5.000
G0 X40.171 Y24.842 Z3.000
G1 X40.171 Y24.842 Z-7.500
G3 X38.631 Y25.741 Z-7.500 I-1.675 J-1.100 K0.000
G1 X-38.500 Y25.750 Z-7.500
G3 X-40.491 Y23.881 Z-7.500 I0.008 J-2.004 K0.000
G1 X-40.500 Y-23.750 Z-7.500
G3 X-38.631 Y-25.741 Z-7.500 I2.004 J0.008 K0.000
G1 X38.500 Y-25.750 Z-7.500
G3 X40.491 Y-23.881 Z-7.500 I-0.008 J2.004 K0.000
G1 X40.500 Y23.750 Z-7.500
G3 X40.171 Y24.842 Z-7.500 I-2.004 J-0.008 K0.000
G0 Z5.000
G0 X42.000 Z5.000
G0 X42.000 Z3.000
G1 X42.000 Y24.842 Z-7.500
G1 X42.000 Y27.434 Z-7.500
G3 X41.934 Y27.500 Z-7.500 I-0.042 J0.024 K0.000
G1 X-41.934 Y27.500 Z-7.500
G3 X-42.000 Y27.434 Z-7.500 I-0.024 J-0.042 K0.000
G1 X-42.000 Y-27.434 Z-7.500
G3 X-41.934 Y-27.500 Z-7.500 I0.042 J-0.024 K0.000
G1 X41.934 Y-27.500 Z-7.500
G3 X42.000 Y-27.434 Z-7.500 I0.024 J0.042 K0.000
G1 X42.000 Y24.842 Z-7.500
G0 Z5.000
G0 X41.000 Y-25.386 Z5.000
G0 X41.000 Y-25.386 Z3.000
G1 X41.000 Y-25.386 Z-7.500
G2 X39.678 Y-26.500 Z-7.500 I-2.437 J1.550 K0.000
G1 X41.000 Y-26.500 Z-7.500
G1 X41.000 Y-25.386 Z-7.500
G0 Z5.000
G0 X-39.678 Y-26.500 Z5.000
G0 X-39.678 Y-26.500 Z3.000
G1 X-39.678 Y-26.500 Z-7.500
G2 X-41.000 Y-25.386 Z-7.500 I1.115 J2.664 K0.000
G1 X-41.000 Y-26.500 Z-7.500
G1 X-39.678 Y-26.500 Z-7.500
G0 Z5.000
G0 X-41.000 Y25.386 Z5.000
G0 X-41.000 Y25.386 Z3.000
G1 X-41.000 Y25.386 Z-7.500
G2 X-39.678 Y26.500 Z-7.500 I2.437 J-1.550 K0.000
G1 X-41.000 Y26.500 Z-7.500
G1 X-41.000 Y25.386 Z-7.500
G1 X-41.000 Y25.386 Z-8.000
G2 X-39.678 Y26.500 Z-8.000 I2.437 J-1.550 K0.000
G1 X-41.000 Y26.500 Z-8.000
G1 X-41.000 Y25.386 Z-8.000
G0 Z5.000
G0 X-40.169 Y24.843 Z5.000
G0 X-40.169 Y24.843 Z3.000
G1 X-40.169 Y24.843 Z-8.000
G3 X-40.491 Y23.881 Z-8.000 I1.677 J-1.097 K0.000
G1 X-40.500 Y-23.750 Z-8.000
G3 X-38.631 Y-25.741 Z-8.000 I2.004 J0.008 K0.000
G1 X38.500 Y-25.750 Z-8.000
G3 X40.491 Y-23.881 Z-8.000 I-0.008 J2.004 K0.000
G1 X40.500 Y23.750 Z-8.000
G3 X38.631 Y25.741 Z-8.000 I-2.004 J-0.008 K0.000
G1 X-38.500 Y25.750 Z-8.000
G3 X-40.169 Y24.843 Z-8.000 I0.008 J-2.004 K0.000
G0 Z5.000
G0 X-42.000 Z5.000
G0 X-42.000 Z3.000
G1 X-42.000 Y24.843 Z-8.000
G1 X-42.000 Y-27.434 Z-8.000
G3 X-41.934 Y-27.500 Z-8.000 I0.042 J-0.024 K0.000
G1 X41.934 Y-27.500 Z-8.000
G3 X42.000 Y-27.434 Z-8.000 I0.024 J0.042 K0.000
G1 X42.000 Y27.434 Z-8.000
G3 X41.934 Y27.500 Z-8.000 I-0.042 J0.024 K0.000
G1 X-41.934 Y27.500 Z-8.000
G3 X-42.000 Y27.434 Z-8.000 I-0.024 J-0.042 K0.000
G1 X-42.000 Y24.843 Z-8.000
G0 Z5.000
G0 X-41.000 Y-25.386 Z5.000
G0 X-41.000 Y-25.386 Z3.000
G1 X-41.000 Y-25.386 Z-8.000
G1 X-41.000 Y-26.500 Z-8.000
G1 X-39.678 Y-26.500 Z-8.000
G2 X-41.000 Y-25.386 Z-8.000 I1.115 J2.664 K0.000
G0 Z5.000
G0 X39.678 Y-26.500 Z5.000
G0 X39.678 Y-26.500 Z3.000
G1 X39.678 Y-26.500 Z-8.000
G1 X41.000 Y-26.500 Z-8.000
G1 X41.000 Y-25.386 Z-8.000
G2 X39.678 Y-26.500 Z-8.000 I-2.437 J1.550 K0.000
G0 Z5.000
G0 X41.000 Y25.386 Z5.000
G0 X41.000 Y25.386 Z3.000
G1 X41.000 Y25.386 Z-8.000
G1 X41.000 Y26.500 Z-8.000
G1 X39.678 Y26.500 Z-8.000
G2 X41.000 Y25.386 Z-8.000 I-1.115 J-2.664 K0.000
G1 X41.000 Y25.386 Z-8.500
G1 X41.000 Y26.500 Z-8.500
G1 X39.678 Y26.500 Z-8.500
G2 X41.000 Y25.386 Z-8.500 I-1.115 J-2.664 K0.000
G0 Z5.000
G0 X40.171 Y24.842 Z5.000
G0 X40.171 Y24.842 Z3.000
G1 X40.171 Y24.842 Z-8.500
G3 X38.631 Y25.741 Z-8.500 I-1.675 J-1.100 K0.000
G1 X-38.500 Y25.750 Z-8.500
G3 X-40.491 Y23.881 Z-8.500 I0.008 J-2.004 K0.000
G1 X-40.500 Y-23.750 Z-8.500
G3 X-38.631 Y-25.741 Z-8.500 I2.004 J0.008 K0.000
G1 X38.500 Y-25.750 Z-8.500
G3 X40.491 Y-23.881 Z-8.500 I-0.008 J2.004 K0.000
G1 X40.500 Y23.750 Z-8.500
G3 X40.171 Y24.842 Z-8.500 I-2.004 J-0.008 K0.000
G0 Z5.000
G0 X42.000 Z5.000
G0 X42.000 Z3.000
G1 X42.000 Y24.842 Z-8.500
G1 X42.000 Y27.434 Z-8.500
G3 X41.934 Y27.500 Z-8.500 I-0.042 J0.024 K0.000
G1 X-41.934 Y27.500 Z-8.500
G3 X-42.000 Y27.434 Z-8.500 I-0.024 J-0.042 K0.000
G1 X-42.000 Y-27.434 Z-8.500
G3 X-41.934 Y-27.500 Z-8.500 I0.042 J-0.024 K0.000
G1 X41.934 Y-27.500 Z-8.500
G3 X42.000 Y-27.434 Z-8.500 I0.024 J0.042 K0.000
G1 X42.000 Y24.842 Z-8.500
G0 Z5.000
G0 X41.000 Y-25.386 Z5.000
G0 X41.000 Y-25.386 Z3.000
G1 X41.000 Y-25.386 Z-8.500
G2 X39.678 Y-26.500 Z-8.500 I-2.437 J1.550 K0.000
G1 X41.000 Y-26.500 Z-8.500
G1 X41.000 Y-25.386 Z-8.500
G0 Z5.000
G0 X-39.678 Y-26.500 Z5.000
G0 X-39.678 Y-26.500 Z3.000
G1 X-39.678 Y-26.500 Z-8.500
G2 X-41.000 Y-25.386 Z-8.500 I1.115 J2.664 K0.000
G1 X-41.000 Y-26.500 Z-8.500
G1 X-39.678 Y-26.500 Z-8.500
G0 Z5.000
G0 X-41.000 Y25.386 Z5.000
G0 X-41.000 Y25.386 Z3.000
G1 X-41.000 Y25.386 Z-8.500
G2 X-39.678 Y26.500 Z-8.500 I2.437 J-1.550 K0.000
G1 X-41.000 Y26.500 Z-8.500
G1 X-41.000 Y25.386 Z-8.500
G1 X-41.000 Y25.386 Z-9.000
G2 X-39.678 Y26.500 Z-9.000 I2.437 J-1.550 K0.000
G1 X-41.000 Y26.500 Z-9.000
G1 X-41.000 Y25.386 Z-9.000
G0 Z5.000
G0 X-40.169 Y24.843 Z5.000
G0 X-40.169 Y24.843 Z3.000
G1 X-40.169 Y24.843 Z-9.000
G3 X-40.491 Y23.881 Z-9.000 I1.677 J-1.097 K0.000
G1 X-40.500 Y-23.750 Z-9.000
G3 X-38.631 Y-25.741 Z-9.000 I2.004 J0.008 K0.000
G1 X38.500 Y-25.750 Z-9.000
G3 X40.491 Y-23.881 Z-9.000 I-0.008 J2.004 K0.000
G1 X40.500 Y23.750 Z-9.000
G3 X38.631 Y25.741 Z-9.000 I-2.004 J-0.008 K0.000
G1 X-38.500 Y25.750 Z-9.000
G3 X-40.169 Y24.843 Z-9.000 I0.008 J-2.004 K0.000
G0 Z5.000
G0 X-42.000 Z5.000
G0 X-42.000 Z3.000
G1 X-42.000 Y24.843 Z-9.000
G1 X-42.000 Y-27.434 Z-9.000
G3 X-41.934 Y-27.500 Z-9.000 I0.042 J-0.024 K0.000
G1 X41.934 Y-27.500 Z-9.000
G3 X42.000 Y-27.434 Z-9.000 I0.024 J0.042 K0.000
G1 X42.000 Y27.434 Z-9.000
G3 X41.934 Y27.500 Z-9.000 I-0.042 J0.024 K0.000
G1 X-41.934 Y27.500 Z-9.000
G3 X-42.000 Y27.434 Z-9.000 I-0.024 J-0.042 K0.000
G1 X-42.000 Y24.843 Z-9.000
G0 Z5.000
G0 X-41.000 Y-25.386 Z5.000
G0 X-41.000 Y-25.386 Z3.000
G1 X-41.000 Y-25.386 Z-9.000
G1 X-41.000 Y-26.500 Z-9.000
G1 X-39.678 Y-26.500 Z-9.000
G2 X-41.000 Y-25.386 Z-9.000 I1.115 J2.664 K0.000
G0 Z5.000
G0 X39.678 Y-26.500 Z5.000
G0 X39.678 Y-26.500 Z3.000
G1 X39.678 Y-26.500 Z-9.000
G1 X41.000 Y-26.500 Z-9.000
G1 X41.000 Y-25.386 Z-9.000
G2 X39.678 Y-26.500 Z-9.000 I-2.437 J1.550 K0.000
G0 Z5.000
G0 X41.000 Y25.386 Z5.000
G0 X41.000 Y25.386 Z3.000
G1 X41.000 Y25.386 Z-9.000
G1 X41.000 Y26.500 Z-9.000
G1 X39.678 Y26.500 Z-9.000
G2 X41.000 Y25.386 Z-9.000 I-1.115 J-2.664 K0.000
G0 Z5.000
G0 Z5.000
(Finish operation: Pocket_Shape)
(Begin postamble)
M5
G17 G90
M2
