; generated by PrusaSlicer 2.7.4 on 2024-05-04 at 22:04:53 UTC

; 

; external perimeters extrusion width = 0.42mm
; perimeters extrusion width = 0.44mm
; infill extrusion width = 0.44mm
; solid infill extrusion width = 0.44mm
; top infill extrusion width = 0.40mm
; support material extrusion width = 0.36mm
; first layer extrusion width = 0.42mm

; external perimeters extrusion width = 0.42mm
; perimeters extrusion width = 0.44mm
; infill extrusion width = 0.44mm
; solid infill extrusion width = 0.44mm
; top infill extrusion width = 0.40mm
; support material extrusion width = 0.36mm
; first layer extrusion width = 0.42mm

M201 X500 Y500 Z100 E5000 ; sets maximum accelerations, mm/sec^2
M203 X500 Y500 Z10 E60 ; sets maximum feedrates, mm / sec
M204 S500 T1000 ; sets acceleration (S) and retract acceleration (R), mm/sec^2
M205 X8.00 Y8.00 Z0.40 E5.00 ; sets the jerk limits, mm/sec
M205 S0 T0 ; sets the minimum extruding and travel feed rate, mm/sec

; printing object Left-Part.stl id:0 copy 0
; stop printing object Left-Part.stl id:0 copy 0
; printing object Left_copart-Part.stl id:1 copy 0
; stop printing object Left_copart-Part.stl id:1 copy 0

;TYPE:Custom
G90 ; use absolute coordinates
M83 ; extruder relative mode
M104 S150 ; set temporary nozzle temp to prevent oozing during homing
M140 S90 ; set final bed temp
G4 S30 ; allow partial nozzle warmup
G28 ; home all axis
G1 Z50 F240
G1 X2.0 Y10 F3000
M104 S240 ; set final nozzle temp
M190 S90 ; wait for bed temp to stabilize
M109 S240 ; wait for nozzle temp to stabilize
G1 Z0.28 F240
G92 E0
G1 X2.0 Y140 E10 F1500 ; prime the nozzle
G1 X2.3 Y140 F5000
G92 E0
G1 X2.3 Y10 E10 F1200 ; prime the nozzle
G92 E0
G21 ; set units to millimeters
G90 ; use absolute coordinates
M83 ; use relative distances for extrusion
; Filament gcode
M107
;LAYER_CHANGE
;Z:0.2
;HEIGHT:0.2
G1 E-5 F3600
G1 Z.2 F9000
G1 X91.894 Y78.3
G1 Z.2
G1 E5 F2400
M204 S500
;TYPE:Skirt/Brim
;WIDTH:0.42
G1 F1200
G1 X94.571 Y75.623 E.1187
G1 X96.213 Y74.541 E.06166
G1 X98.025 Y74.192 E.05786
G1 X131.975 Y74.192 E1.06448
G1 X133.901 Y74.588 E.06165
G1 X135.429 Y75.623 E.05787
G1 X138.106 Y78.3 E.1187
G1 X139.189 Y79.942 E.06167
G1 X139.537 Y81.754 E.05785
G1 X139.537 Y149.246 E2.11616
G1 X139.141 Y151.172 E.06165
G1 X138.106 Y152.7 E.05787
G1 X135.429 Y155.377 E.1187
G1 X133.787 Y156.46 E.06167
G1 X131.975 Y156.808 E.05785
G1 X98.025 Y156.808 E1.06448
G1 X96.099 Y156.412 E.06165
G1 X94.571 Y155.377 E.05787
G1 X91.894 Y152.7 E.1187
G1 X90.811 Y151.058 E.06167
G1 X90.463 Y149.246 E.05785
G1 X90.463 Y81.754 E2.11616
G1 X90.859 Y79.828 E.06165
G1 X91.86 Y78.35 E.05597
G1 X91.86 Y78.35 F9000
G1 X92.16 Y78.567
G1 F1200
G1 X94.837 Y75.889 E.11872
G1 X96.423 Y74.863 E.05923
G1 X98.025 Y74.569 E.05107
G1 X131.975 Y74.569 E1.06448
G1 X133.821 Y74.965 E.0592
G1 X135.163 Y75.889 E.05109
G1 X137.84 Y78.567 E.11872
G1 X138.866 Y80.152 E.0592
G1 X139.16 Y81.754 E.05107
G1 X139.16 Y149.246 E2.11616
G1 X138.765 Y151.092 E.05919
G1 X137.84 Y152.433 E.05108
G1 X135.163 Y155.111 E.11872
G1 X133.577 Y156.137 E.05923
G1 X131.975 Y156.431 E.05107
G1 X98.025 Y156.431 E1.06448
G1 X96.179 Y156.035 E.0592
G1 X94.837 Y155.111 E.05109
G1 X92.16 Y152.433 E.11872
G1 X91.134 Y150.848 E.0592
G1 X90.84 Y149.246 E.05107
G1 X90.84 Y81.754 E2.11616
G1 X91.235 Y79.908 E.05919
G1 X92.126 Y78.616 E.04921
G1 X92.126 Y78.616 F9000
G1 X92.427 Y78.833
G1 F1200
G1 X95.104 Y76.156 E.1187
G1 X96.63 Y75.189 E.05664
G1 X98.025 Y74.946 E.0444
G1 X131.975 Y74.946 E1.06448
G1 X133.738 Y75.341 E.05665
G1 X134.896 Y76.156 E.0444
G1 X137.573 Y78.833 E.1187
G1 X138.54 Y80.359 E.05664
G1 X138.783 Y81.754 E.0444
G1 X138.783 Y149.246 E2.11616
G1 X138.388 Y151.009 E.05665
G1 X137.573 Y152.167 E.0444
G1 X134.896 Y154.844 E.1187
G1 X133.37 Y155.811 E.05664
G1 X131.975 Y156.054 E.0444
G1 X98.025 Y156.054 E1.06448
G1 X96.262 Y155.659 E.05665
G1 X95.104 Y154.844 E.0444
G1 X92.427 Y152.167 E.1187
G1 X91.46 Y150.641 E.05664
G1 X91.217 Y149.246 E.0444
G1 X91.217 Y81.754 E2.11616
G1 X91.612 Y79.991 E.05665
G1 X92.392 Y78.882 E.04251
G1 X92.392 Y78.882 F9000
G1 X92.694 Y79.1
G1 F1200
G1 X95.371 Y76.423 E.1187
G1 X96.835 Y75.517 E.05398
G1 X98.025 Y75.323 E.0378
G1 X131.975 Y75.323 E1.06448
G1 X133.65 Y75.718 E.05396
G1 X134.629 Y76.423 E.03783
G1 X137.306 Y79.1 E.1187
G1 X138.212 Y80.564 E.05398
G1 X138.406 Y81.754 E.0378
G1 X138.406 Y149.246 E2.11616
G1 X138.011 Y150.921 E.05396
G1 X137.306 Y151.9 E.03783
G1 X134.629 Y154.577 E.1187
G1 X133.166 Y155.483 E.05395
G1 X131.975 Y155.677 E.03784
G1 X98.025 Y155.677 E1.06448
G1 X96.35 Y155.282 E.05396
G1 X95.371 Y154.577 E.03783
G1 X92.694 Y151.9 E.1187
G1 X91.788 Y150.436 E.05398
G1 X91.594 Y149.246 E.0378
G1 X91.594 Y81.754 E2.11616
G1 X91.989 Y80.079 E.05396
G1 X92.658 Y79.149 E.03592
G1 X92.658 Y79.149 F9000
G1 X92.958 Y79.37
G1 F1200
G1 X92.96 Y79.366 E.00014
G1 X95.637 Y76.689 E.1187
G1 X97.035 Y75.849 E.05114
G1 X98.025 Y75.7 E.03139
G1 X131.975 Y75.7 E1.06448
G1 X133.558 Y76.094 E.05115
G1 X134.363 Y76.689 E.03139
G1 X137.04 Y79.366 E.1187
G1 X137.881 Y80.765 E.05118
G1 X138.029 Y81.754 E.03135
G1 X138.029 Y149.246 E2.11616
G1 X137.635 Y150.829 E.05115
G1 X137.04 Y151.634 E.03139
G1 X134.363 Y154.311 E.1187
G1 X132.965 Y155.151 E.05114
G1 X131.975 Y155.3 E.03139
G1 X98.025 Y155.3 E1.06448
G1 X96.442 Y154.906 E.05115
G1 X95.637 Y154.311 E.03139
G1 X92.96 Y151.634 E.1187
G1 X92.119 Y150.235 E.05118
G1 X91.971 Y149.246 E.03135
G1 X91.971 Y81.754 E2.11616
G1 X92.365 Y80.171 E.05115
G1 X92.922 Y79.418 E.02937
G1 E-3.5 F3600
;WIPE_START
G1 F7200
G1 X92.958 Y79.37 E-.0285
G1 X92.96 Y79.366 E-.00212
G1 X95.148 Y77.179 E-1.46938
;WIPE_END
; printing object Left-Part.stl id:0 copy 0
G1 X131.975 Y80.416 F9000
G1 E5 F2400
;TYPE:Support material
G1 F1200
G1 X133.313 Y80.416 E.04195
G1 X133.313 Y81.754 E.04195
G1 X134.652 Y81.754 E.04198
G1 X134.652 Y149.246 E2.11616
G1 X133.313 Y149.246 E.04198
G1 X133.313 Y150.584 E.04195
G1 X131.975 Y150.584 E.04195
G1 X131.975 Y151.923 E.04198
G1 X116.687 Y151.923 E.47934
G1 X116.687 Y141.337 E.33192
G1 X118.538 Y141.337 E.05804
G1 X118.538 Y143.691 E.07381
G1 X118.809 Y143.962 E.01202
G1 X126.1 Y143.957 E.2286
G1 X126.448 Y143.851 E.01141
G1 X126.717 Y143.642 E.01068
G1 X126.904 Y143.329 E.01143
G1 X126.962 Y143.003 E.01038
G1 X126.951 Y87.853 E1.72919
G1 X126.85 Y87.55 E.01001
G1 X126.65 Y87.291 E.01026
G1 X126.1 Y87.043 E.01892
G1 X118.809 Y87.038 E.2286
G1 X118.538 Y87.309 E.01202
G1 X118.538 Y89.663 E.07381
G1 X116.687 Y89.663 E.05804
G1 X116.687 Y79.077 E.33192
G1 X131.975 Y79.077 E.47934
G1 X131.975 Y80.359 E.0402
G1 X131.975 Y80.359 F9000
G1 X134.217 Y149.076
G1 F1200
G1 X134.217 Y82.094 E2.10017
G1 X133.799 Y82.094 E.01311
G1 X133.799 Y148.906 E2.09484
G1 X133.38 Y148.906 E.01314
G1 X133.38 Y82.094 E2.09484
G1 X132.974 Y82.094 E.01273
G1 X132.961 Y80.755 E.04199
G1 X132.961 Y150.245 E2.17881
G1 X132.542 Y150.245 E.01314
G1 X132.542 Y80.755 E2.17881
G1 X132.123 Y80.755 E.01314
G1 X132.123 Y150.245 E2.17881
G1 X131.704 Y150.245 E.01314
G1 X131.704 Y80.755 E2.17881
G1 X131.635 Y80.755 E.00216
G1 X131.635 Y79.417 E.04195
G1 X131.285 Y79.417 E.01097
G1 X131.285 Y151.583 E2.26271
G1 X130.866 Y151.583 E.01314
G1 X130.866 Y79.417 E2.26271
G1 X130.447 Y79.417 E.01314
G1 X130.447 Y151.583 E2.26271
G1 X130.028 Y151.583 E.01314
G1 X130.028 Y79.417 E2.26271
G1 X129.609 Y79.417 E.01314
G1 X129.609 Y151.583 E2.26271
G1 X129.19 Y151.583 E.01314
G1 X129.19 Y79.417 E2.26271
G1 X128.771 Y79.417 E.01314
G1 X128.771 Y151.583 E2.26271
G1 X128.352 Y151.583 E.01314
G1 X128.352 Y79.417 E2.26271
G1 X127.933 Y79.417 E.01314
G1 X127.933 Y151.583 E2.26271
G1 X127.514 Y151.583 E.01314
G1 X127.514 Y79.417 E2.26271
G1 X127.095 Y79.417 E.01314
G1 X127.095 Y87.297 E.24707
G1 X126.676 Y86.888 E.01836
G1 X126.676 Y79.417 E.23425
G1 X126.257 Y79.417 E.01314
G1 X126.257 Y86.724 E.22911
G1 X125.838 Y86.699 E.01316
G1 X125.838 Y79.417 E.22832
G1 X125.419 Y79.417 E.01314
G1 X125.419 Y86.699 E.22832
G1 X125 Y86.699 E.01314
G1 X125 Y79.417 E.22832
G1 X124.581 Y79.417 E.01314
G1 X124.581 Y86.699 E.22832
G1 X124.162 Y86.699 E.01314
G1 X124.162 Y79.417 E.22832
G1 X123.743 Y79.417 E.01314
G1 X123.743 Y86.699 E.22832
G1 X123.324 Y86.699 E.01314
G1 X123.324 Y79.417 E.22832
G1 X122.905 Y79.417 E.01314
G1 X122.905 Y86.699 E.22832
G1 X122.486 Y86.699 E.01314
G1 X122.486 Y79.417 E.22832
G1 X122.067 Y79.417 E.01314
G1 X122.067 Y86.699 E.22832
G1 X121.648 Y86.699 E.01314
G1 X121.648 Y79.417 E.22832
G1 X121.229 Y79.417 E.01314
G1 X121.229 Y86.699 E.22832
G1 X120.81 Y86.699 E.01314
G1 X120.81 Y79.417 E.22832
G1 X120.391 Y79.417 E.01314
G1 X120.391 Y86.699 E.22832
G1 X119.972 Y86.699 E.01314
G1 X119.972 Y79.417 E.22832
G1 X119.553 Y79.417 E.01314
G1 X119.553 Y86.699 E.22832
G1 X119.134 Y86.699 E.01314
G1 X119.134 Y79.417 E.22832
G1 X118.715 Y79.417 E.01314
G1 X118.715 Y86.699 E.22832
G1 X118.296 Y87.07 E.01755
G1 X118.296 Y79.417 E.23995
G1 X117.877 Y79.417 E.01314
G1 X117.877 Y89.324 E.31063
G1 X117.458 Y89.324 E.01314
G1 X117.458 Y79.417 E.31063
G1 X117.039 Y79.417 E.01314
G1 X117.039 Y89.493 E.31593
G1 E-3.5 F3600
;WIPE_START
G1 F7200
G1 X117.039 Y86.335 E-1.5
;WIPE_END
G1 X127.095 Y151.753 F9000
G1 E5 F2400
G1 F1200
G1 X127.095 Y143.703 E.2524
G1 X126.676 Y144.112 E.01836
G1 X126.676 Y151.583 E.23425
G1 X126.257 Y151.583 E.01314
G1 X126.257 Y144.276 E.22911
G1 X125.838 Y144.301 E.01316
G1 X125.838 Y151.583 E.22832
G1 X125.419 Y151.583 E.01314
G1 X125.419 Y144.301 E.22832
G1 X125 Y144.301 E.01314
G1 X125 Y151.583 E.22832
G1 X124.581 Y151.583 E.01314
G1 X124.581 Y144.301 E.22832
G1 X124.162 Y144.301 E.01314
G1 X124.162 Y151.583 E.22832
G1 X123.743 Y151.583 E.01314
G1 X123.743 Y144.301 E.22832
G1 X123.324 Y144.301 E.01314
G1 X123.324 Y151.583 E.22832
G1 X122.905 Y151.583 E.01314
G1 X122.905 Y144.301 E.22832
G1 X122.486 Y144.301 E.01314
G1 X122.486 Y151.583 E.22832
G1 X122.067 Y151.583 E.01314
G1 X122.067 Y144.301 E.22832
G1 X121.648 Y144.301 E.01314
G1 X121.648 Y151.583 E.22832
G1 X121.229 Y151.583 E.01314
G1 X121.229 Y144.301 E.22832
G1 X120.81 Y144.301 E.01314
G1 X120.81 Y151.583 E.22832
G1 X120.391 Y151.583 E.01314
G1 X120.391 Y144.301 E.22832
G1 X119.972 Y144.301 E.01314
G1 X119.972 Y151.583 E.22832
G1 X119.553 Y151.583 E.01314
G1 X119.553 Y144.301 E.22832
G1 X119.134 Y144.301 E.01314
G1 X119.134 Y151.583 E.22832
G1 X118.715 Y151.583 E.01314
G1 X118.715 Y144.301 E.22832
G1 X118.296 Y143.93 E.01755
G1 X118.296 Y151.583 E.23995
G1 X117.877 Y151.583 E.01314
G1 X117.877 Y141.676 E.31063
G1 X117.458 Y141.676 E.01314
G1 X117.458 Y151.583 E.31063
G1 X117.039 Y151.583 E.01314
G1 X117.039 Y141.507 E.31593
G1 E-3.5 F3600
;WIPE_START
G1 F7200
G1 X117.039 Y144.665 E-1.5
;WIPE_END
G1 X120.92 Y142.868 F9000
G1 E5 F2400
;TYPE:Perimeter
;WIDTH:0.419999
G1 F1200
G1 X120.403 Y142.818 E.01629
G1 X119.687 Y142.815 E.02245
G1 X119.687 Y140.884 E.06055
G1 X120.5 Y142.278 E.0506
G1 X120.886 Y142.819 E.02084
G1 X120.886 Y142.819 F9000
G1 X120.125 Y142.359
;WIDTH:0.486478
G1 F1200
G1 X120.07 Y142.359 E.00203
G1 X120.042 Y142.407 E.00205
G1 X120.07 Y142.455 E.00205
G1 X120.125 Y142.455 E.00203
G1 X120.153 Y142.407 E.00205
G1 E-3.5 F3600
;WIPE_START
G1 F7200
G1 X120.125 Y142.455 E-.0264
G1 X120.07 Y142.455 E-.02612
G1 X120.042 Y142.407 E-.0264
G1 X120.07 Y142.359 E-.0264
G1 X120.125 Y142.359 E-.02612
;WIPE_END
G1 E-1.36856 F3600
G1 X125.146 Y142.821 F9000
G1 E5 F2400
;WIDTH:0.471769
G1 F1200
G1 X125.536 Y142.272 E.02401
G1 X125.798 Y141.82 E.01863
G1 X125.789 Y142.794 E.03473
G1 X125.206 Y142.818 E.02081
G1 E-3.5 F3600
;WIPE_START
G1 F7200
G1 X125.146 Y142.821 E-.02854
G1 X125.536 Y142.272 E-.31988
G1 X125.798 Y141.82 E-.24816
G1 X125.789 Y142.794 E-.46267
G1 X125.206 Y142.818 E-.27716
;WIPE_END
G1 E-.16359 F3600
G1 X125.436 Y137.341 F9000
G1 E5 F2400
;WIDTH:0.419999
G1 F1200
G1 X125.33 Y137.157 E.00666
G1 X124.916 Y136.776 E.01764
G1 X124.513 Y136.686 E.01295
G1 X121.487 Y136.686 E.09488
G1 X121.038 Y136.8 E.01452
G1 X120.67 Y137.157 E.01608
G1 X120.064 Y138.207 E.03801
G1 X120.064 Y92.793 E1.42392
G1 X120.67 Y93.843 E.03801
G1 X121.038 Y94.2 E.01608
G1 X121.487 Y94.314 E.01452
G1 X124.375 Y94.314 E.09055
G1 X124.917 Y94.224 E.01723
G1 X125.331 Y93.841 E.01768
G1 X125.436 Y93.658 E.00662
G1 X125.436 Y96.436 E.0871
G1 X122.529 Y96.436 E.09115
G1 X122.366 Y96.45 E.00513
G1 X122.069 Y96.555 E.00988
G1 X121.712 Y96.908 E.01574
G1 X121.586 Y97.379 E.01529
G1 X121.586 Y133.621 E1.13634
G1 X121.6 Y133.784 E.00513
G1 X121.712 Y134.092 E.01028
G1 X122.005 Y134.406 E.01347
G1 X122.529 Y134.564 E.01716
G1 X125.436 Y134.564 E.09115
G1 X125.436 Y137.281 E.08519
G1 X124.925 Y137.274 F9000
G1 F1200
G1 X124.755 Y137.117 E.00726
G1 X124.513 Y137.063 E.00777
G1 X121.487 Y137.063 E.09488
G1 X121.217 Y137.131 E.00873
G1 X120.997 Y137.346 E.00964
G1 X119.687 Y139.614 E.08212
G1 X119.687 Y91.386 E1.51215
G1 X120.997 Y93.654 E.08212
G1 X121.217 Y93.869 E.00964
G1 X121.487 Y93.937 E.00873
G1 X124.375 Y93.937 E.09055
G1 X124.755 Y93.883 E.01203
G1 X125.004 Y93.653 E.01063
G1 X125.827 Y92.203 E.05228
G1 X125.813 Y97.154 E.15524
G1 X125.471 Y96.813 E.01514
G1 X122.529 Y96.813 E.09224
G1 X122.253 Y96.885 E.00894
G1 X122.038 Y97.096 E.00945
G1 X121.963 Y97.379 E.00918
G1 X121.963 Y133.621 E1.13634
G1 X122.038 Y133.904 E.00918
G1 X122.215 Y134.092 E.0081
G1 X122.529 Y134.187 E.01029
G1 X125.471 Y134.187 E.09224
G1 X125.813 Y133.9 E.014
G1 X125.826 Y138.807 E.15386
G1 X125.003 Y137.346 E.05258
G1 X124.969 Y137.314 E.00146
G1 E-3.5 F3600
;WIPE_START
G1 F7200
G1 X124.925 Y137.274 E-.02825
G1 X124.755 Y137.117 E-.10992
G1 X124.513 Y137.063 E-.11778
G1 X121.894 Y137.063 E-1.24405
;WIPE_END
G1 X125.471 Y133.81 F9000
G1 E5 F2400
;TYPE:External perimeter
G1 F1200
G1 X122.529 Y133.81 E.09224
G1 X122.424 Y133.778 E.00344
G1 X122.343 Y133.654 E.00464
G1 X122.34 Y133.621 E.00104
G1 X122.34 Y97.379 E1.13634
G1 X122.365 Y97.284 E.00308
G1 X122.496 Y97.193 E.005
G1 X122.529 Y97.19 E.00104
G1 X125.471 Y97.19 E.09224
;WIDTH:0.458233
G1 X125.585 Y97.284 E.0051
;WIDTH:0.496467
G1 X125.698 Y97.379 E.00557
G1 X125.698 Y133.621 E1.36678
;WIDTH:0.499966
G1 X125.697 Y133.661 E.00152
G1 X125.584 Y133.735 E.00513
;WIDTH:0.459983
G1 X125.521 Y133.777 E.00263
G1 E-3.5 F3600
;WIPE_START
G1 F7200
G1 X125.471 Y133.81 E-.02846
G1 X122.529 Y133.81 E-1.39745
G1 X122.424 Y133.778 E-.05214
G1 X122.399 Y133.739 E-.02195
;WIPE_END
G1 X125.798 Y89.18 F9000
G1 E5 F2400
;TYPE:Perimeter
;WIDTH:0.471626
G1 F1200
G1 X125.166 Y88.18 E.04217
G1 X125.789 Y88.205 E.02223
G1 X125.798 Y89.12 E.03262
G1 E-3.5 F3600
;WIPE_START
G1 F7200
G1 X125.798 Y89.18 E-.0285
G1 X125.166 Y88.18 E-.56191
G1 X125.789 Y88.205 E-.29616
G1 X125.798 Y89.12 E-.43465
;WIPE_END
G1 E-.17878 F3600
G1 X120.903 Y88.134 F9000
G1 E5 F2400
;WIDTH:0.419999
G1 F1200
G1 X120.613 Y88.558 E.01611
G1 X120.24 Y89.156 E.0221
G1 X119.687 Y90.114 E.03468
G1 X119.687 Y88.185 E.06048
G1 X120.403 Y88.182 E.02245
G1 X120.843 Y88.139 E.01386
G1 X120.843 Y88.139 F9000
G1 X120.129 Y88.548
;WIDTH:0.493776
G1 F1200
G1 X120.073 Y88.548 E.0021
G1 X120.045 Y88.597 E.00212
G1 X120.073 Y88.646 E.00212
G1 X120.129 Y88.646 E.0021
G1 X120.157 Y88.597 E.00212
G1 X120.157 Y88.597 F9000
G1 X121.4 Y88.114
;TYPE:External perimeter
;WIDTH:0.419999
G1 F1200
G1 X120.933 Y88.758 E.02494
G1 X120.567 Y89.345 E.02169
;WIDTH:0.440654
G1 X119.801 Y90.651 E.05007
;WIDTH:0.468689
G1 X119.76 Y90.75 E.00379
G1 X119.796 Y90.852 E.00383
;WIDTH:0.451608
G1 X121.323 Y93.466 E.10288
;WIDTH:0.419999
G1 X121.397 Y93.537 E.00322
G1 X121.487 Y93.56 E.00291
G1 X124.514 Y93.56 E.09491
G1 X124.677 Y93.465 E.00592
G1 X125.431 Y92.152 E.04747
G1 X125.597 Y91.814 E.01181
;WIDTH:0.468773
G1 X125.746 Y91.561 E.0104
;WIDTH:0.517546
G1 X125.895 Y91.307 E.01162
;WIDTH:0.566319
G1 X126.044 Y91.053 E.01282
;WIDTH:0.615092
G1 X126.192 Y90.799 E.01399
G1 X126.215 Y90.896 E.00474
;WIDTH:0.568786
G1 X126.238 Y90.993 E.00436
;WIDTH:0.522479
G1 X126.228 Y91.327 E.01332
;WIDTH:0.488319
G1 X126.217 Y91.662 E.01241
;WIDTH:0.454159
G1 X126.206 Y91.997 E.01146
;WIDTH:0.419999
G1 X126.19 Y96.471 E.14028
;WIDTH:0.458233
