(Exported by FreeCAD)
(Post Processor: grbl_post)
(Output Time:2024-05-26 18:40:08.166060)
(Begin preamble)
G17 G90
G21
(Begin operation: Fixture)
(Path: Fixture)
G54
(Finish operation: Fixture)
(Begin operation: 2mm Endmill001)
(Path: 2mm Endmill001)
(2mm Endmill001)
(Begin toolchange)
( M6 T2 )
M3 S1000
(Finish operation: 2mm Endmill001)
(Begin operation: Profile)
(Path: Profile)
(Profile)
(Compensated Tool Path. Diameter: 2.0)
G0 Z5.000
G0 X-45.473 Y-24.223
G0 Z3.000
G1 X-45.473 Y-24.223 Z-0.750 F50.000
G2 X-45.779 Y-25.462 Z-0.750 I-0.527 J-0.527 K0.000 F100.000
G2 X-46.712 Y-24.971 Z-0.750 I-0.221 J0.712 K0.000 F100.000
G2 X-46.221 Y-24.038 Z-0.750 I0.712 J0.221 K0.000 F100.000
G2 X-45.473 Y-24.223 Z-0.750 I0.221 J-0.712 K0.000 F100.000
G1 X-45.473 Y-24.223 Z-1.500 F50.000
G2 X-45.779 Y-25.462 Z-1.500 I-0.527 J-0.527 K0.000 F100.000
G2 X-46.712 Y-24.971 Z-1.500 I-0.221 J0.712 K0.000 F100.000
G2 X-46.221 Y-24.038 Z-1.500 I0.712 J0.221 K0.000 F100.000
G2 X-45.473 Y-24.223 Z-1.500 I0.221 J-0.712 K0.000 F100.000
G0 Z5.000
G0 Z5.000
G0 X-45.473 Y-24.223
G0 X-45.992 Y24.005
G0 X-45.992 Y24.005 Z3.000
G1 X-45.992 Y24.005 Z-0.750 F50.000
G2 X-46.221 Y25.462 Z-0.750 I-0.008 J0.745 K0.000 F100.000
G2 X-45.288 Y24.971 Z-0.750 I0.221 J-0.712 K0.000 F100.000
G2 X-45.779 Y24.038 Z-0.750 I-0.712 J-0.221 K0.000 F100.000
G2 X-45.992 Y24.005 Z-0.750 I-0.221 J0.712 K0.000 F100.000
G1 X-45.992 Y24.005 Z-1.500 F50.000
G2 X-46.221 Y25.462 Z-1.500 I-0.008 J0.745 K0.000 F100.000
G2 X-45.288 Y24.971 Z-1.500 I0.221 J-0.712 K0.000 F100.000
G2 X-45.779 Y24.038 Z-1.500 I-0.712 J-0.221 K0.000 F100.000
G2 X-45.992 Y24.005 Z-1.500 I-0.221 J0.712 K0.000 F100.000
G0 Z5.000
G0 Z5.000
G0 X-45.992 Y24.005
G0 X45.256 Y24.744
G0 X45.256 Y24.744 Z3.000
G1 X45.256 Y24.744 Z-0.750 F50.000
G2 X45.272 Y24.905 Z-0.750 I0.745 J0.006 K0.000 F100.000
G2 X46.742 Y24.682 Z-0.750 I0.729 J-0.154 K0.000 F100.000
G1 X46.714 Y24.538 Z-0.750 F100.000
G2 X45.256 Y24.744 Z-0.750 I-0.714 J0.212 K0.000 F100.000
G1 X45.256 Y24.744 Z-1.500 F50.000
G2 X45.272 Y24.905 Z-1.500 I0.745 J0.006 K0.000 F100.000
G2 X46.742 Y24.682 Z-1.500 I0.729 J-0.154 K0.000 F100.000
G1 X46.714 Y24.538 Z-1.500 F100.000
G2 X45.256 Y24.744 Z-1.500 I-0.714 J0.212 K0.000 F100.000
G0 Z5.000
G0 Z5.000
G0 X45.256 Y24.744
G0 X45.989 Y-24.005
G0 X45.989 Y-24.005 Z3.000
G1 X45.989 Y-24.005 Z-0.750 F50.000
G2 X46.081 Y-25.490 Z-0.750 I0.011 J-0.745 K0.000 F100.000
G2 X45.260 Y-24.828 Z-0.750 I-0.081 J0.740 K0.000 F100.000
G2 X45.925 Y-24.009 Z-0.750 I0.741 J0.078 K0.000 F100.000
G2 X45.989 Y-24.005 Z-0.750 I0.075 J-0.741 K0.000 F100.000
G1 X45.989 Y-24.005 Z-1.500 F50.000
G2 X46.081 Y-25.490 Z-1.500 I0.011 J-0.745 K0.000 F100.000
G2 X45.260 Y-24.828 Z-1.500 I-0.081 J0.740 K0.000 F100.000
G2 X45.925 Y-24.009 Z-1.500 I0.741 J0.078 K0.000 F100.000
G2 X45.989 Y-24.005 Z-1.500 I0.075 J-0.741 K0.000 F100.000
G0 Z5.000
G0 Z5.000
(Finish operation: Profile)
(Begin operation: Profile001)
(Path: Profile001)
(Profile001)
(Compensated Tool Path. Diameter: 2.0)
G0 Z5.000
G0 X-53.250 Y27.500
G0 Z3.000
G1 X-53.250 Y27.500 Z-0.750 F50.000
G2 X-49.071 Y31.747 Z-0.750 I4.252 J-0.004 K0.000 F100.000
G1 X49.000 Y31.750 Z-0.750 F100.000
G2 X53.247 Y27.571 Z-0.750 I-0.004 J-4.252 K0.000 F100.000
G1 X53.250 Y-27.500 Z-0.750 F100.000
G2 X49.071 Y-31.747 Z-0.750 I-4.252 J0.004 K0.000 F100.000
G1 X-49.000 Y-31.750 Z-0.750 F100.000
G2 X-53.247 Y-27.571 Z-0.750 I0.004 J4.252 K0.000 F100.000
G1 X-53.250 Y27.500 Z-0.750 F100.000
G1 X-53.250 Y27.500 Z-1.500 F50.000
G2 X-49.071 Y31.747 Z-1.500 I4.252 J-0.004 K0.000 F100.000
G1 X49.000 Y31.750 Z-1.500 F100.000
G2 X53.247 Y27.571 Z-1.500 I-0.004 J-4.252 K0.000 F100.000
G1 X53.250 Y-27.500 Z-1.500 F100.000
G2 X49.071 Y-31.747 Z-1.500 I-4.252 J0.004 K0.000 F100.000
G1 X-49.000 Y-31.750 Z-1.500 F100.000
G2 X-53.247 Y-27.571 Z-1.500 I0.004 J4.252 K0.000 F100.000
G1 X-53.250 Y27.500 Z-1.500 F100.000
G0 Z5.000
G0 Z5.000
(Finish operation: Profile001)
(Begin postamble)
M5
G17 G90
M2
