(G-CODE GENERATED BY FLATCAM v8.994 - www.flatcam.org - Version Date: 2020/11/7)

(Name: PatientMonitorButtons-F_Cu.gbr_iso_combined_cnc)
(Type: G-code from Geometry)
(Units: MM)

(Created on Wednesday, 01 May 2024 at 21:57)

(This preprocessor is the default preprocessor used by FlatCAM.)
(It is made to work with MACH3 compatible motion controllers.)

(TOOL DIAMETER: 0.2 mm)
(Feedrate_XY: 50.0 mm/min)
(Feedrate_Z: 50.0 mm/min)
(Feedrate rapids 1500.0 mm/min)

(Z_Cut: -0.05 mm)
(Z_Move: 2.0 mm)
(Z Start: None mm)
(Z End: 15.0 mm)
(X,Y End: None mm)
(Steps per circle: 64)
(Preprocessor Geometry: default)

(X range:   -0.2995 ...   40.2995  mm)
(Y range:   -0.2995 ...   11.2995  mm)

(Spindle Speed: 1000.0 RPM)
G21
G90
G94

G01 F50.00

M5
G00 Z15.0000
G00 X0.0000 Y0.0000
T1
M6    
(MSG, Change to Tool Dia = 0.2000)
M0
G00 Z15.0000

M03 S1000.0
G01 F50.00
G00 X0.0000 Y2.6000
G01 F50.00
G01 Z-0.0500
G01 F50.00
G01 X0.0001 Y1.8951
G01 X0.0017 Y1.8657
G01 X0.0050 Y1.8414
G01 X0.0077 Y1.8269
G01 X0.0151 Y1.7984
G01 X0.0248 Y1.7706
G01 X0.0286 Y1.7615
G01 X0.0369 Y1.7438
G01 X0.0437 Y1.7307
G01 X0.0590 Y1.7056
G01 X0.0764 Y1.6818
G01 X0.0826 Y1.6742
G01 X0.0957 Y1.6596
G01 X0.1060 Y1.6491
G01 X0.1280 Y1.6294
G01 X0.1515 Y1.6118
G01 X0.1638 Y1.6037
G01 X0.1807 Y1.5937
G01 X0.1894 Y1.5891
G01 X0.2161 Y1.5766
G01 X0.2437 Y1.5666
G01 X0.2531 Y1.5637
G01 X0.2721 Y1.5589
G01 X0.2914 Y1.5550
G01 X0.3108 Y1.5522
G01 X0.3206 Y1.5513
G01 X0.3500 Y1.5500
G01 X1.2500 Y1.5500
G01 X1.2843 Y1.5517
G01 X1.3183 Y1.5567
G01 X1.3469 Y1.5637
G01 X1.3609 Y1.5682
G01 X1.3839 Y1.5766
G01 X1.4106 Y1.5891
G01 X1.4193 Y1.5937
G01 X1.4362 Y1.6037
G01 X1.4485 Y1.6118
G01 X1.4720 Y1.6294
G01 X1.4904 Y1.6457
G01 X1.5009 Y1.6560
G01 X1.5206 Y1.6780
G01 X1.5354 Y1.6975
G01 X1.5437 Y1.7097
G01 X1.5587 Y1.7350
G01 X1.5694 Y1.7571
G01 X1.5752 Y1.7706
G01 X1.5854 Y1.7999
G01 X8.4146 Y1.7999
G01 X8.4248 Y1.7706
G01 X8.4306 Y1.7571
G01 X8.4413 Y1.7350
G01 X8.4563 Y1.7097
G01 X8.4646 Y1.6975
G01 X8.4794 Y1.6780
G01 X8.4991 Y1.6560
G01 X8.5096 Y1.6457
G01 X8.5280 Y1.6294
G01 X8.5515 Y1.6118
G01 X8.5638 Y1.6037
G01 X8.5807 Y1.5937
G01 X8.5894 Y1.5891
G01 X8.6161 Y1.5766
G01 X8.6391 Y1.5682
G01 X8.6531 Y1.5637
G01 X8.6817 Y1.5567
G01 X8.7157 Y1.5517
G01 X8.7500 Y1.5500
G01 X9.6549 Y1.5501
G01 X9.6843 Y1.5517
G01 X9.7183 Y1.5567
G01 X9.7516 Y1.5651
G01 X9.7839 Y1.5766
G01 X9.8150 Y1.5913
G01 X9.8444 Y1.6090
G01 X9.8720 Y1.6294
G01 X9.8940 Y1.6491
G01 X9.9009 Y1.6560
G01 X9.9174 Y1.6742
G01 X9.9236 Y1.6818
G01 X9.9354 Y1.6975
G01 X9.9463 Y1.7138
G01 X9.9563 Y1.7307
G01 X9.9631 Y1.7438
G01 X9.9714 Y1.7615
G01 X9.9752 Y1.7706
G01 X9.9834 Y1.7937
G01 X9.9863 Y1.8031
G01 X9.9923 Y1.8269
G01 X9.9942 Y1.8365
G01 X9.9978 Y1.8608
G01 X9.9987 Y1.8706
G01 X10.0000 Y1.9000
G01 X9.9998 Y2.6098
G01 X9.9987 Y2.6294
G01 X9.9971 Y2.6440
G01 X9.9933 Y2.6683
G01 X9.9875 Y2.6921
G01 X9.9834 Y2.7063
G01 X9.9752 Y2.7294
G01 X9.9714 Y2.7385
G01 X9.9609 Y2.7606
G01 X9.9563 Y2.7693
G01 X9.9437 Y2.7903
G01 X9.9382 Y2.7985
G01 X9.9236 Y2.8182
G01 X9.9174 Y2.8258
G01 X9.9009 Y2.8440
G01 X9.8940 Y2.8509
G01 X9.8795 Y2.8641
G01 X9.8682 Y2.8736
G01 X9.8525 Y2.8854
G01 X9.8362 Y2.8963
G01 X9.8193 Y2.9063
G01 X9.8106 Y2.9109
G01 X9.7885 Y2.9214
G01 X9.7748 Y2.9269
G01 X9.7516 Y2.9349
G01 X9.7231 Y2.9423
G01 X9.7086 Y2.9450
G01 X9.6892 Y2.9478
G01 X9.6794 Y2.9487
G01 X9.6500 Y2.9500
G01 X9.4501 Y2.9500
G01 X9.4501 Y2.9552
G01 X9.4806 Y2.9737
G01 X9.5073 Y2.9933
G01 X9.5188 Y3.0025
G01 X9.5433 Y3.0247
G01 X9.5536 Y3.0353
G01 X9.5757 Y3.0600
G01 X9.5985 Y3.0904
G01 X9.6065 Y3.1027
G01 X9.6233 Y3.1313
G01 X9.6417 Y3.1701
G01 X9.6562 Y3.2105
G01 X9.6666 Y3.2521
G01 X9.6729 Y3.2946
G01 X9.6749 Y3.3326
G01 X9.6749 Y3.8424
G01 X9.6729 Y3.8804
G01 X9.6683 Y3.9132
G01 X9.6656 Y3.9277
G01 X9.6562 Y3.9645
G01 X9.6417 Y4.0049
G01 X9.6278 Y4.0350
G01 X9.6210 Y4.0480
G01 X9.6013 Y4.0806
G01 X9.5757 Y4.1150
G01 X9.5536 Y4.1397
G01 X9.5433 Y4.1503
G01 X9.5150 Y4.1757
G01 X9.4846 Y4.1985
G01 X9.4723 Y4.2065
G01 X9.4437 Y4.2233
G01 X9.4049 Y4.2417
G01 X9.3645 Y4.2562
G01 X9.3324 Y4.2644
G01 X9.3132 Y4.2683
G01 X9.2853 Y4.2724
G01 X9.2755 Y4.2733
G01 X9.2375 Y4.2750
G01 X8.7576 Y4.2749
G01 X8.7245 Y4.2733
G01 X8.7099 Y4.2717
G01 X8.6771 Y4.2666
G01 X8.6450 Y4.2588
G01 X8.6308 Y4.2547
G01 X8.5996 Y4.2435
G01 X8.5861 Y4.2377
G01 X8.5563 Y4.2233
G01 X8.5194 Y4.2013
G01 X8.4850 Y4.1757
G01 X8.4531 Y4.1469
G01 X8.4243 Y4.1150
G01 X8.3987 Y4.0806
G01 X8.3767 Y4.0437
G01 X8.3583 Y4.0049
G01 X8.3438 Y3.9645
G01 X8.3356 Y3.9324
G01 X8.3325 Y3.9180
G01 X8.3276 Y3.8853
G01 X8.3264 Y3.8706
G01 X8.3250 Y3.8375
G01 X8.3250 Y3.3375
G01 X8.3271 Y3.2946
G01 X8.3317 Y3.2618
G01 X8.3344 Y3.2473
G01 X8.3425 Y3.2152
G01 X8.3469 Y3.2012
G01 X8.3583 Y3.1701
G01 X8.3767 Y3.1313
G01 X8.3935 Y3.1027
G01 X8.4015 Y3.0904
G01 X8.4183 Y3.0677
G01 X8.4275 Y3.0562
G01 X8.4497 Y3.0317
G01 X8.4603 Y3.0214
G01 X8.4850 Y2.9993
G01 X8.5114 Y2.9794
G01 X8.5236 Y2.9711
G01 X8.5499 Y2.9552
G01 X8.5499 Y2.8871
G01 X8.5280 Y2.8706
G01 X8.5025 Y2.8475
G01 X8.4826 Y2.8258
G01 X8.4764 Y2.8182
G01 X8.4646 Y2.8025
G01 X8.4537 Y2.7862
G01 X8.4437 Y2.7693
G01 X8.4391 Y2.7606
G01 X8.4266 Y2.7339
G01 X8.4182 Y2.7109
G01 X8.4146 Y2.7001
G01 X1.5854 Y2.7001
G01 X1.5752 Y2.7294
G01 X1.5694 Y2.7429
G01 X1.5587 Y2.7650
G01 X1.5437 Y2.7903
G01 X1.5354 Y2.8025
G01 X1.5206 Y2.8220
G01 X1.5009 Y2.8440
G01 X1.4904 Y2.8543
G01 X1.4720 Y2.8706
G01 X1.4485 Y2.8882
G01 X1.4362 Y2.8963
G01 X1.4193 Y2.9063
G01 X1.4106 Y2.9109
G01 X1.3839 Y2.9234
G01 X1.3609 Y2.9318
G01 X1.3469 Y2.9363
G01 X1.3183 Y2.9433
G01 X1.2843 Y2.9483
G01 X1.2500 Y2.9500
G01 X0.3500 Y2.9500
G01 X0.3157 Y2.9483
G01 X0.2817 Y2.9433
G01 X0.2484 Y2.9349
G01 X0.2161 Y2.9234
G01 X0.1850 Y2.9087
G01 X0.1556 Y2.8910
G01 X0.1280 Y2.8706
G01 X0.1025 Y2.8475
G01 X0.0794 Y2.8220
G01 X0.0590 Y2.7944
G01 X0.0413 Y2.7650
G01 X0.0266 Y2.7339
G01 X0.0151 Y2.7016
G01 X0.0067 Y2.6683
G01 X0.0017 Y2.6343
G01 X0.0000 Y2.6000
G00 Z2.0000
G00 X0.1000 Y2.6000
G01 F50.00
G01 Z-0.0500
G01 F50.00
G01 X0.1000 Y1.9000
G01 X0.1012 Y1.8755
G01 X0.1040 Y1.8561
G01 X0.1059 Y1.8464
G01 X0.1108 Y1.8274
G01 X0.1190 Y1.8043
G01 X0.1295 Y1.7822
G01 X0.1395 Y1.7653
G01 X0.1450 Y1.7571
G01 X0.1583 Y1.7395
G01 X0.1732 Y1.7232
G01 X0.1895 Y1.7083
G01 X0.2071 Y1.6950
G01 X0.2153 Y1.6895
G01 X0.2322 Y1.6795
G01 X0.2543 Y1.6690
G01 X0.2774 Y1.6608
G01 X0.2964 Y1.6559
G01 X0.3061 Y1.6540
G01 X0.3279 Y1.6510
G01 X0.3500 Y1.6500
G01 X1.2500 Y1.6500
G01 X1.2745 Y1.6512
G01 X1.3012 Y1.6553
G01 X1.3226 Y1.6608
G01 X1.3457 Y1.6690
G01 X1.3678 Y1.6795
G01 X1.3847 Y1.6895
G01 X1.3929 Y1.6950
G01 X1.4067 Y1.7052
G01 X1.4123 Y1.7100
G01 X1.4268 Y1.7232
G01 X1.4433 Y1.7414
G01 X1.4579 Y1.7611
G01 X1.4681 Y1.7779
G01 X1.4727 Y1.7865
G01 X1.4800 Y1.8021
G01 X1.4827 Y1.8089
G01 X1.4892 Y1.8274
G01 X1.4952 Y1.8512
G01 X1.4988 Y1.8755
G01 X1.5000 Y1.8999
G01 X8.5000 Y1.8999
G01 X8.5012 Y1.8755
G01 X8.5048 Y1.8512
G01 X8.5108 Y1.8274
G01 X8.5173 Y1.8089
G01 X8.5200 Y1.8021
G01 X8.5273 Y1.7865
G01 X8.5319 Y1.7779
G01 X8.5421 Y1.7611
G01 X8.5567 Y1.7414
G01 X8.5732 Y1.7232
G01 X8.5877 Y1.7100
G01 X8.5933 Y1.7052
G01 X8.6071 Y1.6950
G01 X8.6153 Y1.6895
G01 X8.6322 Y1.6795
G01 X8.6543 Y1.6690
G01 X8.6774 Y1.6608
G01 X8.6988 Y1.6553
G01 X8.7255 Y1.6512
G01 X8.7500 Y1.6500
G01 X9.6525 Y1.6500
G01 X9.6745 Y1.6512
G01 X9.6988 Y1.6548
G01 X9.7226 Y1.6608
G01 X9.7457 Y1.6690
G01 X9.7678 Y1.6795
G01 X9.7889 Y1.6921
G01 X9.8086 Y1.7067
G01 X9.8232 Y1.7198
G01 X9.8285 Y1.7250
G01 X9.8417 Y1.7395
G01 X9.8550 Y1.7571
G01 X9.8605 Y1.7653
G01 X9.8693 Y1.7800
G01 X9.8727 Y1.7865
G01 X9.8819 Y1.8066
G01 X9.8899 Y1.8298
G01 X9.8952 Y1.8512
G01 X9.8990 Y1.8779
G01 X9.9000 Y1.9000
G01 X9.9000 Y2.6025
G01 X9.8990 Y2.6221
G01 X9.8982 Y2.6294
G01 X9.8952 Y2.6488
G01 X9.8905 Y2.6678
G01 X9.8877 Y2.6772
G01 X9.8810 Y2.6957
G01 X9.8693 Y2.7200
G01 X9.8579 Y2.7389
G01 X9.8417 Y2.7605
G01 X9.8250 Y2.7785
G01 X9.8105 Y2.7917
G01 X9.8047 Y2.7963
G01 X9.7909 Y2.8065
G01 X9.7847 Y2.8105
G01 X9.7678 Y2.8205
G01 X9.7502 Y2.8290
G01 X9.7434 Y2.8319
G01 X9.7249 Y2.8385
G01 X9.7036 Y2.8441
G01 X9.6964 Y2.8456
G01 X9.6769 Y2.8485
G01 X9.6525 Y2.8500
G01 X9.3501 Y2.8500
G01 X9.3501 Y3.0196
G01 X9.3689 Y3.0267
G01 X9.3944 Y3.0387
G01 X9.4209 Y3.0543
G01 X9.4270 Y3.0583
G01 X9.4497 Y3.0751
G01 X9.4553 Y3.0798
G01 X9.4761 Y3.0989
G01 X9.4968 Y3.1215
G01 X9.5181 Y3.1500
G01 X9.5327 Y3.1741
G01 X9.5374 Y3.1828
G01 X9.5493 Y3.2083
G01 X9.5589 Y3.2349
G01 X9.5612 Y3.2419
G01 X9.5680 Y3.2693
G01 X9.5734 Y3.3044
G01 X9.5750 Y3.3375
G01 X9.5750 Y3.8375
G01 X9.5736 Y3.8681
G01 X9.5685 Y3.9033
G01 X9.5618 Y3.9307
G01 X9.5597 Y3.9378
G01 X9.5511 Y3.9621
G01 X9.5473 Y3.9711
G01 X9.5351 Y3.9966
G01 X9.5181 Y4.0250
G01 X9.4984 Y4.0516
G01 X9.4761 Y4.0761
G01 X9.4516 Y4.0984
G01 X9.4250 Y4.1181
G01 X9.3966 Y4.1351
G01 X9.3711 Y4.1473
G01 X9.3621 Y4.1511
G01 X9.3378 Y4.1597
G01 X9.3307 Y4.1618
G01 X9.3033 Y4.1685
G01 X9.2681 Y4.1736
G01 X9.2375 Y4.1750
G01 X8.7625 Y4.1750
G01 X8.7294 Y4.1734
G01 X8.6943 Y4.1680
G01 X8.6645 Y4.1605
G01 X8.6379 Y4.1511
G01 X8.6289 Y4.1473
G01 X8.6034 Y4.1351
G01 X8.5791 Y4.1207
G01 X8.5730 Y4.1167
G01 X8.5523 Y4.1014
G01 X8.5447 Y4.0952
G01 X8.5239 Y4.0761
G01 X8.5016 Y4.0516
G01 X8.4819 Y4.0250
G01 X8.4637 Y3.9944
G01 X8.4507 Y3.9667
G01 X8.4411 Y3.9401
G01 X8.4382 Y3.9307
G01 X8.4315 Y3.9033
G01 X8.4272 Y3.8755
G01 X8.4264 Y3.8681
G01 X8.4251 Y3.8424
G01 X8.4250 Y3.3375
G01 X8.4266 Y3.3044
G01 X8.4315 Y3.2717
G01 X8.4382 Y3.2443
G01 X8.4411 Y3.2349
G01 X8.4507 Y3.2083
G01 X8.4626 Y3.1828
G01 X8.4673 Y3.1741
G01 X8.4819 Y3.1500
G01 X8.5032 Y3.1215
G01 X8.5239 Y3.0989
G01 X8.5447 Y3.0798
G01 X8.5503 Y3.0751
G01 X8.5730 Y3.0583
G01 X8.5791 Y3.0543
G01 X8.6056 Y3.0387
G01 X8.6311 Y3.0267
G01 X8.6499 Y3.0196
G01 X8.6499 Y2.8290
G01 X8.6322 Y2.8205
G01 X8.6153 Y2.8105
G01 X8.6071 Y2.8050
G01 X8.5914 Y2.7933
G01 X8.5768 Y2.7802
G01 X8.5698 Y2.7732
G01 X8.5567 Y2.7586
G01 X8.5421 Y2.7389
G01 X8.5319 Y2.7221
G01 X8.5273 Y2.7135
G01 X8.5190 Y2.6957
G01 X8.5108 Y2.6726
G01 X8.5059 Y2.6536
G01 X8.5040 Y2.6439
G01 X8.5012 Y2.6245
G01 X8.5000 Y2.6001
G01 X1.5000 Y2.6001
G01 X1.4988 Y2.6245
G01 X1.4952 Y2.6488
G01 X1.4892 Y2.6726
G01 X1.4827 Y2.6911
G01 X1.4800 Y2.6979
G01 X1.4727 Y2.7135
G01 X1.4681 Y2.7221
G01 X1.4579 Y2.7389
G01 X1.4433 Y2.7586
G01 X1.4268 Y2.7768
G01 X1.4123 Y2.7900
G01 X1.4047 Y2.7963
G01 X1.3909 Y2.8065
G01 X1.3847 Y2.8105
G01 X1.3678 Y2.8205
G01 X1.3457 Y2.8310
G01 X1.3226 Y2.8392
G01 X1.3012 Y2.8447
G01 X1.2745 Y2.8488
G01 X1.2500 Y2.8500
G01 X0.3500 Y2.8500
G01 X0.3255 Y2.8488
G01 X0.3012 Y2.8452
G01 X0.2774 Y2.8392
G01 X0.2543 Y2.8310
G01 X0.2322 Y2.8205
G01 X0.2111 Y2.8079
G01 X0.1914 Y2.7933
G01 X0.1732 Y2.7768
G01 X0.1567 Y2.7586
G01 X0.1421 Y2.7389
G01 X0.1295 Y2.7178
G01 X0.1190 Y2.6957
G01 X0.1108 Y2.6726
G01 X0.1048 Y2.6488
G01 X0.1012 Y2.6245
G01 X0.1000 Y2.6000
G00 Z2.0000
G00 X-0.0995 Y3.4090
G01 F50.00
G01 Z-0.0500
G01 F50.00
G01 X-0.0995 Y3.3387
G01 X-0.0978 Y3.3142
G01 X-0.0958 Y3.3017
G01 X-0.0931 Y3.2919
G01 X-0.0904 Y3.2848
G01 X-0.0605 Y3.2188
G01 X-0.0560 Y3.2100
G01 X-0.0491 Y3.1996
G01 X-0.0427 Y3.1920
G01 X-0.0356 Y3.1851
G01 X-0.0279 Y3.1789
G01 X0.0392 Y3.1356
G01 X0.0457 Y3.1321
G01 X0.0526 Y3.1291
G01 X0.0644 Y3.1253
G01 X0.0741 Y3.1233
G01 X0.0865 Y3.1222
G01 X0.1588 Y3.1219
G01 X0.1707 Y3.1226
G01 X0.1777 Y3.1237
G01 X0.1847 Y3.1253
G01 X0.2655 Y3.1487
G01 X0.2882 Y3.1505
G01 X1.3118 Y3.1505
G01 X1.3345 Y3.1487
G01 X1.4704 Y3.1092
G01 X1.5901 Y3.0384
G01 X1.6643 Y2.9642
G01 X1.6910 Y2.9423
G01 X1.7010 Y2.9352
G01 X1.7074 Y2.9316
G01 X1.7141 Y2.9284
G01 X1.7256 Y2.9242
G01 X1.7949 Y2.9039
G01 X1.8042 Y2.9019
G01 X1.8137 Y2.9008
G01 X1.8208 Y2.9005
G01 X7.9250 Y2.9005
G01 X7.9338 Y2.9009
G01 X7.9606 Y2.9034
G01 X7.9680 Y2.9047
G01 X7.9776 Y2.9073
G01 X7.9847 Y2.9099
G01 X7.9915 Y2.9130
G01 X8.0584 Y2.9465
G01 X8.0688 Y2.9532
G01 X8.0783 Y2.9612
G01 X8.0868 Y2.9703
G01 X8.0940 Y2.9804
G01 X8.1323 Y3.0447
G01 X8.1367 Y3.0536
G01 X8.1394 Y3.0605
G01 X8.1416 Y3.0676
G01 X8.1437 Y3.0773
G01 X8.1447 Y3.0847
G01 X8.1451 Y3.0946
G01 X8.1424 Y3.1717
G01 X8.1411 Y3.1811
G01 X8.1396 Y3.1881
G01 X8.1332 Y3.2083
G01 X8.1245 Y3.2934
G01 X8.1245 Y3.8816
G01 X8.1332 Y3.9667
G01 X8.1803 Y4.1090
G01 X8.2586 Y4.2359
G01 X8.3647 Y4.3420
G01 X8.3696 Y4.3472
G01 X8.3754 Y4.3547
G01 X8.4066 Y4.4030
G01 X8.4127 Y4.4139
G01 X8.4157 Y4.4207
G01 X8.4188 Y4.4302
G01 X8.4210 Y4.4400
G01 X8.4222 Y4.4499
G01 X8.4272 Y4.5196
G01 X8.4274 Y4.5295
G01 X8.4267 Y4.5394
G01 X8.4249 Y4.5492
G01 X8.4214 Y4.5611
G01 X8.4175 Y4.5702
G01 X8.3806 Y4.6380
G01 X8.3754 Y4.6460
G01 X8.3711 Y4.6517
G01 X8.3647 Y4.6587
G01 X8.2590 Y4.7644
G01 X8.1808 Y4.8912
G01 X8.1337 Y5.0334
G01 X8.1307 Y5.0625
G01 X8.4402 Y5.0625
G01 X8.4489 Y5.0379
G01 X8.4527 Y5.0289
G01 X8.4649 Y5.0034
G01 X8.4793 Y4.9791
G01 X8.4847 Y4.9710
G01 X8.5016 Y4.9484
G01 X8.5205 Y4.9274
G01 X8.5274 Y4.9205
G01 X8.5484 Y4.9016
G01 X8.5710 Y4.8847
G01 X8.5791 Y4.8793
G01 X8.6034 Y4.8649
G01 X8.6289 Y4.8527
G01 X8.6379 Y4.8489
G01 X8.6645 Y4.8395
G01 X8.6943 Y4.8320
G01 X8.7294 Y4.8266
G01 X8.7600 Y4.8250
G01 X9.2400 Y4.8250
G01 X9.2706 Y4.8266
G01 X9.3033 Y4.8315
G01 X9.3355 Y4.8395
G01 X9.3667 Y4.8507
G01 X9.3966 Y4.8649
G01 X9.4250 Y4.8819
G01 X9.4516 Y4.9016
G01 X9.4744 Y4.9221
G01 X9.4984 Y4.9484
G01 X9.5181 Y4.9750
G01 X9.5351 Y5.0034
G01 X9.5483 Y5.0311
G01 X9.5605 Y5.0645
G01 X9.5680 Y5.0943
G01 X9.5731 Y5.1270
G01 X9.5745 Y5.1499
G01 X11.7122 Y5.1499
G01 X11.7592 Y5.0704
G01 X11.7987 Y4.9345
G01 X11.8005 Y4.9118
G01 X11.8005 Y4.0882
G01 X11.7987 Y4.0655
G01 X11.7592 Y3.9296
G01 X11.6884 Y3.8099
G01 X11.5901 Y3.7116
G01 X11.4704 Y3.6408
G01 X11.3345 Y3.6013
G01 X11.3118 Y3.5995
G01 X10.2882 Y3.5995
G01 X10.2655 Y3.6013
G01 X10.1597 Y3.6320
G01 X10.1358 Y3.6372
G01 X10.1257 Y3.6386
G01 X10.1130 Y3.6389
G01 X10.1029 Y3.6380
G01 X10.0313 Y3.6276
G01 X10.0216 Y3.6255
G01 X10.0145 Y3.6233
G01 X10.0076 Y3.6205
G01 X9.9987 Y3.6161
G01 X9.9924 Y3.6122
G01 X9.9844 Y3.6062
G01 X9.9278 Y3.5572
G01 X9.9208 Y3.5502
G01 X9.9146 Y3.5425
G01 X9.9104 Y3.5363
G01 X9.9067 Y3.5299
G01 X9.9035 Y3.5231
G01 X9.9008 Y3.5162
G01 X9.8796 Y3.4444
G01 X9.8769 Y3.4328
G01 X9.8760 Y3.4258
G01 X9.8755 Y3.4186
G01 X9.8755 Y3.3314
G01 X9.8772 Y3.3069
G01 X9.8782 Y3.2994
G01 X9.8798 Y3.2919
G01 X9.8819 Y3.2846
G01 X9.8846 Y3.2775
G01 X9.9166 Y3.2071
G01 X9.9216 Y3.1985
G01 X9.9259 Y3.1924
G01 X9.9323 Y3.1848
G01 X9.9394 Y3.1778
G01 X9.9451 Y3.1731
G01 X9.9512 Y3.1688
G01 X10.0099 Y3.1309
G01 X10.0185 Y3.1259
G01 X10.0276 Y3.1218
G01 X10.0394 Y3.1180
G01 X10.0516 Y3.1157
G01 X10.0615 Y3.1149
G01 X10.1362 Y3.1147
G01 X10.1433 Y3.1151
G01 X10.1504 Y3.1160
G01 X10.1620 Y3.1186
G01 X10.2655 Y3.1487
G01 X10.2882 Y3.1505
G01 X11.3118 Y3.1505
G01 X11.3345 Y3.1487
G01 X11.4704 Y3.1092
G01 X11.5901 Y3.0384
G01 X11.6643 Y2.9642
G01 X11.6704 Y2.9590
G01 X11.6930 Y2.9408
G01 X11.7031 Y2.9340
G01 X11.7141 Y2.9284
G01 X11.7232 Y2.9250
G01 X11.7926 Y2.9046
G01 X11.7996 Y2.9028
G01 X11.8066 Y2.9015
G01 X11.8184 Y2.9005
G01 X17.9250 Y2.9005
G01 X17.9338 Y2.9009
G01 X17.9631 Y2.9038
G01 X17.9729 Y2.9059
G01 X17.9823 Y2.9090
G01 X17.9915 Y2.9130
G01 X18.0562 Y2.9453
G01 X18.0627 Y2.9490
G01 X18.0708 Y2.9547
G01 X18.0783 Y2.9612
G01 X18.0835 Y2.9665
G01 X18.0898 Y2.9742
G01 X18.0940 Y2.9804
G01 X18.1323 Y3.0447
G01 X18.1367 Y3.0536
G01 X18.1402 Y3.0629
G01 X18.1423 Y3.0700
G01 X18.1437 Y3.0773
G01 X18.1447 Y3.0847
G01 X18.1451 Y3.0921
G01 X18.1425 Y3.1693
G01 X18.1415 Y3.1788
G01 X18.1402 Y3.1858
G01 X18.1383 Y3.1927
G01 X18.1332 Y3.2083
G01 X18.1245 Y3.2934
G01 X18.1245 Y3.8816
G01 X18.1332 Y3.9667
G01 X18.1803 Y4.1090
G01 X18.2586 Y4.2359
G01 X18.3647 Y4.3420
G01 X18.3711 Y4.3490
G01 X18.3754 Y4.3547
G01 X18.4066 Y4.4030
G01 X18.4116 Y4.4116
G01 X18.4157 Y4.4207
G01 X18.4188 Y4.4302
G01 X18.4206 Y4.4375
G01 X18.4220 Y4.4474
G01 X18.4272 Y4.5196
G01 X18.4274 Y4.5295
G01 X18.4267 Y4.5394
G01 X18.4249 Y4.5492
G01 X18.4214 Y4.5611
G01 X18.4175 Y4.5702
G01 X18.3806 Y4.6380
G01 X18.3768 Y4.6441
G01 X18.3711 Y4.6517
G01 X18.3647 Y4.6587
G01 X18.2590 Y4.7644
G01 X18.1808 Y4.8912
G01 X18.1337 Y5.0334
G01 X18.1307 Y5.0625
G01 X18.4402 Y5.0625
G01 X18.4489 Y5.0379
G01 X18.4527 Y5.0289
G01 X18.4649 Y5.0034
G01 X18.4793 Y4.9791
G01 X18.4847 Y4.9710
G01 X18.5016 Y4.9484
G01 X18.5205 Y4.9274
G01 X18.5274 Y4.9205
G01 X18.5484 Y4.9016
G01 X18.5710 Y4.8847
G01 X18.5791 Y4.8793
G01 X18.6034 Y4.8649
G01 X18.6289 Y4.8527
G01 X18.6379 Y4.8489
G01 X18.6645 Y4.8395
G01 X18.6943 Y4.8320
G01 X18.7294 Y4.8266
G01 X18.7600 Y4.8250
G01 X19.2400 Y4.8250
G01 X19.2706 Y4.8266
G01 X19.3033 Y4.8315
G01 X19.3355 Y4.8395
G01 X19.3667 Y4.8507
G01 X19.3966 Y4.8649
G01 X19.4250 Y4.8819
G01 X19.4516 Y4.9016
G01 X19.4744 Y4.9221
G01 X19.4984 Y4.9484
G01 X19.5181 Y4.9750
G01 X19.5351 Y5.0034
G01 X19.5483 Y5.0311
G01 X19.5605 Y5.0645
G01 X19.5680 Y5.0943
G01 X19.5731 Y5.1270
G01 X19.5745 Y5.1499
G01 X21.7122 Y5.1499
G01 X21.7592 Y5.0704
G01 X21.7987 Y4.9345
G01 X21.8005 Y4.9118
G01 X21.8005 Y4.0882
G01 X21.7987 Y4.0655
G01 X21.7592 Y3.9296
G01 X21.6884 Y3.8099
G01 X21.5901 Y3.7116
G01 X21.4704 Y3.6408
G01 X21.3345 Y3.6013
G01 X21.3118 Y3.5995
G01 X20.2882 Y3.5995
G01 X20.2655 Y3.6013
G01 X20.1597 Y3.6320
G01 X20.1358 Y3.6372
G01 X20.1257 Y3.6386
G01 X20.1130 Y3.6389
G01 X20.1029 Y3.6380
G01 X20.0313 Y3.6276
G01 X20.0216 Y3.6255
G01 X20.0145 Y3.6233
G01 X20.0053 Y3.6195
G01 X19.9987 Y3.6161
G01 X19.9903 Y3.6107
G01 X19.9844 Y3.6062
G01 X19.9278 Y3.5572
G01 X19.9208 Y3.5502
G01 X19.9146 Y3.5425
G01 X19.9104 Y3.5363
G01 X19.9067 Y3.5299
G01 X19.9035 Y3.5231
G01 X19.9008 Y3.5162
G01 X19.8796 Y3.4444
G01 X19.8769 Y3.4328
G01 X19.8760 Y3.4258
G01 X19.8755 Y3.4186
G01 X19.8755 Y3.3314
G01 X19.8772 Y3.3069
G01 X19.8782 Y3.2994
G01 X19.8798 Y3.2919
G01 X19.8819 Y3.2846
G01 X19.8846 Y3.2775
G01 X19.9166 Y3.2071
G01 X19.9216 Y3.1985
G01 X19.9274 Y3.1904
G01 X19.9323 Y3.1848
G01 X19.9394 Y3.1778
G01 X19.9451 Y3.1731
G01 X19.9512 Y3.1688
G01 X20.0099 Y3.1309
G01 X20.0185 Y3.1259
G01 X20.0276 Y3.1218
G01 X20.0394 Y3.1180
G01 X20.0491 Y3.1160
G01 X20.0615 Y3.1149
G01 X20.1362 Y3.1147
G01 X20.1433 Y3.1151
G01 X20.1504 Y3.1160
G01 X20.1620 Y3.1186
G01 X20.2655 Y3.1487
G01 X20.2882 Y3.1505
G01 X21.3118 Y3.1505
G01 X21.3345 Y3.1487
G01 X21.4704 Y3.1092
G01 X21.5901 Y3.0384
G01 X21.6643 Y2.9642
G01 X21.6704 Y2.9590
G01 X21.6930 Y2.9408
G01 X21.7031 Y2.9340
G01 X21.7141 Y2.9284
G01 X21.7232 Y2.9250
G01 X21.7926 Y2.9046
G01 X21.7996 Y2.9028
G01 X21.8066 Y2.9015
G01 X21.8184 Y2.9005
G01 X27.9294 Y2.9006
G01 X27.9631 Y2.9038
G01 X27.9729 Y2.9059
G01 X27.9823 Y2.9090
G01 X27.9915 Y2.9130
G01 X28.0562 Y2.9453
G01 X28.0627 Y2.9490
G01 X28.0708 Y2.9547
G01 X28.0783 Y2.9612
G01 X28.0835 Y2.9665
G01 X28.0898 Y2.9742
G01 X28.0940 Y2.9804
G01 X28.1323 Y3.0447
G01 X28.1367 Y3.0536
G01 X28.1402 Y3.0629
G01 X28.1423 Y3.0700
G01 X28.1437 Y3.0773
G01 X28.1447 Y3.0847
G01 X28.1451 Y3.0921
G01 X28.1425 Y3.1693
G01 X28.1415 Y3.1788
G01 X28.1402 Y3.1858
G01 X28.1383 Y3.1927
G01 X28.1332 Y3.2083
G01 X28.1245 Y3.2934
G01 X28.1245 Y3.8816
G01 X28.1332 Y3.9667
G01 X28.1803 Y4.1090
G01 X28.2586 Y4.2359
G01 X28.3647 Y4.3420
G01 X28.3711 Y4.3490
G01 X28.3754 Y4.3547
G01 X28.4066 Y4.4030
G01 X28.4116 Y4.4116
G01 X28.4157 Y4.4207
G01 X28.4188 Y4.4302
G01 X28.4206 Y4.4375
G01 X28.4220 Y4.4474
G01 X28.4272 Y4.5196
G01 X28.4274 Y4.5295
G01 X28.4267 Y4.5394
G01 X28.4249 Y4.5492
G01 X28.4214 Y4.5611
G01 X28.4175 Y4.5702
G01 X28.3806 Y4.6380
G01 X28.3768 Y4.6441
G01 X28.3711 Y4.6517
G01 X28.3647 Y4.6587
G01 X28.2590 Y4.7644
G01 X28.1808 Y4.8912
G01 X28.1337 Y5.0334
G01 X28.1307 Y5.0625
G01 X28.4402 Y5.0625
G01 X28.4507 Y5.0333
G01 X28.4626 Y5.0078
G01 X28.4673 Y4.9991
G01 X28.4805 Y4.9771
G01 X28.4847 Y4.9710
G01 X28.5016 Y4.9484
G01 X28.5239 Y4.9239
G01 X28.5484 Y4.9016
G01 X28.5710 Y4.8847
G01 X28.5771 Y4.8805
G01 X28.5991 Y4.8673
G01 X28.6078 Y4.8626
G01 X28.6333 Y4.8507
G01 X28.6645 Y4.8395
G01 X28.6967 Y4.8315
G01 X28.7245 Y4.8272
G01 X28.7343 Y4.8263
G01 X28.7625 Y4.8250
G01 X29.2400 Y4.8250
G01 X29.2706 Y4.8266
G01 X29.3057 Y4.8320
G01 X29.3355 Y4.8395
G01 X29.3621 Y4.8489
G01 X29.3711 Y4.8527
G01 X29.3966 Y4.8649
G01 X29.4209 Y4.8793
G01 X29.4290 Y4.8847
G01 X29.4516 Y4.9016
G01 X29.4726 Y4.9205
G01 X29.4795 Y4.9274
G01 X29.4984 Y4.9484
G01 X29.5153 Y4.9710
G01 X29.5207 Y4.9791
G01 X29.5351 Y5.0034
G01 X29.5473 Y5.0289
G01 X29.5511 Y5.0379
G01 X29.5598 Y5.0625
G01 X29.8693 Y5.0625
G01 X29.8663 Y5.0334
G01 X29.8192 Y4.8912
G01 X29.7410 Y4.7644
G01 X29.6304 Y4.6535
G01 X29.6260 Y4.6480
G01 X29.6219 Y4.6421
G01 X29.5934 Y4.5978
G01 X29.5884 Y4.5891
G01 X29.5843 Y4.5800
G01 X29.5819 Y4.5729
G01 X29.5800 Y4.5656
G01 X29.5783 Y4.5558
G01 X29.5726 Y4.4787
G01 X29.5726 Y4.4712
G01 X29.5731 Y4.4638
G01 X29.5741 Y4.4564
G01 X29.5763 Y4.4467
G01 X29.5786 Y4.4396
G01 X29.5825 Y4.4305
G01 X29.6182 Y4.3647
G01 X29.6246 Y4.3547
G01 X29.6304 Y4.3472
G01 X29.6353 Y4.3420
G01 X29.7414 Y4.2359
G01 X29.8197 Y4.1090
G01 X29.8668 Y3.9667
G01 X29.8755 Y3.8816
G01 X29.8755 Y3.2934
G01 X29.8718 Y3.2571
G01 X29.8715 Y3.2477
G01 X29.8721 Y3.2382
G01 X29.8732 Y3.2312
G01 X29.8862 Y3.1605
G01 X29.8895 Y3.1486
G01 X29.8931 Y3.1394
G01 X29.8965 Y3.1328
G01 X29.9017 Y3.1244
G01 X29.9061 Y3.1184
G01 X29.9587 Y3.0617
G01 X29.9655 Y3.0551
G01 X29.9729 Y3.0491
G01 X29.9788 Y3.0451
G01 X29.9901 Y3.0384
G01 X30.0884 Y2.9401
G01 X30.1592 Y2.8204
G01 X30.1987 Y2.6845
G01 X30.2005 Y2.6618
G01 X30.2005 Y1.8382
G01 X30.1987 Y1.8155
G01 X30.1592 Y1.6796
G01 X30.0884 Y1.5599
G01 X29.9901 Y1.4616
G01 X29.8704 Y1.3908
G01 X29.7345 Y1.3513
G01 X29.7118 Y1.3495
G01 X28.6882 Y1.3495
G01 X28.6655 Y1.3513
G01 X28.5296 Y1.3908
G01 X28.4099 Y1.4616
G01 X28.3357 Y1.5358
G01 X28.3296 Y1.5410
G01 X28.3070 Y1.5592
G01 X28.2969 Y1.5660
G01 X28.2882 Y1.5706
G01 X28.2768 Y1.5750
G01 X28.2074 Y1.5954
G01 X28.2004 Y1.5972
G01 X28.1934 Y1.5985
G01 X28.1863 Y1.5992
G01 X28.1792 Y1.5995
G01 X21.8181 Y1.5995
G01 X21.8101 Y1.5989
G01 X21.7789 Y1.5954
G01 X21.7693 Y1.5934
G01 X21.7599 Y1.5905
G01 X21.7531 Y1.5877
G01 X21.7465 Y1.5844
G01 X21.6811 Y1.5486
G01 X21.6732 Y1.5432
G01 X21.6641 Y1.5356
G01 X21.5901 Y1.4616
G01 X21.4704 Y1.3908
G01 X21.3345 Y1.3513
G01 X21.3118 Y1.3495
G01 X20.2882 Y1.3495
G01 X20.2655 Y1.3513
G01 X20.1296 Y1.3908
G01 X20.1075 Y1.4035
G01 X20.0984 Y1.4075
G01 X20.0913 Y1.4099
G01 X20.0281 Y1.4283
G01 X20.0161 Y1.4304
G01 X20.0040 Y1.4311
G01 X19.9943 Y1.4306
G01 X19.9824 Y1.4286
G01 X19.9100 Y1.4102
G01 X19.9010 Y1.4072
G01 X19.8922 Y1.4034
G01 X19.8704 Y1.3908
G01 X19.7345 Y1.3513
G01 X19.7118 Y1.3495
G01 X18.6882 Y1.3495
G01 X18.6655 Y1.3513
G01 X18.5296 Y1.3908
G01 X18.4099 Y1.4616
G01 X18.3357 Y1.5358
G01 X18.3296 Y1.5410
G01 X18.3070 Y1.5592
G01 X18.2969 Y1.5660
G01 X18.2882 Y1.5706
G01 X18.2768 Y1.5750
G01 X18.2074 Y1.5954
G01 X18.2004 Y1.5972
G01 X18.1934 Y1.5985
G01 X18.1816 Y1.5995
G01 X11.8181 Y1.5995
G01 X11.8101 Y1.5989
G01 X11.7789 Y1.5954
G01 X11.7693 Y1.5934
G01 X11.7599 Y1.5905
G01 X11.7531 Y1.5877
G01 X11.7465 Y1.5844
G01 X11.6811 Y1.5486
G01 X11.6732 Y1.5432
G01 X11.6641 Y1.5356
G01 X11.5901 Y1.4616
G01 X11.4704 Y1.3908
G01 X11.3345 Y1.3513
G01 X11.3118 Y1.3495
G01 X10.2882 Y1.3495
G01 X10.2655 Y1.3513
G01 X10.1296 Y1.3908
G01 X10.1075 Y1.4035
G01 X10.1007 Y1.4066
G01 X10.0913 Y1.4099
G01 X10.0281 Y1.4283
G01 X10.0161 Y1.4304
G01 X10.0040 Y1.4311
G01 X9.9919 Y1.4303
G01 X9.9824 Y1.4286
G01 X9.9100 Y1.4102
G01 X9.9010 Y1.4072
G01 X9.8922 Y1.4034
G01 X9.8704 Y1.3908
G01 X9.7345 Y1.3513
G01 X9.7118 Y1.3495
G01 X8.6882 Y1.3495
G01 X8.6655 Y1.3513
G01 X8.5296 Y1.3908
G01 X8.4099 Y1.4616
G01 X8.3357 Y1.5358
G01 X8.3296 Y1.5410
G01 X8.3070 Y1.5592
G01 X8.2969 Y1.5660
G01 X8.2882 Y1.5706
G01 X8.2768 Y1.5750
G01 X8.2074 Y1.5954
G01 X8.1958 Y1.5981
G01 X8.1887 Y1.5990
G01 X8.1816 Y1.5995
G01 X1.8155 Y1.5994
G01 X1.7789 Y1.5954
G01 X1.7693 Y1.5934
G01 X1.7599 Y1.5905
G01 X1.7531 Y1.5877
G01 X1.7465 Y1.5844
G01 X1.6811 Y1.5486
G01 X1.6732 Y1.5432
G01 X1.6641 Y1.5356
G01 X1.5901 Y1.4616
G01 X1.4704 Y1.3908
G01 X1.3345 Y1.3513
G01 X1.3118 Y1.3495
G01 X0.2882 Y1.3495
G01 X0.2655 Y1.3513
G01 X0.1825 Y1.3753
G01 X0.1583 Y1.3804
G01 X0.1507 Y1.3814
G01 X0.1431 Y1.3817
G01 X0.1355 Y1.3815
G01 X0.1279 Y1.3807
G01 X0.0588 Y1.3708
G01 X0.0490 Y1.3689
G01 X0.0395 Y1.3660
G01 X0.0303 Y1.3622
G01 X0.0194 Y1.3562
G01 X0.0113 Y1.3505
G01 X-0.0490 Y1.2983
G01 X-0.0542 Y1.2929
G01 X-0.0589 Y1.2872
G01 X-0.0659 Y1.2769
G01 X-0.0715 Y1.2659
G01 X-0.0758 Y1.2542
G01 X-0.0961 Y1.1849
G01 X-0.0977 Y1.1779
G01 X-0.0990 Y1.1685
G01 X-0.0995 Y1.1590
G01 X-0.0995 Y0.1245
G01 X-0.0992 Y0.1174
G01 X-0.0981 Y0.1079
G01 X-0.0848 Y0.0469
G01 X-0.0817 Y0.0374
G01 X-0.0766 Y0.0260
G01 X-0.0714 Y0.0174
G01 X-0.0655 Y0.0094
G01 X-0.0181 Y-0.0453
G01 X-0.0112 Y-0.0525
G01 X-0.0037 Y-0.0589
G01 X0.0044 Y-0.0646
G01 X0.0131 Y-0.0694
G01 X0.0246 Y-0.0742
G01 X0.1009 Y-0.0967
G01 X0.1126 Y-0.0988
G01 X0.1245 Y-0.0995
G01 X39.8755 Y-0.0995
G01 X39.8874 Y-0.0988
G01 X39.8968 Y-0.0972
G01 X39.9507 Y-0.0854
G01 X39.9626 Y-0.0817
G01 X39.9740 Y-0.0766
G01 X39.9826 Y-0.0714
G01 X39.9906 Y-0.0655
G01 X40.0453 Y-0.0181
G01 X40.0525 Y-0.0112
G01 X40.0589 Y-0.0037
G01 X40.0646 Y0.0044
G01 X40.0705 Y0.0154
G01 X40.0742 Y0.0246
G01 X40.0961 Y0.0986
G01 X40.0985 Y0.1103
G01 X40.0995 Y0.1221
G01 X40.0995 Y8.6352
G01 X40.0985 Y8.6491
G01 X40.0938 Y8.6831
G01 X40.0919 Y8.6930
G01 X40.0882 Y8.7049
G01 X40.0830 Y8.7162
G01 X40.0793 Y8.7227
G01 X40.0419 Y8.7818
G01 X40.0377 Y8.7879
G01 X40.0331 Y8.7937
G01 X40.0262 Y8.8009
G01 X40.0187 Y8.8074
G01 X40.0105 Y8.8131
G01 X39.9996 Y8.8190
G01 X39.9340 Y8.8495
G01 X39.9224 Y8.8538
G01 X39.9152 Y8.8556
G01 X39.9078 Y8.8569
G01 X39.8954 Y8.8578
G01 X39.8880 Y8.8577
G01 X39.8806 Y8.8569
G01 X39.8089 Y8.8471
G01 X39.7992 Y8.8451
G01 X39.7897 Y8.8421
G01 X39.7828 Y8.8392
G01 X39.7762 Y8.8358
G01 X39.7698 Y8.8319
G01 X39.7638 Y8.8276
G01 X39.7068 Y8.7791
G01 X39.7015 Y8.7743
G01 X39.6966 Y8.7691
G01 X39.6921 Y8.7636
G01 X39.6880 Y8.7578
G01 X39.6090 Y8.6368
G01 X39.4518 Y8.4661
G01 X39.2686 Y8.3235
G01 X39.0645 Y8.2131
G01 X38.8450 Y8.1377
G01 X38.6160 Y8.0995
G01 X38.3840 Y8.0995
G01 X38.1550 Y8.1377
G01 X37.9355 Y8.2131
G01 X37.9319 Y8.2150
G01 X37.7314 Y8.3235
G01 X37.5482 Y8.4661
G01 X37.3910 Y8.6369
G01 X37.2641 Y8.8312
G01 X37.1708 Y9.0437
G01 X37.1139 Y9.2687
G01 X37.0947 Y9.5000
G01 X37.1139 Y9.7313
G01 X37.1708 Y9.9563
G01 X37.2641 Y10.1688
G01 X37.3910 Y10.3632
G01 X37.5482 Y10.5339
G01 X37.7314 Y10.6765
G01 X37.7396 Y10.6811
G01 X37.7481 Y10.6869
G01 X37.7848 Y10.7163
G01 X37.7939 Y10.7246
G01 X37.7988 Y10.7300
G01 X37.8033 Y10.7358
G01 X37.8074 Y10.7419
G01 X37.8110 Y10.7483
G01 X37.8422 Y10.8163
G01 X37.8459 Y10.8255
G01 X37.8486 Y10.8351
G01 X37.8504 Y10.8449
G01 X37.8511 Y10.8523
G01 X37.8512 Y10.8622
G01 X37.8502 Y10.8721
G01 X37.8403 Y10.9412
G01 X37.8378 Y10.9534
G01 X37.8337 Y10.9651
G01 X37.8283 Y10.9763
G01 X37.8215 Y10.9867
G01 X37.8169 Y10.9925
G01 X37.7678 Y11.0490
G01 X37.7587 Y11.0574
G01 X37.7486 Y11.0646
G01 X37.7377 Y11.0705
G01 X37.7261 Y11.0750
G01 X37.6567 Y11.0954
G01 X37.6451 Y11.0981
G01 X37.6356 Y11.0992
G01 X37.6285 Y11.0995
G01 X32.3639 Y11.0995
G01 X32.3541 Y11.0990
G01 X32.3214 Y11.0950
G01 X32.3143 Y11.0939
G01 X32.3050 Y11.0916
G01 X32.2982 Y11.0892
G01 X32.2894 Y11.0854
G01 X32.2207 Y11.0453
G01 X32.2106 Y11.0381
G01 X32.2014 Y11.0297
G01 X32.1934 Y11.0202
G01 X32.1866 Y11.0099
G01 X32.1506 Y10.9386
G01 X32.1478 Y10.9317
G01 X32.1456 Y10.9246
G01 X32.1430 Y10.9125
G01 X32.1420 Y10.9001
G01 X32.1425 Y10.8877
G01 X32.1500 Y10.8157
G01 X32.1517 Y10.8060
G01 X32.1537 Y10.7988
G01 X32.1561 Y10.7918
G01 X32.1591 Y10.7849
G01 X32.1639 Y10.7762
G01 X32.1680 Y10.7700
G01 X32.2193 Y10.7061
G01 X32.2279 Y10.6978
G01 X32.2366 Y10.6912
G01 X32.3912 Y10.5365
G01 X32.5167 Y10.3574
G01 X32.6091 Y10.1592
G01 X32.6303 Y10.0800
G01 X32.3127 Y10.0800
G01 X32.3086 Y10.0913
G01 X32.3057 Y10.0980
G01 X32.2700 Y10.1734
G01 X32.2654 Y10.1821
G01 X32.2199 Y10.2578
G01 X32.1644 Y10.3327
G01 X32.1051 Y10.3982
G01 X32.0982 Y10.4051
G01 X32.0327 Y10.4644
G01 X31.9578 Y10.5199
G01 X31.8821 Y10.5654
G01 X31.8734 Y10.5700
G01 X31.7935 Y10.6077
G01 X31.7058 Y10.6391
G01 X31.6201 Y10.6607
G01 X31.6105 Y10.6626
G01 X31.5231 Y10.6754
G01 X31.4349 Y10.6799
G01 X31.4251 Y10.6799
G01 X31.3418 Y10.6758
G01 X31.3320 Y10.6748
G01 X31.2447 Y10.6617
G01 X31.1590 Y10.6404
G01 X31.1496 Y10.6376
G01 X31.0665 Y10.6077
G01 X30.9866 Y10.5700
G01 X30.9779 Y10.5654
G01 X30.9022 Y10.5199
G01 X30.8312 Y10.4674
G01 X30.8236 Y10.4612
G01 X30.7582 Y10.4018
G01 X30.6956 Y10.3327
G01 X30.6429 Y10.2618
G01 X30.6375 Y10.2536
G01 X30.5910 Y10.1756
G01 X30.5523 Y10.0935
G01 X30.5209 Y10.0058
G01 X30.4983 Y9.9153
G01 X30.4852 Y9.8280
G01 X30.4842 Y9.8182
G01 X30.4800 Y9.7300
G01 X30.4842 Y9.6418
G01 X30.4852 Y9.6320
G01 X30.4983 Y9.5447
G01 X30.5196 Y9.4590
G01 X30.5224 Y9.4496
G01 X30.5505 Y9.3710
G01 X30.5543 Y9.3620
G01 X30.5922 Y9.2822
G01 X30.6401 Y9.2022
G01 X30.6956 Y9.1273
G01 X30.7582 Y9.0582
G01 X30.8273 Y8.9956
G01 X30.9022 Y8.9401
G01 X30.9822 Y8.8922
G01 X31.0620 Y8.8543
G01 X31.0687 Y8.8514
G01 X31.1542 Y8.8209
G01 X31.2447 Y8.7983
G01 X31.3369 Y8.7846
G01 X31.4251 Y8.7801
G01 X31.4349 Y8.7801
G01 X31.5182 Y8.7842
G01 X31.5280 Y8.7852
G01 X31.6153 Y8.7983
G01 X31.7010 Y8.8196
G01 X31.7081 Y8.8216
G01 X31.7935 Y8.8523
G01 X31.8734 Y8.8900
G01 X31.8821 Y8.8946
G01 X31.9536 Y8.9375
G01 X31.9618 Y8.9429
G01 X32.0327 Y8.9956
G01 X32.0982 Y9.0549
G01 X32.1051 Y9.0618
G01 X32.1644 Y9.1273
G01 X32.2199 Y9.2022
G01 X32.2678 Y9.2822
G01 X32.3057 Y9.3620
G01 X32.3086 Y9.3687
G01 X32.3127 Y9.3800
G01 X32.6303 Y9.3800
G01 X32.6091 Y9.3008
G01 X32.5167 Y9.1026
G01 X32.3912 Y8.9234
G01 X32.2366 Y8.7688
G01 X32.0574 Y8.6433
G01 X31.8591 Y8.5509
G01 X31.8428 Y8.5464
G01 X31.8361 Y8.5440
G01 X31.8296 Y8.5411
G01 X31.7829 Y8.5183
G01 X31.7744 Y8.5130
G01 X31.7645 Y8.5053
G01 X31.7574 Y8.4983
G01 X31.7525 Y8.4926
G01 X31.7077 Y8.4326
G01 X31.7036 Y8.4264
G01 X31.7000 Y8.4199
G01 X31.6951 Y8.4085
G01 X31.6916 Y8.3966
G01 X31.6902 Y8.3892
G01 X31.6894 Y8.3818
G01 X31.6843 Y8.3097
G01 X31.6843 Y8.2997
G01 X31.6853 Y8.2899
G01 X31.6867 Y8.2825
G01 X31.6887 Y8.2754
G01 X31.6921 Y8.2660
G01 X31.6953 Y8.2593
G01 X31.7311 Y8.1937
G01 X31.7376 Y8.1838
G01 X31.7453 Y8.1747
G01 X32.9510 Y6.9690
G01 X32.9644 Y6.9565
G01 X32.9863 Y6.9394
G01 X32.9969 Y6.9325
G01 X33.0082 Y6.9271
G01 X33.0177 Y6.9237
G01 X33.0870 Y6.9034
G01 X33.0987 Y6.9010
G01 X33.1082 Y6.9001
G01 X33.5196 Y6.9000
G01 X33.5267 Y6.8811
G01 X33.5387 Y6.8556
G01 X33.5423 Y6.8491
G01 X33.5583 Y6.8230
G01 X33.5766 Y6.7984
G01 X33.5955 Y6.7774
G01 X33.6024 Y6.7705
G01 X33.6253 Y6.7501
G01 X33.6500 Y6.7319
G01 X33.6741 Y6.7173
G01 X33.6828 Y6.7126
G01 X33.7083 Y6.7007
G01 X33.7349 Y6.6911
G01 X33.7443 Y6.6882
G01 X33.7717 Y6.6815
G01 X33.8020 Y6.6769
G01 X33.8375 Y6.6750
G01 X34.3375 Y6.6750
G01 X34.3706 Y6.6766
G01 X34.4033 Y6.6815
G01 X34.4307 Y6.6882
G01 X34.4401 Y6.6911
G01 X34.4667 Y6.7007
G01 X34.4922 Y6.7126
G01 X34.5009 Y6.7173
G01 X34.5250 Y6.7319
G01 X34.5516 Y6.7516
G01 X34.5761 Y6.7739
G01 X34.5984 Y6.7984
G01 X34.6181 Y6.8250
G01 X34.6327 Y6.8491
G01 X34.6374 Y6.8578
G01 X34.6483 Y6.8811
G01 X34.6511 Y6.8879
G01 X34.6612 Y6.9169
G01 X34.6680 Y6.9443
G01 X34.6694 Y6.9515
G01 X34.6734 Y6.9794
G01 X34.6750 Y7.0125
G01 X34.6750 Y7.4875
G01 X34.6736 Y7.5181
G01 X34.6694 Y7.5485
G01 X34.6674 Y7.5581
G01 X34.6605 Y7.5855
G01 X34.6493 Y7.6167
G01 X34.6374 Y7.6422
G01 X34.6327 Y7.6509
G01 X34.6181 Y7.6750
G01 X34.5984 Y7.7016
G01 X34.5761 Y7.7261
G01 X34.5553 Y7.7452
G01 X34.5477 Y7.7514
G01 X34.5250 Y7.7681
G01 X34.5009 Y7.7827
G01 X34.4922 Y7.7874
G01 X34.4667 Y7.7993
G01 X34.4375 Y7.8098
G01 X34.4375 Y8.1193
G01 X34.4666 Y8.1163
G01 X34.6088 Y8.0692
G01 X34.7356 Y7.9910
G01 X34.8465 Y7.8804
G01 X34.8520 Y7.8760
G01 X34.8579 Y7.8719
G01 X34.9022 Y7.8434
G01 X34.9109 Y7.8384
G01 X34.9177 Y7.8353
G01 X34.9271 Y7.8319
G01 X34.9344 Y7.8300
G01 X34.9417 Y7.8286
G01 X34.9492 Y7.8278
G01 X35.0189 Y7.8228
G01 X35.0263 Y7.8225
G01 X35.0362 Y7.8231
G01 X35.0460 Y7.8246
G01 X35.0557 Y7.8270
G01 X35.0650 Y7.8304
G01 X35.0739 Y7.8348
G01 X35.1353 Y7.8682
G01 X35.1434 Y7.8732
G01 X35.1510 Y7.8789
G01 X35.1580 Y7.8853
G01 X35.2641 Y7.9914
G01 X35.3910 Y8.0697
G01 X35.5333 Y8.1168
G01 X35.6184 Y8.1255
G01 X36.2066 Y8.1255
G01 X36.2917 Y8.1168
G01 X36.4340 Y8.0697
G01 X36.5609 Y7.9914
G01 X36.6664 Y7.8859
G01 X36.7447 Y7.7590
G01 X36.7918 Y7.6167
G01 X36.8005 Y7.5316
G01 X36.8005 Y6.9684
G01 X36.7918 Y6.8833
G01 X36.7447 Y6.7410
G01 X36.7338 Y6.7232
G01 X36.7209 Y6.6971
G01 X36.7171 Y6.6883
G01 X36.7136 Y6.6768
G01 X36.7121 Y6.6698
G01 X36.7112 Y6.6627
G01 X36.7060 Y6.5906
G01 X36.7058 Y6.5807
G01 X36.7069 Y6.5683
G01 X36.7083 Y6.5610
G01 X36.7102 Y6.5538
G01 X36.7127 Y6.5468
G01 X36.7157 Y6.5400
G01 X36.7515 Y6.4742
G01 X36.7564 Y6.4661
G01 X36.7621 Y6.4585
G01 X36.7685 Y6.4514
G01 X36.8637 Y6.3562
G01 X36.9436 Y6.2268
G01 X36.9916 Y6.0817
G01 X37.0005 Y5.9949
G01 X37.0005 Y5.0051
G01 X36.9916 Y4.9183
G01 X36.9436 Y4.7732
G01 X36.8606 Y4.6388
G01 X36.8551 Y4.6310
G01 X36.8407 Y4.6086
G01 X36.8372 Y4.6023
G01 X36.8341 Y4.5958
G01 X36.8301 Y4.5845
G01 X36.8279 Y4.5752
G01 X36.8144 Y4.5041
G01 X36.8135 Y4.4967
G01 X36.8131 Y4.4868
G01 X36.8134 Y4.4793
G01 X36.8148 Y4.4695
G01 X36.8164 Y4.4622
G01 X36.8186 Y4.4551
G01 X36.8494 Y4.3791
G01 X36.8540 Y4.3708
G01 X36.8607 Y4.3612
G01 X36.9436 Y4.2268
G01 X36.9916 Y4.0817
G01 X37.0005 Y3.9949
G01 X37.0005 Y3.0051
G01 X36.9916 Y2.9183
G01 X36.9436 Y2.7732
G01 X36.8637 Y2.6438
G01 X36.7668 Y2.5468
G01 X36.7466 Y2.5226
G01 X36.7409 Y2.5149
G01 X36.7371 Y2.5088
G01 X36.7337 Y2.5024
G01 X36.7292 Y2.4914
G01 X36.7075 Y2.4224
G01 X36.7056 Y2.4152
G01 X36.7041 Y2.4079
G01 X36.7031 Y2.3981
G01 X36.7029 Y2.3906
G01 X36.7034 Y2.3832
G01 X36.7048 Y2.3733
G01 X36.7065 Y2.3661
G01 X36.7256 Y2.2964
G01 X36.7287 Y2.2874
G01 X36.7327 Y2.2788
G01 X36.7447 Y2.2590
G01 X36.7918 Y2.1167
G01 X36.8005 Y2.0316
G01 X36.8005 Y1.4684
G01 X36.7918 Y1.3833
G01 X36.7447 Y1.2410
G01 X36.6664 Y1.1141
G01 X36.5609 Y1.0086
G01 X36.4340 Y0.9303
G01 X36.2917 Y0.8832
G01 X36.2066 Y0.8745
G01 X35.6184 Y0.8745
G01 X35.5333 Y0.8832
G01 X35.3910 Y0.9303
G01 X35.2641 Y1.0086
G01 X35.1528 Y1.1196
G01 X35.1473 Y1.1240
G01 X35.1414 Y1.1281
G01 X35.0970 Y1.1566
G01 X35.0884 Y1.1616
G01 X35.0816 Y1.1647
G01 X35.0746 Y1.1674
G01 X35.0674 Y1.1695
G01 X35.0576 Y1.1714
G01 X35.0501 Y1.1722
G01 X34.9804 Y1.1772
G01 X34.9730 Y1.1775
G01 X34.9631 Y1.1769
G01 X34.9532 Y1.1754
G01 X34.9436 Y1.1730
G01 X34.9343 Y1.1696
G01 X34.9254 Y1.1652
G01 X34.8640 Y1.1318
G01 X34.8559 Y1.1268
G01 X34.8483 Y1.1211
G01 X34.8413 Y1.1147
G01 X34.7356 Y1.0090
G01 X34.6088 Y0.9308
G01 X34.4666 Y0.8837
G01 X34.4375 Y0.8807
G01 X34.4375 Y1.1902
G01 X34.4667 Y1.2007
G01 X34.4922 Y1.2126
G01 X34.5009 Y1.2173
G01 X34.5250 Y1.2319
G01 X34.5516 Y1.2516
G01 X34.5726 Y1.2705
G01 X34.5795 Y1.2774
G01 X34.5984 Y1.2984
G01 X34.6181 Y1.3250
G01 X34.6327 Y1.3491
G01 X34.6374 Y1.3578
G01 X34.6493 Y1.3833
G01 X34.6589 Y1.4099
G01 X34.6618 Y1.4193
G01 X34.6685 Y1.4467
G01 X34.6734 Y1.4794
G01 X34.6750 Y1.5125
G01 X34.6750 Y1.9875
G01 X34.6734 Y2.0206
G01 X34.6694 Y2.0485
G01 X34.6674 Y2.0581
G01 X34.6612 Y2.0831
G01 X34.6589 Y2.0901
G01 X34.6493 Y2.1167
G01 X34.6340 Y2.1487
G01 X34.6181 Y2.1750
G01 X34.5984 Y2.2016
G01 X34.5761 Y2.2261
G01 X34.5553 Y2.2452
G01 X34.5497 Y2.2499
G01 X34.5290 Y2.2653
G01 X34.5209 Y2.2707
G01 X34.4966 Y2.2851
G01 X34.4667 Y2.2993
G01 X34.4401 Y2.3089
G01 X34.4307 Y2.3118
G01 X34.4033 Y2.3185
G01 X34.3706 Y2.3234
G01 X34.3375 Y2.3250
G01 X33.8375 Y2.3250
G01 X33.8044 Y2.3234
G01 X33.7717 Y2.3185
G01 X33.7443 Y2.3118
G01 X33.7349 Y2.3089
G01 X33.7083 Y2.2993
G01 X33.6828 Y2.2874
G01 X33.6741 Y2.2827
G01 X33.6500 Y2.2681
G01 X33.6253 Y2.2499
G01 X33.6024 Y2.2295
G01 X33.5955 Y2.2226
G01 X33.5766 Y2.2016
G01 X33.5583 Y2.1770
G01 X33.5423 Y2.1509
G01 X33.5387 Y2.1444
G01 X33.5267 Y2.1189
G01 X33.5196 Y2.1000
G01 X33.2070 Y2.1000
G01 X33.2087 Y2.1166
G01 X33.2558 Y2.2588
G01 X33.2666 Y2.2765
G01 X33.2795 Y2.3026
G01 X33.2841 Y2.3136
G01 X33.2868 Y2.3228
G01 X33.2882 Y2.3298
G01 X33.2892 Y2.3370
G01 X33.2946 Y2.4140
G01 X33.2945 Y2.4215
G01 X33.2938 Y2.4289
G01 X33.2926 Y2.4362
G01 X33.2908 Y2.4435
G01 X33.2876 Y2.4529
G01 X33.2835 Y2.4619
G01 X33.2489 Y2.5254
G01 X33.2453 Y2.5316
G01 X33.2412 Y2.5374
G01 X33.2367 Y2.5430
G01 X33.2318 Y2.5482
G01 X33.1363 Y2.6438
G01 X33.0750 Y2.7431
G01 X33.0694 Y2.7513
G01 X33.0613 Y2.7607
G01 X33.0228 Y2.7999
G01 X33.0138 Y2.8080
G01 X33.0059 Y2.8137
G01 X32.9997 Y2.8174
G01 X32.9932 Y2.8207
G01 X32.9842 Y2.8243
G01 X32.9102 Y2.8461
G01 X32.9009 Y2.8481
G01 X32.8939 Y2.8490
G01 X32.8844 Y2.8495
G01 X32.5127 Y2.8495
G01 X32.4370 Y2.8474
G01 X32.4297 Y2.8481
G01 X32.3575 Y2.8652
G01 X32.2882 Y2.8795
G01 X32.2812 Y2.8819
G01 X32.2182 Y2.9136
G01 X32.1509 Y2.9451
G01 X32.1488 Y2.9463
G01 X32.1446 Y2.9490
G01 X32.0905 Y2.9945
G01 X32.0668 Y3.0133
G01 X32.0543 Y3.0248
G01 X32.0236 Y3.0506
G01 X32.0133 Y3.0643
G01 X31.9950 Y3.0851
G01 X31.0490 Y4.0310
G01 X30.9940 Y4.0831
G01 X30.9893 Y4.0888
G01 X30.9522 Y4.1489
G01 X30.9115 Y4.2110
G01 X30.9083 Y4.2177
G01 X30.8860 Y4.2847
G01 X30.8607 Y4.3545
G01 X30.8602 Y4.3568
G01 X30.8591 Y4.3617
G01 X30.8529 Y4.4321
G01 X30.8495 Y4.4621
G01 X30.8488 Y4.4792
G01 X30.8453 Y4.5190
G01 X30.8477 Y4.5361
G01 X30.8495 Y4.5637
G01 X30.8495 Y5.7628
G01 X30.8492 Y5.7708
G01 X30.8461 Y5.7998
G01 X30.8450 Y5.8071
G01 X30.8434 Y5.8143
G01 X30.8396 Y5.8259
G01 X30.8344 Y5.8371
G01 X30.7998 Y5.9005
G01 X30.7946 Y5.9085
G01 X30.7888 Y5.9159
G01 X30.7839 Y5.9212
G01 X30.4976 Y6.2074
G01 X30.4837 Y6.2198
G01 X30.4780 Y6.2244
G01 X30.4699 Y6.2297
G01 X30.4614 Y6.2343
G01 X30.3877 Y6.2647
G01 X30.3758 Y6.2681
G01 X30.3684 Y6.2694
G01 X30.3610 Y6.2702
G01 X30.3486 Y6.2703
G01 X30.3363 Y6.2688
G01 X30.2651 Y6.2559
G01 X30.2555 Y6.2534
G01 X30.2439 Y6.2489
G01 X30.2373 Y6.2456
G01 X30.2309 Y6.2417
G01 X30.2209 Y6.2343
G01 X30.1627 Y6.1800
G01 X30.1564 Y6.1729
G01 X30.1496 Y6.1632
G01 X30.0884 Y6.0599
G01 X29.9901 Y5.9616
G01 X29.9744 Y5.9520
G01 X29.9669 Y5.9463
G01 X29.9616 Y5.9415
G01 X29.9108 Y5.8875
G01 X29.9060 Y5.8819
G01 X29.9015 Y5.8759
G01 X29.8963 Y5.8675
G01 X29.8930 Y5.8609
G01 X29.8893 Y5.8517
G01 X29.8871 Y5.8446
G01 X29.8855 Y5.8374
G01 X29.8718 Y5.7625
G01 X29.5598 Y5.7625
G01 X29.5493 Y5.7917
G01 X29.5374 Y5.8172
G01 X29.5327 Y5.8259
G01 X29.5181 Y5.8500
G01 X29.5014 Y5.8727
G01 X29.4952 Y5.8803
G01 X29.4761 Y5.9011
G01 X29.4516 Y5.9234
G01 X29.4250 Y5.9431
G01 X29.4009 Y5.9577
G01 X29.3922 Y5.9624
G01 X29.3667 Y5.9743
G01 X29.3355 Y5.9855
G01 X29.3081 Y5.9924
G01 X29.2985 Y5.9944
G01 X29.2730 Y5.9981
G01 X29.2657 Y5.9987
G01 X29.2375 Y6.0000
G01 X28.7625 Y6.0000
G01 X28.7270 Y5.9981
G01 X28.6967 Y5.9935
G01 X28.6693 Y5.9868
G01 X28.6599 Y5.9839
G01 X28.6333 Y5.9743
G01 X28.6078 Y5.9624
G01 X28.6013 Y5.9590
G01 X28.5791 Y5.9457
G01 X28.5710 Y5.9403
G01 X28.5484 Y5.9234
G01 X28.5239 Y5.9011
G01 X28.5016 Y5.8766
G01 X28.4820 Y5.8501
G01 X28.1479 Y5.8501
G01 X28.1482 Y5.8597
G01 X28.1476 Y5.8696
G01 X28.1373 Y5.9412
G01 X28.1348 Y5.9534
G01 X28.1308 Y5.9651
G01 X28.1253 Y5.9763
G01 X28.1214 Y5.9826
G01 X28.1170 Y5.9887
G01 X28.0681 Y6.0453
G01 X28.0594 Y6.0542
G01 X28.0497 Y6.0619
G01 X28.0391 Y6.0683
G01 X28.0278 Y6.0734
G01 X28.0207 Y6.0758
G01 X27.9514 Y6.0961
G01 X27.9397 Y6.0985
G01 X27.9279 Y6.0995
G01 X21.8181 Y6.0995
G01 X21.8101 Y6.0989
G01 X21.7789 Y6.0954
G01 X21.7693 Y6.0934
G01 X21.7599 Y6.0905
G01 X21.7531 Y6.0877
G01 X21.7465 Y6.0844
G01 X21.6811 Y6.0486
G01 X21.6732 Y6.0432
G01 X21.6641 Y6.0356
G01 X21.5901 Y5.9616
G01 X21.4704 Y5.8908
G01 X21.3345 Y5.8513
G01 X21.3197 Y5.8501
G01 X20.2803 Y5.8501
G01 X20.2655 Y5.8513
G01 X20.1570 Y5.8827
G01 X20.1328 Y5.8878
G01 X20.1252 Y5.8888
G01 X20.1176 Y5.8891
G01 X20.1100 Y5.8889
G01 X20.1024 Y5.8881
G01 X20.0333 Y5.8782
G01 X20.0211 Y5.8757
G01 X20.0094 Y5.8716
G01 X19.9982 Y5.8662
G01 X19.9878 Y5.8594
G01 X19.9766 Y5.8501
G01 X19.5180 Y5.8501
G01 X19.5014 Y5.8727
G01 X19.4952 Y5.8803
G01 X19.4761 Y5.9011
G01 X19.4553 Y5.9202
G01 X19.4477 Y5.9264
G01 X19.4250 Y5.9431
G01 X19.3966 Y5.9601
G01 X19.3711 Y5.9723
G01 X19.3621 Y5.9761
G01 X19.3355 Y5.9855
G01 X19.3081 Y5.9924
G01 X19.2985 Y5.9944
G01 X19.2706 Y5.9984
G01 X19.2375 Y6.0000
G01 X18.7625 Y6.0000
G01 X18.7343 Y5.9987
G01 X18.7245 Y5.9978
G01 X18.6991 Y5.9940
G01 X18.6919 Y5.9924
G01 X18.6645 Y5.9855
G01 X18.6379 Y5.9761
G01 X18.6311 Y5.9733
G01 X18.6056 Y5.9613
G01 X18.5791 Y5.9457
G01 X18.5710 Y5.9403
G01 X18.5484 Y5.9234
G01 X18.5239 Y5.9011
G01 X18.5016 Y5.8766
G01 X18.4820 Y5.8501
G01 X18.1479 Y5.8501
G01 X18.1482 Y5.8597
G01 X18.1476 Y5.8696
G01 X18.1373 Y5.9412
G01 X18.1348 Y5.9534
G01 X18.1308 Y5.9651
G01 X18.1253 Y5.9763
G01 X18.1214 Y5.9826
G01 X18.1170 Y5.9887
G01 X18.0681 Y6.0453
G01 X18.0594 Y6.0542
G01 X18.0497 Y6.0619
G01 X18.0391 Y6.0683
G01 X18.0278 Y6.0734
G01 X18.0207 Y6.0758
G01 X17.9514 Y6.0961
G01 X17.9397 Y6.0985
G01 X17.9279 Y6.0995
G01 X11.8181 Y6.0995
G01 X11.8101 Y6.0989
G01 X11.7789 Y6.0954
G01 X11.7693 Y6.0934
G01 X11.7599 Y6.0905
G01 X11.7531 Y6.0877
G01 X11.7465 Y6.0844
G01 X11.6811 Y6.0486
G01 X11.6713 Y6.0418
G01 X11.6641 Y6.0356
G01 X11.5901 Y5.9616
G01 X11.4704 Y5.8908
G01 X11.3345 Y5.8513
G01 X11.3197 Y5.8501
G01 X10.2803 Y5.8501
G01 X10.2655 Y5.8513
G01 X10.1570 Y5.8827
G01 X10.1328 Y5.8878
G01 X10.1252 Y5.8888
G01 X10.1176 Y5.8891
G01 X10.1100 Y5.8889
G01 X10.1024 Y5.8881
G01 X10.0333 Y5.8782
G01 X10.0211 Y5.8757
G01 X10.0094 Y5.8716
G01 X9.9982 Y5.8662
G01 X9.9878 Y5.8594
G01 X9.9766 Y5.8501
G01 X9.5180 Y5.8501
G01 X9.4984 Y5.8766
G01 X9.4761 Y5.9011
G01 X9.4516 Y5.9234
G01 X9.4250 Y5.9431
G01 X9.3966 Y5.9601
G01 X9.3667 Y5.9743
G01 X9.3355 Y5.9855
G01 X9.3033 Y5.9935
G01 X9.2706 Y5.9984
G01 X9.2375 Y6.0000
G01 X8.7625 Y6.0000
G01 X8.7294 Y5.9984
G01 X8.6967 Y5.9935
G01 X8.6693 Y5.9868
G01 X8.6599 Y5.9839
G01 X8.6333 Y5.9743
G01 X8.6034 Y5.9601
G01 X8.5791 Y5.9457
G01 X8.5710 Y5.9403
G01 X8.5484 Y5.9234
G01 X8.5274 Y5.9045
G01 X8.5205 Y5.8976
G01 X8.5016 Y5.8766
G01 X8.4819 Y5.8500
G01 X8.4673 Y5.8259
G01 X8.4626 Y5.8172
G01 X8.4507 Y5.7917
G01 X8.4402 Y5.7625
G01 X8.1307 Y5.7625
G01 X8.1337 Y5.7916
G01 X8.1400 Y5.8114
G01 X8.1466 Y5.8398
G01 X8.1479 Y5.8497
G01 X8.1482 Y5.8622
G01 X8.1472 Y5.8721
G01 X8.1365 Y5.9461
G01 X8.1348 Y5.9534
G01 X8.1317 Y5.9628
G01 X8.1277 Y5.9719
G01 X8.1241 Y5.9784
G01 X8.1200 Y5.9847
G01 X8.1155 Y5.9906
G01 X8.0665 Y6.0472
G01 X8.0576 Y6.0558
G01 X8.0517 Y6.0604
G01 X8.0456 Y6.0646
G01 X8.0347 Y6.0705
G01 X8.0278 Y6.0734
G01 X8.0207 Y6.0758
G01 X7.9514 Y6.0961
G01 X7.9421 Y6.0981
G01 X7.9303 Y6.0994
G01 X1.8208 Y6.0995
G01 X1.8128 Y6.0992
G01 X1.7765 Y6.0950
G01 X1.7669 Y6.0928
G01 X1.7576 Y6.0896
G01 X1.7465 Y6.0844
G01 X1.6811 Y6.0486
G01 X1.6732 Y6.0432
G01 X1.6641 Y6.0356
G01 X1.5901 Y5.9616
G01 X1.4704 Y5.8908
G01 X1.3345 Y5.8513
G01 X1.3118 Y5.8495
G01 X0.2882 Y5.8495
G01 X0.2655 Y5.8513
G01 X0.1847 Y5.8747
G01 X0.1633 Y5.8795
G01 X0.1507 Y5.8814
G01 X0.1380 Y5.8816
G01 X0.1279 Y5.8807
G01 X0.0539 Y5.8699
G01 X0.0419 Y5.8668
G01 X0.0349 Y5.8642
G01 X0.0281 Y5.8611
G01 X0.0174 Y5.8549
G01 X0.0075 Y5.8474
G01 X-0.0472 Y5.8000
G01 X-0.0542 Y5.7929
G01 X-0.0619 Y5.7832
G01 X-0.0659 Y5.7769
G01 X-0.0694 Y5.7704
G01 X-0.0725 Y5.7636
G01 X-0.0750 Y5.7566
G01 X-0.0954 Y5.6872
G01 X-0.0972 Y5.6802
G01 X-0.0985 Y5.6732
G01 X-0.0992 Y5.6661
G01 X-0.0995 Y5.6590
G01 X-0.0994 Y5.5863
G01 X-0.0976 Y5.5617
G01 X-0.0958 Y5.5517
G01 X-0.0939 Y5.5443
G01 X-0.0894 Y5.5324
G01 X-0.0584 Y5.4643
G01 X-0.0547 Y5.4578
G01 X-0.0506 Y5.4516
G01 X-0.0427 Y5.4420
G01 X-0.0356 Y5.4351
G01 X-0.0258 Y5.4275
G01 X0.0349 Y5.3882
G01 X0.0457 Y5.3821
G01 X0.0526 Y5.3791
G01 X0.0596 Y5.3766
G01 X0.0668 Y5.3747
G01 X0.0741 Y5.3733
G01 X0.0865 Y5.3722
G01 X0.1588 Y5.3719
G01 X0.1683 Y5.3724
G01 X0.1777 Y5.3737
G01 X0.1847 Y5.3753
G01 X0.2655 Y5.3987
G01 X0.2882 Y5.4005
G01 X1.3118 Y5.4005
G01 X1.3345 Y5.3987
G01 X1.4704 Y5.3592
G01 X1.5901 Y5.2884
G01 X1.6884 Y5.1901
G01 X1.7592 Y5.0704
G01 X1.7987 Y4.9345
G01 X1.8005 Y4.9118
G01 X1.8005 Y4.0882
G01 X1.7987 Y4.0655
G01 X1.7592 Y3.9296
G01 X1.6884 Y3.8099
G01 X1.5901 Y3.7116
G01 X1.4704 Y3.6408
G01 X1.3345 Y3.6013
G01 X1.3118 Y3.5995
G01 X0.2882 Y3.5995
G01 X0.2655 Y3.6013
G01 X0.1847 Y3.6247
G01 X0.1608 Y3.6300
G01 X0.1507 Y3.6314
G01 X0.1406 Y3.6317
G01 X0.1304 Y3.6310
G01 X0.0588 Y3.6208
G01 X0.0466 Y3.6182
G01 X0.0349 Y3.6142
G01 X0.0237 Y3.6088
G01 X0.0153 Y3.6035
G01 X0.0075 Y3.5974
G01 X-0.0472 Y3.5500
G01 X-0.0542 Y3.5429
G01 X-0.0604 Y3.5352
G01 X-0.0659 Y3.5269
G01 X-0.0694 Y3.5204
G01 X-0.0725 Y3.5136
G01 X-0.0750 Y3.5066
G01 X-0.0967 Y3.4326
G01 X-0.0988 Y3.4209
G01 X-0.0995 Y3.4090
G00 Z2.0000
G00 X0.0000 Y4.8500
G01 F50.00
G01 Z-0.0500
G01 F50.00
G01 X0.0000 Y4.1500
G01 X0.0017 Y4.1157
G01 X0.0058 Y4.0865
G01 X0.0089 Y4.0721
G01 X0.0151 Y4.0484
G01 X0.0266 Y4.0161
G01 X0.0413 Y3.9850
G01 X0.0537 Y3.9638
G01 X0.0618 Y3.9515
G01 X0.0764 Y3.9318
G01 X0.0826 Y3.9242
G01 X0.0991 Y3.9060
G01 X0.1096 Y3.8957
G01 X0.1280 Y3.8794
G01 X0.1475 Y3.8646
G01 X0.1597 Y3.8563
G01 X0.1807 Y3.8437
G01 X0.1938 Y3.8369
G01 X0.2161 Y3.8266
G01 X0.2391 Y3.8182
G01 X0.2531 Y3.8137
G01 X0.2769 Y3.8077
G01 X0.2914 Y3.8050
G01 X0.3157 Y3.8017
G01 X0.3402 Y3.8002
G01 X1.2500 Y3.8000
G01 X1.2843 Y3.8017
G01 X1.3086 Y3.8050
G01 X1.3231 Y3.8077
G01 X1.3516 Y3.8151
G01 X1.3748 Y3.8231
G01 X1.3885 Y3.8286
G01 X1.4106 Y3.8391
G01 X1.4235 Y3.8462
G01 X1.4444 Y3.8590
G01 X1.4643 Y3.8734
G01 X1.4758 Y3.8826
G01 X1.4940 Y3.8991
G01 X1.5043 Y3.9096
G01 X1.5206 Y3.9280
G01 X1.5354 Y3.9475
G01 X1.5437 Y3.9597
G01 X1.5563 Y3.9807
G01 X1.5631 Y3.9938
G01 X1.5734 Y4.0161
G01 X1.5818 Y4.0391
G01 X1.5863 Y4.0531
G01 X1.5923 Y4.0769
G01 X1.5950 Y4.0914
G01 X1.5983 Y4.1157
G01 X1.5998 Y4.1402
G01 X1.6000 Y4.8500
G01 X1.5990 Y4.8745
G01 X1.5978 Y4.8892
G01 X1.5942 Y4.9135
G01 X1.5911 Y4.9279
G01 X1.5849 Y4.9516
G01 X1.5769 Y4.9748
G01 X1.5714 Y4.9885
G01 X1.5609 Y5.0106
G01 X1.5538 Y5.0235
G01 X1.5410 Y5.0444
G01 X1.5266 Y5.0643
G01 X1.5174 Y5.0758
G01 X1.5009 Y5.0940
G01 X1.4904 Y5.1043
G01 X1.4720 Y5.1206
G01 X1.4525 Y5.1354
G01 X1.4403 Y5.1437
G01 X1.4193 Y5.1563
G01 X1.4062 Y5.1631
G01 X1.3839 Y5.1734
G01 X1.3609 Y5.1818
G01 X1.3469 Y5.1863
G01 X1.3183 Y5.1933
G01 X1.2940 Y5.1971
G01 X1.2794 Y5.1987
G01 X1.2549 Y5.1999
G01 X0.3500 Y5.2000
G01 X0.3157 Y5.1983
G01 X0.2914 Y5.1950
G01 X0.2769 Y5.1923
G01 X0.2484 Y5.1849
G01 X0.2161 Y5.1734
G01 X0.1894 Y5.1609
G01 X0.1807 Y5.1563
G01 X0.1638 Y5.1463
G01 X0.1475 Y5.1354
G01 X0.1318 Y5.1236
G01 X0.1242 Y5.1174
G01 X0.1025 Y5.0975
G01 X0.0794 Y5.0720
G01 X0.0590 Y5.0444
G01 X0.0437 Y5.0193
G01 X0.0391 Y5.0106
G01 X0.0286 Y4.9885
G01 X0.0248 Y4.9794
G01 X0.0182 Y4.9609
G01 X0.0125 Y4.9421
G01 X0.0077 Y4.9231
G01 X0.0058 Y4.9135
G01 X0.0017 Y4.8843
G01 X0.0000 Y4.8500
G00 Z2.0000
G00 X0.1000 Y4.8500
G01 F50.00
G01 Z-0.0500
G01 F50.00
G01 X0.1000 Y4.1500
G01 X0.1015 Y4.1231
G01 X0.1053 Y4.0988
G01 X0.1101 Y4.0798
G01 X0.1123 Y4.0728
G01 X0.1190 Y4.0543
G01 X0.1273 Y4.0365
G01 X0.1307 Y4.0300
G01 X0.1408 Y4.0132
G01 X0.1567 Y3.9914
G01 X0.1732 Y3.9732
G01 X0.1914 Y3.9567
G01 X0.2071 Y3.9450
G01 X0.2153 Y3.9395
G01 X0.2322 Y3.9295
G01 X0.2498 Y3.9210
G01 X0.2589 Y3.9173
G01 X0.2774 Y3.9108
G01 X0.2964 Y3.9059
G01 X0.3061 Y3.9040
G01 X0.3255 Y3.9012
G01 X0.3475 Y3.9000
G01 X1.2500 Y3.9000
G01 X1.2696 Y3.9008
G01 X1.2794 Y3.9018
G01 X1.2988 Y3.9048
G01 X1.3249 Y3.9115
G01 X1.3434 Y3.9181
G01 X1.3502 Y3.9210
G01 X1.3678 Y3.9295
G01 X1.3847 Y3.9395
G01 X1.3929 Y3.9450
G01 X1.4086 Y3.9567
G01 X1.4268 Y3.9732
G01 X1.4433 Y3.9914
G01 X1.4550 Y4.0071
G01 X1.4605 Y4.0153
G01 X1.4705 Y4.0322
G01 X1.4790 Y4.0498
G01 X1.4827 Y4.0589
G01 X1.4892 Y4.0774
G01 X1.4941 Y4.0964
G01 X1.4960 Y4.1061
G01 X1.4988 Y4.1255
G01 X1.4999 Y4.1451
G01 X1.5000 Y4.8500
G01 X1.4990 Y4.8721
G01 X1.4952 Y4.8988
G01 X1.4885 Y4.9249
G01 X1.4819 Y4.9434
G01 X1.4790 Y4.9502
G01 X1.4705 Y4.9678
G01 X1.4605 Y4.9847
G01 X1.4550 Y4.9929
G01 X1.4433 Y5.0086
G01 X1.4268 Y5.0268
G01 X1.4086 Y5.0433
G01 X1.3929 Y5.0550
G01 X1.3847 Y5.0605
G01 X1.3678 Y5.0705
G01 X1.3502 Y5.0790
G01 X1.3411 Y5.0827
G01 X1.3226 Y5.0892
G01 X1.3036 Y5.0941
G01 X1.2939 Y5.0960
G01 X1.2745 Y5.0988
G01 X1.2525 Y5.1000
G01 X0.3500 Y5.1000
G01 X0.3255 Y5.0988
G01 X0.3036 Y5.0956
G01 X0.2798 Y5.0899
G01 X0.2589 Y5.0827
G01 X0.2498 Y5.0790
G01 X0.2343 Y5.0716
G01 X0.2279 Y5.0681
G01 X0.2111 Y5.0579
G01 X0.1914 Y5.0433
G01 X0.1732 Y5.0268
G01 X0.1567 Y5.0086
G01 X0.1421 Y4.9889
G01 X0.1295 Y4.9678
G01 X0.1190 Y4.9457
G01 X0.1123 Y4.9272
G01 X0.1101 Y4.9202
G01 X0.1059 Y4.9036
G01 X0.1040 Y4.8939
G01 X0.1012 Y4.8745
G01 X0.1000 Y4.8500
G00 Z2.0000
G00 X0.1000 Y7.1000
G01 F50.00
G01 Z-0.0500
G01 F50.00
G01 X0.1000 Y6.4000
G01 X0.1012 Y6.3755
G01 X0.1040 Y6.3561
G01 X0.1059 Y6.3464
G01 X0.1108 Y6.3274
G01 X0.1181 Y6.3066
G01 X0.1273 Y6.2865
G01 X0.1319 Y6.2779
G01 X0.1421 Y6.2611
G01 X0.1567 Y6.2414
G01 X0.1732 Y6.2232
G01 X0.1877 Y6.2100
G01 X0.1953 Y6.2037
G01 X0.2091 Y6.1935
G01 X0.2153 Y6.1895
G01 X0.2322 Y6.1795
G01 X0.2543 Y6.1690
G01 X0.2728 Y6.1623
G01 X0.2822 Y6.1595
G01 X0.3012 Y6.1548
G01 X0.3255 Y6.1512
G01 X0.3500 Y6.1500
G01 X1.2500 Y6.1500
G01 X1.2745 Y6.1512
G01 X1.3012 Y6.1553
G01 X1.3226 Y6.1608
G01 X1.3457 Y6.1690
G01 X1.3678 Y6.1795
G01 X1.3847 Y6.1895
G01 X1.3909 Y6.1935
G01 X1.4047 Y6.2037
G01 X1.4123 Y6.2100
G01 X1.4268 Y6.2232
G01 X1.4433 Y6.2414
G01 X1.4579 Y6.2611
G01 X1.4681 Y6.2779
G01 X1.4716 Y6.2843
G01 X1.4790 Y6.2998
G01 X1.4827 Y6.3089
G01 X1.4892 Y6.3274
G01 X1.4952 Y6.3512
G01 X1.4988 Y6.3755
G01 X1.5000 Y6.3999
G01 X8.5000 Y6.3999
G01 X8.5012 Y6.3755
G01 X8.5048 Y6.3512
G01 X8.5108 Y6.3274
G01 X8.5173 Y6.3089
G01 X8.5200 Y6.3021
G01 X8.5273 Y6.2865
G01 X8.5319 Y6.2779
G01 X8.5421 Y6.2611
G01 X8.5567 Y6.2414
G01 X8.5732 Y6.2232
G01 X8.5877 Y6.2100
G01 X8.5933 Y6.2052
G01 X8.6071 Y6.1950
G01 X8.6153 Y6.1895
G01 X8.6322 Y6.1795
G01 X8.6543 Y6.1690
G01 X8.6774 Y6.1608
G01 X8.7012 Y6.1548
G01 X8.7255 Y6.1512
G01 X8.7500 Y6.1500
G01 X9.6525 Y6.1500
G01 X9.6745 Y6.1512
G01 X9.6988 Y6.1548
G01 X9.7226 Y6.1608
G01 X9.7434 Y6.1681
G01 X9.7635 Y6.1773
G01 X9.7700 Y6.1807
G01 X9.7889 Y6.1921
G01 X9.8047 Y6.2037
G01 X9.8123 Y6.2100
G01 X9.8268 Y6.2232
G01 X9.8448 Y6.2433
G01 X9.8579 Y6.2611
G01 X9.8681 Y6.2779
G01 X9.8727 Y6.2865
G01 X9.8810 Y6.3043
G01 X9.8877 Y6.3228
G01 X9.8905 Y6.3322
G01 X9.8952 Y6.3512
G01 X9.8982 Y6.3706
G01 X9.8992 Y6.3804
G01 X9.9000 Y6.4000
G01 X9.9000 Y7.1000
G01 X9.8988 Y7.1245
G01 X9.8960 Y7.1439
G01 X9.8941 Y7.1536
G01 X9.8885 Y7.1749
G01 X9.8810 Y7.1957
G01 X9.8705 Y7.2178
G01 X9.8579 Y7.2389
G01 X9.8433 Y7.2586
G01 X9.8268 Y7.2768
G01 X9.8086 Y7.2933
G01 X9.7889 Y7.3079
G01 X9.7657 Y7.3216
G01 X9.7457 Y7.3310
G01 X9.7226 Y7.3392
G01 X9.6988 Y7.3452
G01 X9.6769 Y7.3485
G01 X9.6500 Y7.3500
G01 X9.5501 Y7.3500
G01 X9.5501 Y7.8000
G01 X9.5486 Y7.8319
G01 X9.5434 Y7.8683
G01 X9.5350 Y7.9016
G01 X9.5235 Y7.9340
G01 X9.5099 Y7.9629
G01 X9.4937 Y7.9904
G01 X9.4883 Y7.9985
G01 X9.4707 Y8.0221
G01 X9.4493 Y8.0458
G01 X8.9201 Y8.5750
G01 X8.9201 Y8.7800
G01 X9.4200 Y8.7800
G01 X9.4322 Y8.7808
G01 X9.4395 Y8.7819
G01 X9.4467 Y8.7836
G01 X9.4537 Y8.7858
G01 X9.4605 Y8.7886
G01 X9.4671 Y8.7918
G01 X9.4735 Y8.7955
G01 X9.4796 Y8.7997
G01 X9.4853 Y8.8043
G01 X9.4907 Y8.8093
G01 X9.4957 Y8.8147
G01 X9.5003 Y8.8204
G01 X9.5045 Y8.8265
G01 X9.5082 Y8.8329
G01 X9.5114 Y8.8395
G01 X9.5157 Y8.8510
G01 X9.5176 Y8.8581
G01 X9.5189 Y8.8653
G01 X9.5197 Y8.8726
G01 X9.5200 Y8.8800
G01 X9.5200 Y10.5800
G01 X9.5195 Y10.5898
G01 X9.5185 Y10.5971
G01 X9.5164 Y10.6067
G01 X9.5133 Y10.6160
G01 X9.5104 Y10.6228
G01 X9.5070 Y10.6293
G01 X9.5031 Y10.6356
G01 X9.4988 Y10.6415
G01 X9.4941 Y10.6472
G01 X9.4890 Y10.6524
G01 X9.4834 Y10.6573
G01 X9.4776 Y10.6618
G01 X9.4714 Y10.6658
G01 X9.4650 Y10.6693
G01 X9.4583 Y10.6724
G01 X9.4514 Y10.6750
G01 X9.4443 Y10.6770
G01 X9.4371 Y10.6785
G01 X9.4298 Y10.6795
G01 X9.4225 Y10.6800
G01 X7.7200 Y10.6800
G01 X7.7102 Y10.6795
G01 X7.7029 Y10.6785
G01 X7.6957 Y10.6770
G01 X7.6863 Y10.6742
G01 X7.6795 Y10.6714
G01 X7.6729 Y10.6682
G01 X7.6644 Y10.6631
G01 X7.6585 Y10.6588
G01 X7.6528 Y10.6541
G01 X7.6476 Y10.6490
G01 X7.6412 Y10.6415
G01 X7.6369 Y10.6356
G01 X7.6318 Y10.6271
G01 X7.6286 Y10.6205
G01 X7.6258 Y10.6137
G01 X7.6236 Y10.6067
G01 X7.6211 Y10.5947
G01 X7.6203 Y10.5874
G01 X7.6200 Y10.5800
G01 X7.6200 Y8.8800
G01 X7.6205 Y8.8702
G01 X7.6219 Y8.8605
G01 X7.6243 Y8.8510
G01 X7.6276 Y8.8417
G01 X7.6330 Y8.8307
G01 X7.6369 Y8.8244
G01 X7.6412 Y8.8185
G01 X7.6493 Y8.8093
G01 X7.6547 Y8.8043
G01 X7.6604 Y8.7997
G01 X7.6665 Y8.7955
G01 X7.6729 Y8.7918
G01 X7.6840 Y8.7867
G01 X7.6910 Y8.7843
G01 X7.6981 Y8.7824
G01 X7.7102 Y8.7805
G01 X7.7200 Y8.7800
G01 X8.2199 Y8.7800
G01 X8.2199 Y8.4300
G01 X8.2214 Y8.3981
G01 X8.2266 Y8.3617
G01 X8.2350 Y8.3284
G01 X8.2465 Y8.2960
G01 X8.2624 Y8.2628
G01 X8.2775 Y8.2375
G01 X8.2879 Y8.2231
G01 X8.3009 Y8.2060
G01 X8.3207 Y8.1842
G01 X8.8499 Y7.6550
G01 X8.8499 Y7.3500
G01 X8.7475 Y7.3500
G01 X8.7255 Y7.3488
G01 X8.7036 Y7.3456
G01 X8.6774 Y7.3392
G01 X8.6543 Y7.3310
G01 X8.6322 Y7.3205
G01 X8.6091 Y7.3065
G01 X8.5933 Y7.2948
G01 X8.5877 Y7.2900
G01 X8.5732 Y7.2768
G01 X8.5600 Y7.2623
G01 X8.5537 Y7.2547
G01 X8.5421 Y7.2389
G01 X8.5295 Y7.2178
G01 X8.5190 Y7.1957
G01 X8.5123 Y7.1772
G01 X8.5095 Y7.1678
G01 X8.5048 Y7.1488
G01 X8.5018 Y7.1294
G01 X8.5010 Y7.1221
G01 X8.5000 Y7.1001
G01 X1.5000 Y7.1001
G01 X1.4988 Y7.1245
G01 X1.4952 Y7.1488
G01 X1.4892 Y7.1726
G01 X1.4827 Y7.1911
G01 X1.4800 Y7.1979
G01 X1.4727 Y7.2135
G01 X1.4681 Y7.2221
G01 X1.4579 Y7.2389
G01 X1.4433 Y7.2586
G01 X1.4268 Y7.2768
G01 X1.4123 Y7.2900
G01 X1.4047 Y7.2963
G01 X1.3909 Y7.3065
G01 X1.3847 Y7.3105
G01 X1.3678 Y7.3205
G01 X1.3457 Y7.3310
G01 X1.3226 Y7.3392
G01 X1.3012 Y7.3447
G01 X1.2745 Y7.3488
G01 X1.2500 Y7.3500
G01 X0.3500 Y7.3500
G01 X0.3255 Y7.3488
G01 X0.3012 Y7.3452
G01 X0.2774 Y7.3392
G01 X0.2543 Y7.3310
G01 X0.2322 Y7.3205
G01 X0.2111 Y7.3079
G01 X0.1914 Y7.2933
G01 X0.1732 Y7.2768
G01 X0.1567 Y7.2586
G01 X0.1421 Y7.2389
G01 X0.1295 Y7.2178
G01 X0.1190 Y7.1957
G01 X0.1108 Y7.1726
G01 X0.1048 Y7.1488
G01 X0.1012 Y7.1245
G01 X0.1000 Y7.1000
G00 Z2.0000
G00 X2.5999 Y9.5049
G01 F50.00
G01 Z-0.0500
G01 F50.00
G01 X2.5947 Y9.6078
G01 X2.5789 Y9.7146
G01 X2.5526 Y9.8193
G01 X2.5163 Y9.9210
G01 X2.4701 Y10.0185
G01 X2.4146 Y10.1111
G01 X2.3503 Y10.1978
G01 X2.2778 Y10.2778
G01 X2.1978 Y10.3503
G01 X2.1111 Y10.4146
G01 X2.0185 Y10.4701
G01 X1.9210 Y10.5163
G01 X1.8193 Y10.5526
G01 X1.7146 Y10.5789
G01 X1.6078 Y10.5947
G01 X1.5000 Y10.6000
G01 X1.3922 Y10.5947
G01 X1.2854 Y10.5789
G01 X1.1807 Y10.5526
G01 X1.0790 Y10.5163
G01 X0.9815 Y10.4701
G01 X0.8889 Y10.4146
G01 X0.8022 Y10.3503
G01 X0.7222 Y10.2778
G01 X0.6497 Y10.1978
G01 X0.5854 Y10.1111
G01 X0.5299 Y10.0185
G01 X0.4837 Y9.9210
G01 X0.4474 Y9.8193
G01 X0.4211 Y9.7146
G01 X0.4053 Y9.6078
G01 X0.4000 Y9.5000
G01 X0.4053 Y9.3922
G01 X0.4211 Y9.2854
G01 X0.4474 Y9.1807
G01 X0.4837 Y9.0790
G01 X0.5299 Y8.9815
G01 X0.5854 Y8.8889
G01 X0.6497 Y8.8022
G01 X0.7222 Y8.7222
G01 X0.8022 Y8.6497
G01 X0.8889 Y8.5854
G01 X0.9815 Y8.5299
G01 X1.0790 Y8.4837
G01 X1.1807 Y8.4474
G01 X1.2854 Y8.4211
G01 X1.3922 Y8.4053
G01 X1.5000 Y8.4000
G01 X1.6078 Y8.4053
G01 X1.7146 Y8.4211
G01 X1.8193 Y8.4474
G01 X1.9210 Y8.4837
G01 X2.0185 Y8.5299
G01 X2.1111 Y8.5854
G01 X2.1978 Y8.6497
G01 X2.2778 Y8.7222
G01 X2.3503 Y8.8022
G01 X2.4146 Y8.8889
G01 X2.4701 Y8.9815
G01 X2.5163 Y9.0790
G01 X2.5526 Y9.1807
G01 X2.5789 Y9.2854
G01 X2.5947 Y9.3922
G01 X2.5999 Y9.4951
G01 X2.5999 Y9.5049
G00 Z2.0000
G00 X2.6998 Y9.5098
G01 F50.00
G01 Z-0.0500
G01 F50.00
G01 X2.6942 Y9.6176
G01 X2.6769 Y9.7341
G01 X2.6483 Y9.8483
G01 X2.6087 Y9.9592
G01 X2.5583 Y10.0657
G01 X2.4978 Y10.1667
G01 X2.4276 Y10.2613
G01 X2.3485 Y10.3485
G01 X2.2613 Y10.4276
G01 X2.1667 Y10.4978
G01 X2.0657 Y10.5583
G01 X1.9592 Y10.6087
G01 X1.8483 Y10.6483
G01 X1.7341 Y10.6769
G01 X1.6176 Y10.6942
G01 X1.5000 Y10.7000
G01 X1.3824 Y10.6942
G01 X1.2659 Y10.6769
G01 X1.1517 Y10.6483
G01 X1.0408 Y10.6087
G01 X0.9343 Y10.5583
G01 X0.8333 Y10.4978
G01 X0.7387 Y10.4276
G01 X0.6515 Y10.3485
G01 X0.5724 Y10.2613
G01 X0.5022 Y10.1667
G01 X0.4417 Y10.0657
G01 X0.3913 Y9.9592
G01 X0.3517 Y9.8483
G01 X0.3231 Y9.7341
G01 X0.3058 Y9.6176
G01 X0.3000 Y9.5000
G01 X0.3058 Y9.3824
G01 X0.3231 Y9.2659
G01 X0.3517 Y9.1517
G01 X0.3913 Y9.0408
G01 X0.4417 Y8.9343
G01 X0.5022 Y8.8333
G01 X0.5724 Y8.7387
G01 X0.6515 Y8.6515
G01 X0.7387 Y8.5724
G01 X0.8333 Y8.5022
G01 X0.9343 Y8.4417
G01 X1.0408 Y8.3913
G01 X1.1517 Y8.3517
G01 X1.2659 Y8.3231
G01 X1.3824 Y8.3058
G01 X1.5000 Y8.3000
G01 X1.6176 Y8.3058
G01 X1.7341 Y8.3231
G01 X1.8483 Y8.3517
G01 X1.9592 Y8.3913
G01 X2.0657 Y8.4417
G01 X2.1667 Y8.5022
G01 X2.2613 Y8.5724
G01 X2.3485 Y8.6515
G01 X2.4276 Y8.7387
G01 X2.4978 Y8.8333
G01 X2.5583 Y8.9343
G01 X2.6087 Y9.0408
G01 X2.6483 Y9.1517
G01 X2.6769 Y9.2659
G01 X2.6942 Y9.3824
G01 X2.6998 Y9.4902
G01 X2.6998 Y9.5098
G00 Z2.0000
G00 X2.7996 Y9.5147
G01 F50.00
G01 Z-0.0500
G01 F50.00
G01 X2.7948 Y9.6127
G01 X2.7937 Y9.6274
G01 X2.7919 Y9.6420
G01 X2.7775 Y9.7391
G01 X2.7750 Y9.7536
G01 X2.7718 Y9.7680
G01 X2.7479 Y9.8632
G01 X2.7440 Y9.8774
G01 X2.7394 Y9.8914
G01 X2.7063 Y9.9838
G01 X2.7010 Y9.9975
G01 X2.6951 Y10.0109
G01 X2.6531 Y10.0997
G01 X2.6465 Y10.1128
G01 X2.6392 Y10.1256
G01 X2.5888 Y10.2098
G01 X2.5809 Y10.2222
G01 X2.5724 Y10.2343
G01 X2.5140 Y10.3131
G01 X2.5049 Y10.3247
G01 X2.4953 Y10.3359
G01 X2.4294 Y10.4086
G01 X2.4192 Y10.4192
G01 X2.4086 Y10.4294
G01 X2.3359 Y10.4953
G01 X2.3247 Y10.5049
G01 X2.3131 Y10.5140
G01 X2.2343 Y10.5724
G01 X2.2222 Y10.5809
G01 X2.2098 Y10.5888
G01 X2.1256 Y10.6392
G01 X2.1128 Y10.6465
G01 X2.0997 Y10.6531
G01 X2.0109 Y10.6951
G01 X1.9975 Y10.7010
G01 X1.9838 Y10.7063
G01 X1.8914 Y10.7394
G01 X1.8774 Y10.7440
G01 X1.8632 Y10.7479
G01 X1.7680 Y10.7718
G01 X1.7536 Y10.7750
G01 X1.7391 Y10.7775
G01 X1.6420 Y10.7919
G01 X1.6274 Y10.7937
G01 X1.6127 Y10.7948
G01 X1.5147 Y10.7996
G01 X1.5000 Y10.8000
G01 X1.4853 Y10.7996
G01 X1.3873 Y10.7948
G01 X1.3726 Y10.7937
G01 X1.3580 Y10.7919
G01 X1.2609 Y10.7775
G01 X1.2464 Y10.7750
G01 X1.2320 Y10.7718
G01 X1.1368 Y10.7479
G01 X1.1226 Y10.7440
G01 X1.1086 Y10.7394
G01 X1.0162 Y10.7063
G01 X1.0025 Y10.7010
G01 X0.9891 Y10.6951
G01 X0.9003 Y10.6531
G01 X0.8872 Y10.6465
G01 X0.8744 Y10.6392
G01 X0.7902 Y10.5888
G01 X0.7778 Y10.5809
G01 X0.7657 Y10.5724
G01 X0.6869 Y10.5140
G01 X0.6753 Y10.5049
G01 X0.6641 Y10.4953
G01 X0.5914 Y10.4294
G01 X0.5808 Y10.4192
G01 X0.5706 Y10.4086
G01 X0.5047 Y10.3359
G01 X0.4951 Y10.3247
G01 X0.4860 Y10.3131
G01 X0.4276 Y10.2343
G01 X0.4191 Y10.2222
G01 X0.4112 Y10.2098
G01 X0.3608 Y10.1256
G01 X0.3535 Y10.1128
G01 X0.3469 Y10.0997
G01 X0.3049 Y10.0109
G01 X0.2990 Y9.9975
G01 X0.2937 Y9.9838
G01 X0.2606 Y9.8914
G01 X0.2560 Y9.8774
G01 X0.2521 Y9.8632
G01 X0.2282 Y9.7680
G01 X0.2250 Y9.7536
G01 X0.2225 Y9.7391
G01 X0.2081 Y9.6420
G01 X0.2063 Y9.6274
G01 X0.2052 Y9.6127
G01 X0.2004 Y9.5147
G01 X0.2000 Y9.5000
G01 X0.2004 Y9.4853
G01 X0.2052 Y9.3873
G01 X0.2063 Y9.3726
G01 X0.2081 Y9.3580
G01 X0.2225 Y9.2609
G01 X0.2250 Y9.2464
G01 X0.2282 Y9.2320
G01 X0.2521 Y9.1368
G01 X0.2560 Y9.1226
G01 X0.2606 Y9.1086
G01 X0.2937 Y9.0162
G01 X0.2990 Y9.0025
G01 X0.3049 Y8.9891
G01 X0.3469 Y8.9003
G01 X0.3535 Y8.8872
G01 X0.3608 Y8.8744
G01 X0.4112 Y8.7902
G01 X0.4191 Y8.7778
G01 X0.4276 Y8.7657
G01 X0.4860 Y8.6869
G01 X0.4951 Y8.6753
G01 X0.5047 Y8.6641
G01 X0.5706 Y8.5914
G01 X0.5808 Y8.5808
G01 X0.5914 Y8.5706
G01 X0.6641 Y8.5047
G01 X0.6753 Y8.4951
G01 X0.6869 Y8.4860
G01 X0.7657 Y8.4276
G01 X0.7778 Y8.4191
G01 X0.7902 Y8.4112
G01 X0.8744 Y8.3608
G01 X0.8872 Y8.3535
G01 X0.9003 Y8.3469
G01 X0.9891 Y8.3049
G01 X1.0025 Y8.2990
G01 X1.0162 Y8.2937
G01 X1.1086 Y8.2606
G01 X1.1226 Y8.2560
G01 X1.1368 Y8.2521
G01 X1.2320 Y8.2282
G01 X1.2464 Y8.2250
G01 X1.2609 Y8.2225
G01 X1.3580 Y8.2081
G01 X1.3726 Y8.2063
G01 X1.3873 Y8.2052
G01 X1.4853 Y8.2004
G01 X1.5000 Y8.2000
G01 X1.5147 Y8.2004
G01 X1.6127 Y8.2052
G01 X1.6274 Y8.2063
G01 X1.6420 Y8.2081
G01 X1.7391 Y8.2225
G01 X1.7536 Y8.2250
G01 X1.7680 Y8.2282
G01 X1.8632 Y8.2521
G01 X1.8774 Y8.2560
G01 X1.8914 Y8.2606
G01 X1.9838 Y8.2937
G01 X1.9975 Y8.2990
G01 X2.0109 Y8.3049
G01 X2.0997 Y8.3469
G01 X2.1128 Y8.3535
G01 X2.1256 Y8.3608
G01 X2.2098 Y8.4112
G01 X2.2222 Y8.4191
G01 X2.2343 Y8.4276
G01 X2.3131 Y8.4860
G01 X2.3247 Y8.4951
G01 X2.3359 Y8.5047
G01 X2.4086 Y8.5706
G01 X2.4192 Y8.5808
G01 X2.4294 Y8.5914
G01 X2.4953 Y8.6641
G01 X2.5049 Y8.6753
G01 X2.5140 Y8.6869
G01 X2.5724 Y8.7657
G01 X2.5809 Y8.7778
G01 X2.5888 Y8.7902
G01 X2.6392 Y8.8744
G01 X2.6465 Y8.8872
G01 X2.6531 Y8.9003
G01 X2.6951 Y8.9891
G01 X2.7010 Y9.0025
G01 X2.7063 Y9.0162
G01 X2.7394 Y9.1086
G01 X2.7440 Y9.1226
G01 X2.7479 Y9.1368
G01 X2.7718 Y9.2320
G01 X2.7750 Y9.2464
G01 X2.7775 Y9.2609
G01 X2.7919 Y9.3580
G01 X2.7937 Y9.3726
G01 X2.7948 Y9.3873
G01 X2.7996 Y9.4853
G01 X2.8000 Y9.5000
G01 X2.7996 Y9.5147
G00 Z2.0000
G00 X8.1964 Y6.1999
G01 F50.00
G01 Z-0.0500
G01 F50.00
G01 X8.2040 Y6.1926
G01 X8.2143 Y6.1818
G01 X8.2650 Y6.1235
G01 X8.2790 Y6.1060
G01 X8.2917 Y6.0876
G01 X8.3029 Y6.0683
G01 X8.3096 Y6.0550
G01 X8.3156 Y6.0414
G01 X8.3210 Y6.0275
G01 X8.3256 Y6.0133
G01 X8.3296 Y5.9989
G01 X8.3327 Y5.9848
G01 X8.3424 Y5.9977
G01 X8.3517 Y6.0091
G01 X8.3773 Y6.0373
G01 X8.3877 Y6.0477
G01 X8.4104 Y6.0684
G01 X8.4215 Y6.0780
G01 X8.4294 Y6.0842
G01 X8.4118 Y6.1034
G01 X8.4021 Y6.1145
G01 X8.3931 Y6.1261
G01 X8.3800 Y6.1439
G01 X8.3718 Y6.1562
G01 X8.3604 Y6.1751
G01 X8.3531 Y6.1879
G01 X8.3471 Y6.1999
G01 X8.1964 Y6.1999
G00 Z2.0000
G00 X9.9466 Y6.0617
G01 F50.00
G01 Z-0.0500
G01 F50.00
G01 X9.9612 Y6.0665
G01 X9.9828 Y6.0721
G01 X9.9974 Y6.0750
G01 X10.0334 Y6.0803
G01 X10.0267 Y6.0871
G01 X10.0118 Y6.1034
G01 X10.0000 Y6.1172
G01 X9.9882 Y6.1034
G01 X9.9733 Y6.0871
G01 X9.9629 Y6.0767
G01 X9.9466 Y6.0617
G00 Z2.0000
G00 X10.1000 Y7.1000
G01 F50.00
G01 Z-0.0500
G01 F50.00
G01 X10.1000 Y6.4000
G01 X10.1012 Y6.3755
G01 X10.1040 Y6.3561
G01 X10.1059 Y6.3464
G01 X10.1108 Y6.3274
G01 X10.1190 Y6.3043
G01 X10.1295 Y6.2822
G01 X10.1395 Y6.2653
G01 X10.1450 Y6.2571
G01 X10.1583 Y6.2395
G01 X10.1732 Y6.2232
G01 X10.1895 Y6.2083
G01 X10.2071 Y6.1950
G01 X10.2153 Y6.1895
G01 X10.2322 Y6.1795
G01 X10.2543 Y6.1690
G01 X10.2774 Y6.1608
G01 X10.2964 Y6.1559
G01 X10.3061 Y6.1540
G01 X10.3279 Y6.1510
G01 X10.3500 Y6.1500
G01 X11.2500 Y6.1500
G01 X11.2745 Y6.1512
G01 X11.3012 Y6.1553
G01 X11.3226 Y6.1608
G01 X11.3457 Y6.1690
G01 X11.3678 Y6.1795
G01 X11.3847 Y6.1895
G01 X11.3929 Y6.1950
G01 X11.4067 Y6.2052
G01 X11.4123 Y6.2100
G01 X11.4268 Y6.2232
G01 X11.4433 Y6.2414
G01 X11.4579 Y6.2611
G01 X11.4681 Y6.2779
G01 X11.4716 Y6.2843
G01 X11.4790 Y6.2998
G01 X11.4827 Y6.3089
G01 X11.4892 Y6.3274
G01 X11.4952 Y6.3512
G01 X11.4988 Y6.3755
G01 X11.5000 Y6.3999
G01 X18.5000 Y6.3999
G01 X18.5012 Y6.3755
G01 X18.5048 Y6.3512
G01 X18.5108 Y6.3274
G01 X18.5173 Y6.3089
G01 X18.5210 Y6.2998
G01 X18.5284 Y6.2843
G01 X18.5319 Y6.2779
G01 X18.5421 Y6.2611
G01 X18.5567 Y6.2414
G01 X18.5732 Y6.2232
G01 X18.5877 Y6.2100
G01 X18.5953 Y6.2037
G01 X18.6091 Y6.1935
G01 X18.6153 Y6.1895
G01 X18.6322 Y6.1795
G01 X18.6543 Y6.1690
G01 X18.6774 Y6.1608
G01 X18.6988 Y6.1553
G01 X18.7255 Y6.1512
G01 X18.7500 Y6.1500
G01 X19.6525 Y6.1500
G01 X19.6745 Y6.1512
G01 X19.6988 Y6.1548
G01 X19.7226 Y6.1608
G01 X19.7457 Y6.1690
G01 X19.7678 Y6.1795
G01 X19.7889 Y6.1921
G01 X19.8086 Y6.2067
G01 X19.8232 Y6.2198
G01 X19.8285 Y6.2250
G01 X19.8400 Y6.2377
G01 X19.8463 Y6.2453
G01 X19.8592 Y6.2632
G01 X19.8693 Y6.2800
G01 X19.8727 Y6.2865
G01 X19.8819 Y6.3066
G01 X19.8899 Y6.3298
G01 X19.8952 Y6.3512
G01 X19.8990 Y6.3779
G01 X19.9000 Y6.4000
G01 X19.9000 Y7.1000
G01 X19.8988 Y7.1245
G01 X19.8947 Y7.1512
G01 X19.8892 Y7.1726
G01 X19.8819 Y7.1934
G01 X19.8727 Y7.2135
G01 X19.8681 Y7.2221
G01 X19.8579 Y7.2389
G01 X19.8433 Y7.2586
G01 X19.8268 Y7.2768
G01 X19.8123 Y7.2900
G01 X19.8047 Y7.2963
G01 X19.7909 Y7.3065
G01 X19.7847 Y7.3105
G01 X19.7678 Y7.3205
G01 X19.7457 Y7.3310
G01 X19.7226 Y7.3392
G01 X19.7036 Y7.3441
G01 X19.6939 Y7.3460
G01 X19.6721 Y7.3490
G01 X19.6500 Y7.3500
G01 X18.7500 Y7.3500
G01 X18.7255 Y7.3488
G01 X18.6988 Y7.3447
G01 X18.6774 Y7.3392
G01 X18.6543 Y7.3310
G01 X18.6322 Y7.3205
G01 X18.6153 Y7.3105
G01 X18.6071 Y7.3050
G01 X18.5933 Y7.2948
G01 X18.5877 Y7.2900
G01 X18.5732 Y7.2768
G01 X18.5567 Y7.2586
G01 X18.5421 Y7.2389
G01 X18.5319 Y7.2221
G01 X18.5284 Y7.2157
G01 X18.5210 Y7.2002
G01 X18.5173 Y7.1911
G01 X18.5108 Y7.1726
G01 X18.5048 Y7.1488
G01 X18.5012 Y7.1245
G01 X18.5000 Y7.1001
G01 X11.5000 Y7.1001
G01 X11.4990 Y7.1221
G01 X11.4982 Y7.1294
G01 X11.4952 Y7.1488
G01 X11.4905 Y7.1678
G01 X11.4877 Y7.1772
G01 X11.4810 Y7.1957
G01 X11.4705 Y7.2178
G01 X11.4579 Y7.2389
G01 X11.4463 Y7.2547
G01 X11.4400 Y7.2623
G01 X11.4268 Y7.2768
G01 X11.4123 Y7.2900
G01 X11.4067 Y7.2948
G01 X11.3909 Y7.3065
G01 X11.3678 Y7.3205
G01 X11.3457 Y7.3310
G01 X11.3226 Y7.3392
G01 X11.2964 Y7.3456
G01 X11.2745 Y7.3488
G01 X11.2525 Y7.3500
G01 X11.1501 Y7.3500
G01 X11.1501 Y7.6550
G01 X11.3576 Y7.8624
G01 X11.3807 Y7.8879
G01 X11.4011 Y7.9155
G01 X11.4188 Y7.9450
G01 X11.4335 Y7.9760
G01 X11.4435 Y8.0037
G01 X11.4464 Y8.0131
G01 X11.4534 Y8.0417
G01 X11.4578 Y8.0708
G01 X11.4588 Y8.0806
G01 X11.4601 Y8.1075
G01 X11.4601 Y8.8474
G01 X11.4713 Y8.8514
G01 X11.4780 Y8.8543
G01 X11.5534 Y8.8900
G01 X11.5621 Y8.8946
G01 X11.6378 Y8.9401
G01 X11.7127 Y8.9956
G01 X11.7818 Y9.0582
G01 X11.8412 Y9.1236
G01 X11.8474 Y9.1312
G01 X11.8971 Y9.1982
G01 X11.9025 Y9.2064
G01 X11.9478 Y9.2822
G01 X11.9877 Y9.3665
G01 X12.0191 Y9.4542
G01 X12.0407 Y9.5399
G01 X12.0426 Y9.5495
G01 X12.0548 Y9.6320
G01 X12.0558 Y9.6418
G01 X12.0600 Y9.7300
G01 X12.0556 Y9.8207
G01 X12.0548 Y9.8280
G01 X12.0417 Y9.9153
G01 X12.0204 Y10.0010
G01 X12.0176 Y10.0104
G01 X11.9895 Y10.0890
G01 X11.9857 Y10.0980
G01 X11.9478 Y10.1778
G01 X11.8999 Y10.2578
G01 X11.8444 Y10.3327
G01 X11.7818 Y10.4018
G01 X11.7127 Y10.4644
G01 X11.6378 Y10.5199
G01 X11.5578 Y10.5678
G01 X11.4780 Y10.6057
G01 X11.4690 Y10.6095
G01 X11.3904 Y10.6376
G01 X11.3810 Y10.6404
G01 X11.2953 Y10.6617
G01 X11.2080 Y10.6748
G01 X11.2007 Y10.6756
G01 X11.1100 Y10.6800
G01 X11.0169 Y10.6754
G01 X10.9247 Y10.6617
G01 X10.8390 Y10.6404
G01 X10.8296 Y10.6376
G01 X10.7510 Y10.6095
G01 X10.7420 Y10.6057
G01 X10.6622 Y10.5678
G01 X10.5822 Y10.5199
G01 X10.5073 Y10.4644
G01 X10.4382 Y10.4018
G01 X10.3756 Y10.3327
G01 X10.3229 Y10.2618
G01 X10.3175 Y10.2536
G01 X10.2746 Y10.1821
G01 X10.2700 Y10.1734
G01 X10.2323 Y10.0935
G01 X10.2009 Y10.0058
G01 X10.1783 Y9.9153
G01 X10.1646 Y9.8231
G01 X10.1600 Y9.7300
G01 X10.1646 Y9.6369
G01 X10.1783 Y9.5447
G01 X10.2009 Y9.4542
G01 X10.2323 Y9.3665
G01 X10.2700 Y9.2866
G01 X10.2746 Y9.2779
G01 X10.3201 Y9.2022
G01 X10.3756 Y9.1273
G01 X10.4382 Y9.0582
G01 X10.5036 Y8.9988
G01 X10.5112 Y8.9926
G01 X10.5822 Y8.9401
G01 X10.6579 Y8.8946
G01 X10.6666 Y8.8900
G01 X10.7420 Y8.8543
G01 X10.7487 Y8.8514
G01 X10.7599 Y8.8474
G01 X10.7599 Y8.2550
G01 X10.5524 Y8.0476
G01 X10.5293 Y8.0221
G01 X10.5089 Y7.9945
G01 X10.4912 Y7.9650
G01 X10.4765 Y7.9340
G01 X10.4657 Y7.9040
G01 X10.4577 Y7.8731
G01 X10.4558 Y7.8635
G01 X10.4516 Y7.8343
G01 X10.4499 Y7.8025
G01 X10.4499 Y7.3500
G01 X10.3475 Y7.3500
G01 X10.3255 Y7.3488
G01 X10.3036 Y7.3456
G01 X10.2774 Y7.3392
G01 X10.2543 Y7.3310
G01 X10.2322 Y7.3205
G01 X10.2091 Y7.3065
G01 X10.1933 Y7.2948
G01 X10.1877 Y7.2900
G01 X10.1732 Y7.2768
G01 X10.1600 Y7.2623
G01 X10.1537 Y7.2547
G01 X10.1421 Y7.2389
G01 X10.1295 Y7.2178
G01 X10.1210 Y7.2002
G01 X10.1173 Y7.1911
G01 X10.1108 Y7.1726
G01 X10.1059 Y7.1536
G01 X10.1040 Y7.1439
G01 X10.1012 Y7.1245
G01 X10.1000 Y7.1000
G00 Z2.0000
G00 X10.1000 Y4.8500
G01 F50.00
G01 Z-0.0500
G01 F50.00
G01 X10.1000 Y4.1500
G01 X10.1015 Y4.1231
G01 X10.1053 Y4.0988
G01 X10.1101 Y4.0798
G01 X10.1123 Y4.0728
G01 X10.1190 Y4.0543
G01 X10.1273 Y4.0365
G01 X10.1307 Y4.0300
G01 X10.1408 Y4.0132
G01 X10.1567 Y3.9914
G01 X10.1732 Y3.9732
G01 X10.1914 Y3.9567
G01 X10.2071 Y3.9450
G01 X10.2153 Y3.9395
G01 X10.2322 Y3.9295
G01 X10.2498 Y3.9210
G01 X10.2589 Y3.9173
G01 X10.2774 Y3.9108
G01 X10.2964 Y3.9059
G01 X10.3061 Y3.9040
G01 X10.3255 Y3.9012
G01 X10.3475 Y3.9000
G01 X11.2500 Y3.9000
G01 X11.2696 Y3.9008
G01 X11.2794 Y3.9018
G01 X11.2988 Y3.9048
G01 X11.3249 Y3.9115
G01 X11.3434 Y3.9181
G01 X11.3502 Y3.9210
G01 X11.3678 Y3.9295
G01 X11.3847 Y3.9395
G01 X11.3929 Y3.9450
G01 X11.4086 Y3.9567
G01 X11.4268 Y3.9732
G01 X11.4433 Y3.9914
G01 X11.4550 Y4.0071
G01 X11.4605 Y4.0153
G01 X11.4705 Y4.0322
G01 X11.4790 Y4.0498
G01 X11.4827 Y4.0589
G01 X11.4892 Y4.0774
G01 X11.4941 Y4.0964
G01 X11.4960 Y4.1061
G01 X11.4988 Y4.1255
G01 X11.4999 Y4.1451
G01 X11.5000 Y4.8500
G01 X11.4990 Y4.8721
G01 X11.4952 Y4.8988
G01 X11.4885 Y4.9249
G01 X11.4819 Y4.9434
G01 X11.4790 Y4.9502
G01 X11.4705 Y4.9678
G01 X11.4605 Y4.9847
G01 X11.4550 Y4.9929
G01 X11.4433 Y5.0086
G01 X11.4268 Y5.0268
G01 X11.4086 Y5.0433
G01 X11.3929 Y5.0550
G01 X11.3847 Y5.0605
G01 X11.3678 Y5.0705
G01 X11.3502 Y5.0790
G01 X11.3411 Y5.0827
G01 X11.3226 Y5.0892
G01 X11.3036 Y5.0941
G01 X11.2939 Y5.0960
G01 X11.2745 Y5.0988
G01 X11.2525 Y5.1000
G01 X10.3500 Y5.1000
G01 X10.3255 Y5.0988
G01 X10.3036 Y5.0956
G01 X10.2798 Y5.0899
G01 X10.2589 Y5.0827
G01 X10.2498 Y5.0790
G01 X10.2343 Y5.0716
G01 X10.2279 Y5.0681
G01 X10.2111 Y5.0579
G01 X10.1914 Y5.0433
G01 X10.1732 Y5.0268
G01 X10.1567 Y5.0086
G01 X10.1421 Y4.9889
G01 X10.1295 Y4.9678
G01 X10.1190 Y4.9457
G01 X10.1123 Y4.9272
G01 X10.1101 Y4.9202
G01 X10.1059 Y4.9036
G01 X10.1040 Y4.8939
G01 X10.1012 Y4.8745
G01 X10.1000 Y4.8500
G00 Z2.0000
G00 X8.6030 Y4.3508
G01 F50.00
G01 Z-0.0500
G01 F50.00
G01 X8.6135 Y4.3539
G01 X8.6433 Y4.3614
G01 X8.6649 Y4.3660
G01 X8.6952 Y4.3706
G01 X8.7098 Y4.3724
G01 X8.7478 Y4.3746
G01 X8.7625 Y4.3750
G01 X9.2449 Y4.3749
G01 X9.2755 Y4.3735
G01 X9.2902 Y4.3724
G01 X9.3279 Y4.3672
G01 X9.3424 Y4.3647
G01 X9.3793 Y4.3558
G01 X9.3935 Y4.3519
G01 X9.4295 Y4.3394
G01 X9.4432 Y4.3341
G01 X9.4567 Y4.3281
G01 X9.4843 Y4.3149
G01 X9.5037 Y4.3043
G01 X9.5299 Y4.2884
G01 X9.5422 Y4.2802
G01 X9.5727 Y4.2576
G01 X9.5841 Y4.2483
G01 X9.6069 Y4.2277
G01 X9.6176 Y4.2176
G01 X9.6277 Y4.2069
G01 X9.6530 Y4.1785
G01 X9.6759 Y4.1482
G01 X9.6844 Y4.1361
G01 X9.6923 Y4.1237
G01 X9.7115 Y4.0909
G01 X9.7182 Y4.0777
G01 X9.7341 Y4.0432
G01 X9.7394 Y4.0295
G01 X9.7496 Y4.0005
G01 X9.7539 Y3.9865
G01 X9.7614 Y3.9567
G01 X9.7647 Y3.9424
G01 X9.7672 Y3.9279
G01 X9.7724 Y3.8902
G01 X9.7735 Y3.8755
G01 X9.7749 Y3.8449
G01 X9.7750 Y3.6870
G01 X9.7824 Y3.6948
G01 X9.7932 Y3.7051
G01 X9.8572 Y3.7606
G01 X9.8750 Y3.7741
G01 X9.8874 Y3.7824
G01 X9.9001 Y3.7901
G01 X9.9133 Y3.7971
G01 X9.9268 Y3.8035
G01 X9.9405 Y3.8091
G01 X9.9617 Y3.8164
G01 X9.9761 Y3.8203
G01 X9.9906 Y3.8235
G01 X10.0336 Y3.8301
G01 X10.0216 Y3.8425
G01 X10.0021 Y3.8645
G01 X9.9931 Y3.8761
G01 X9.9800 Y3.8939
G01 X9.9718 Y3.9062
G01 X9.9604 Y3.9251
G01 X9.9531 Y3.9379
G01 X9.9465 Y3.9510
G01 X9.9372 Y3.9710
G01 X9.9315 Y3.9846
G01 X9.9216 Y4.0124
G01 X9.9173 Y4.0264
G01 X9.9119 Y4.0478
G01 X9.9086 Y4.0622
G01 X9.9040 Y4.0913
G01 X9.9022 Y4.1059
G01 X9.9004 Y4.1353
G01 X9.9000 Y4.1500
G01 X9.9000 Y4.8500
G01 X9.9011 Y4.8794
G01 X9.9030 Y4.9014
G01 X9.9073 Y4.9306
G01 X9.9113 Y4.9499
G01 X9.7311 Y4.9499
G01 X9.7149 Y4.9157
G01 X9.7043 Y4.8963
G01 X9.6844 Y4.8639
G01 X9.6621 Y4.8331
G01 X9.6483 Y4.8159
G01 X9.6227 Y4.7877
G01 X9.6069 Y4.7723
G01 X9.5785 Y4.7470
G01 X9.5482 Y4.7241
G01 X9.5299 Y4.7116
G01 X9.4973 Y4.6920
G01 X9.4777 Y4.6818
G01 X9.4432 Y4.6659
G01 X9.4075 Y4.6528
G01 X9.3865 Y4.6461
G01 X9.3496 Y4.6369
G01 X9.3351 Y4.6340
G01 X9.2975 Y4.6284
G01 X9.2828 Y4.6270
G01 X9.2449 Y4.6251
G01 X8.7551 Y4.6251
G01 X8.7245 Y4.6265
G01 X8.7098 Y4.6276
G01 X8.6721 Y4.6328
G01 X8.6576 Y4.6353
G01 X8.6433 Y4.6386
G01 X8.6135 Y4.6461
G01 X8.6010 Y4.6499
G01 X8.6092 Y4.6298
G01 X8.6140 Y4.6157
G01 X8.6180 Y4.6014
G01 X8.6214 Y4.5868
G01 X8.6240 Y4.5722
G01 X8.6259 Y4.5574
G01 X8.6270 Y4.5425
G01 X8.6275 Y4.5276
G01 X8.6267 Y4.5053
G01 X8.6217 Y4.4356
G01 X8.6193 Y4.4133
G01 X8.6167 Y4.3985
G01 X8.6134 Y4.3839
G01 X8.6094 Y4.3694
G01 X8.6030 Y4.3508
G00 Z2.0000
G00 X8.1977 Y2.8001
G01 F50.00
G01 Z-0.0500
G01 F50.00
G01 X8.3471 Y2.8001
G01 X8.3531 Y2.8121
G01 X8.3604 Y2.8249
G01 X8.3718 Y2.8438
G01 X8.3800 Y2.8561
G01 X8.3931 Y2.8739
G01 X8.4021 Y2.8855
G01 X8.4118 Y2.8966
G01 X8.4294 Y2.9158
G01 X8.4215 Y2.9220
G01 X8.4104 Y2.9316
G01 X8.3824 Y2.9574
G01 X8.3723 Y2.9681
G01 X8.3517 Y2.9909
G01 X8.3424 Y3.0023
G01 X8.3341 Y3.0133
G01 X8.3305 Y3.0012
G01 X8.3255 Y2.9872
G01 X8.3199 Y2.9734
G01 X8.3136 Y2.9599
G01 X8.3029 Y2.9403
G01 X8.2633 Y2.8739
G01 X8.2550 Y2.8614
G01 X8.2462 Y2.8495
G01 X8.2318 Y2.8323
G01 X8.2162 Y2.8163
G01 X8.2052 Y2.8063
G01 X8.1977 Y2.8001
G00 Z2.0000
G00 X9.7326 Y3.1283
G01 F50.00
G01 Z-0.0500
G01 F50.00
G01 X9.7182 Y3.0973
G01 X9.7115 Y3.0841
G01 X9.7043 Y3.0713
G01 X9.6903 Y3.0482
G01 X9.7014 Y3.0470
G01 X9.7306 Y3.0427
G01 X9.7522 Y3.0381
G01 X9.7736 Y3.0327
G01 X9.7876 Y3.0284
G01 X9.8213 Y3.0161
G01 X9.8070 Y3.0279
G01 X9.7961 Y3.0380
G01 X9.7807 Y3.0542
G01 X9.7711 Y3.0656
G01 X9.7578 Y3.0836
G01 X9.7498 Y3.0961
G01 X9.7423 Y3.1090
G01 X9.7326 Y3.1283
G00 Z2.0000
G00 X9.9452 Y2.9395
G01 F50.00
G01 Z-0.0500
G01 F50.00
G01 X9.9629 Y2.9233
G01 X9.9733 Y2.9129
G01 X9.9882 Y2.8966
G01 X10.0000 Y2.8828
G01 X10.0118 Y2.8966
G01 X10.0304 Y2.9168
G01 X10.0115 Y2.9195
G01 X9.9897 Y2.9243
G01 X9.9682 Y2.9306
G01 X9.9542 Y2.9358
G01 X9.9452 Y2.9395
G00 Z2.0000
G00 X10.0000 Y2.6000
G01 F50.00
G01 Z-0.0500
G01 F50.00
G01 X10.0001 Y1.8951
G01 X10.0017 Y1.8657
G01 X10.0050 Y1.8414
G01 X10.0077 Y1.8269
G01 X10.0151 Y1.7984
G01 X10.0248 Y1.7706
G01 X10.0286 Y1.7615
G01 X10.0369 Y1.7438
G01 X10.0437 Y1.7307
G01 X10.0590 Y1.7056
G01 X10.0764 Y1.6818
G01 X10.0826 Y1.6742
G01 X10.0957 Y1.6596
G01 X10.1060 Y1.6491
G01 X10.1280 Y1.6294
G01 X10.1515 Y1.6118
G01 X10.1638 Y1.6037
G01 X10.1807 Y1.5937
G01 X10.1894 Y1.5891
G01 X10.2161 Y1.5766
G01 X10.2437 Y1.5666
G01 X10.2531 Y1.5637
G01 X10.2721 Y1.5589
G01 X10.2914 Y1.5550
G01 X10.3108 Y1.5522
G01 X10.3206 Y1.5513
G01 X10.3500 Y1.5500
G01 X11.2500 Y1.5500
G01 X11.2843 Y1.5517
G01 X11.3183 Y1.5567
G01 X11.3469 Y1.5637
G01 X11.3609 Y1.5682
G01 X11.3839 Y1.5766
G01 X11.4106 Y1.5891
G01 X11.4193 Y1.5937
G01 X11.4362 Y1.6037
G01 X11.4485 Y1.6118
G01 X11.4720 Y1.6294
G01 X11.4904 Y1.6457
G01 X11.5009 Y1.6560
G01 X11.5206 Y1.6780
G01 X11.5354 Y1.6975
G01 X11.5437 Y1.7097
G01 X11.5587 Y1.7350
G01 X11.5694 Y1.7571
G01 X11.5752 Y1.7706
G01 X11.5854 Y1.7999
G01 X18.4146 Y1.7999
G01 X18.4248 Y1.7706
G01 X18.4306 Y1.7571
G01 X18.4413 Y1.7350
G01 X18.4563 Y1.7097
G01 X18.4646 Y1.6975
G01 X18.4794 Y1.6780
G01 X18.4991 Y1.6560
G01 X18.5096 Y1.6457
G01 X18.5280 Y1.6294
G01 X18.5515 Y1.6118
G01 X18.5597 Y1.6063
G01 X18.5765 Y1.5962
G01 X18.5894 Y1.5891
G01 X18.6161 Y1.5766
G01 X18.6391 Y1.5682
G01 X18.6531 Y1.5637
G01 X18.6817 Y1.5567
G01 X18.7157 Y1.5517
G01 X18.7500 Y1.5500
G01 X19.6549 Y1.5501
G01 X19.6843 Y1.5517
G01 X19.7183 Y1.5567
G01 X19.7516 Y1.5651
G01 X19.7839 Y1.5766
G01 X19.8150 Y1.5913
G01 X19.8444 Y1.6090
G01 X19.8720 Y1.6294
G01 X19.8940 Y1.6491
G01 X19.9009 Y1.6560
G01 X19.9174 Y1.6742
G01 X19.9236 Y1.6818
G01 X19.9354 Y1.6975
G01 X19.9437 Y1.7097
G01 X19.9538 Y1.7265
G01 X19.9631 Y1.7438
G01 X19.9714 Y1.7615
G01 X19.9752 Y1.7706
G01 X19.9834 Y1.7937
G01 X19.9863 Y1.8031
G01 X19.9923 Y1.8269
G01 X19.9942 Y1.8365
G01 X19.9978 Y1.8608
G01 X19.9987 Y1.8706
G01 X20.0000 Y1.9000
G01 X19.9998 Y2.6098
G01 X19.9987 Y2.6294
G01 X19.9971 Y2.6440
G01 X19.9933 Y2.6683
G01 X19.9875 Y2.6921
G01 X19.9834 Y2.7063
G01 X19.9752 Y2.7294
G01 X19.9714 Y2.7385
G01 X19.9609 Y2.7606
G01 X19.9563 Y2.7693
G01 X19.9437 Y2.7903
G01 X19.9382 Y2.7985
G01 X19.9236 Y2.8182
G01 X19.9174 Y2.8258
G01 X19.9009 Y2.8440
G01 X19.8940 Y2.8509
G01 X19.8795 Y2.8641
G01 X19.8682 Y2.8736
G01 X19.8485 Y2.8882
G01 X19.8403 Y2.8937
G01 X19.8235 Y2.9038
G01 X19.8106 Y2.9109
G01 X19.7929 Y2.9194
G01 X19.7748 Y2.9269
G01 X19.7516 Y2.9349
G01 X19.7231 Y2.9423
G01 X19.7086 Y2.9450
G01 X19.6892 Y2.9478
G01 X19.6794 Y2.9487
G01 X19.6500 Y2.9500
G01 X19.4501 Y2.9500
G01 X19.4501 Y2.9552
G01 X19.4806 Y2.9737
G01 X19.5073 Y2.9933
G01 X19.5188 Y3.0025
G01 X19.5433 Y3.0247
G01 X19.5536 Y3.0353
G01 X19.5757 Y3.0600
G01 X19.5985 Y3.0904
G01 X19.6065 Y3.1027
G01 X19.6233 Y3.1313
G01 X19.6417 Y3.1701
G01 X19.6562 Y3.2105
G01 X19.6666 Y3.2521
G01 X19.6729 Y3.2946
G01 X19.6749 Y3.3326
G01 X19.6749 Y3.8424
G01 X19.6729 Y3.8804
G01 X19.6683 Y3.9132
G01 X19.6656 Y3.9277
G01 X19.6562 Y3.9645
G01 X19.6435 Y4.0004
G01 X19.6377 Y4.0139
G01 X19.6233 Y4.0437
G01 X19.6013 Y4.0806
G01 X19.5757 Y4.1150
G01 X19.5536 Y4.1397
G01 X19.5433 Y4.1503
G01 X19.5150 Y4.1757
G01 X19.4806 Y4.2013
G01 X19.4523 Y4.2185
G01 X19.4394 Y4.2256
G01 X19.4049 Y4.2417
G01 X19.3645 Y4.2562
G01 X19.3324 Y4.2644
G01 X19.3132 Y4.2683
G01 X19.2853 Y4.2724
G01 X19.2755 Y4.2733
G01 X19.2375 Y4.2750
G01 X18.7576 Y4.2749
G01 X18.7245 Y4.2733
G01 X18.7099 Y4.2717
G01 X18.6771 Y4.2666
G01 X18.6450 Y4.2588
G01 X18.6308 Y4.2547
G01 X18.5996 Y4.2435
G01 X18.5861 Y4.2377
G01 X18.5563 Y4.2233
G01 X18.5194 Y4.2013
G01 X18.4850 Y4.1757
G01 X18.4531 Y4.1469
G01 X18.4243 Y4.1150
G01 X18.3987 Y4.0806
G01 X18.3767 Y4.0437
G01 X18.3583 Y4.0049
G01 X18.3438 Y3.9645
G01 X18.3356 Y3.9324
G01 X18.3325 Y3.9180
G01 X18.3276 Y3.8853
G01 X18.3264 Y3.8706
G01 X18.3250 Y3.8375
G01 X18.3250 Y3.3375
G01 X18.3271 Y3.2946
G01 X18.3317 Y3.2618
G01 X18.3344 Y3.2473
G01 X18.3425 Y3.2152
G01 X18.3469 Y3.2012
G01 X18.3583 Y3.1701
G01 X18.3767 Y3.1313
G01 X18.3935 Y3.1027
G01 X18.4015 Y3.0904
G01 X18.4183 Y3.0677
G01 X18.4275 Y3.0562
G01 X18.4497 Y3.0317
G01 X18.4603 Y3.0214
G01 X18.4850 Y2.9993
G01 X18.5114 Y2.9794
G01 X18.5236 Y2.9711
G01 X18.5499 Y2.9552
G01 X18.5499 Y2.8871
G01 X18.5280 Y2.8706
G01 X18.5025 Y2.8475
G01 X18.4826 Y2.8258
G01 X18.4764 Y2.8182
G01 X18.4646 Y2.8025
G01 X18.4537 Y2.7862
G01 X18.4437 Y2.7693
G01 X18.4391 Y2.7606
G01 X18.4266 Y2.7339
G01 X18.4182 Y2.7109
G01 X18.4146 Y2.7001
G01 X11.5854 Y2.7001
G01 X11.5752 Y2.7294
G01 X11.5694 Y2.7429
G01 X11.5587 Y2.7650
G01 X11.5437 Y2.7903
G01 X11.5354 Y2.8025
G01 X11.5206 Y2.8220
G01 X11.5009 Y2.8440
G01 X11.4904 Y2.8543
G01 X11.4720 Y2.8706
G01 X11.4485 Y2.8882
G01 X11.4362 Y2.8963
G01 X11.4193 Y2.9063
G01 X11.4106 Y2.9109
G01 X11.3839 Y2.9234
G01 X11.3609 Y2.9318
G01 X11.3469 Y2.9363
G01 X11.3183 Y2.9433
G01 X11.2843 Y2.9483
G01 X11.2500 Y2.9500
G01 X10.3500 Y2.9500
G01 X10.3157 Y2.9483
G01 X10.2817 Y2.9433
G01 X10.2484 Y2.9349
G01 X10.2161 Y2.9234
G01 X10.1850 Y2.9087
G01 X10.1556 Y2.8910
G01 X10.1280 Y2.8706
G01 X10.1025 Y2.8475
G01 X10.0794 Y2.8220
G01 X10.0590 Y2.7944
G01 X10.0413 Y2.7650
G01 X10.0266 Y2.7339
G01 X10.0151 Y2.7016
G01 X10.0067 Y2.6683
G01 X10.0017 Y2.6343
G01 X10.0000 Y2.6000
G00 Z2.0000
G00 X10.1000 Y2.6000
G01 F50.00
G01 Z-0.0500
G01 F50.00
G01 X10.1000 Y1.9000
G01 X10.1012 Y1.8755
G01 X10.1040 Y1.8561
G01 X10.1059 Y1.8464
G01 X10.1108 Y1.8274
G01 X10.1190 Y1.8043
G01 X10.1295 Y1.7822
G01 X10.1395 Y1.7653
G01 X10.1450 Y1.7571
G01 X10.1583 Y1.7395
G01 X10.1732 Y1.7232
G01 X10.1895 Y1.7083
G01 X10.2071 Y1.6950
G01 X10.2153 Y1.6895
G01 X10.2322 Y1.6795
G01 X10.2543 Y1.6690
G01 X10.2774 Y1.6608
G01 X10.2964 Y1.6559
G01 X10.3061 Y1.6540
G01 X10.3279 Y1.6510
G01 X10.3500 Y1.6500
G01 X11.2500 Y1.6500
G01 X11.2745 Y1.6512
G01 X11.3012 Y1.6553
G01 X11.3226 Y1.6608
G01 X11.3457 Y1.6690
G01 X11.3678 Y1.6795
G01 X11.3847 Y1.6895
G01 X11.3929 Y1.6950
G01 X11.4067 Y1.7052
G01 X11.4123 Y1.7100
G01 X11.4268 Y1.7232
G01 X11.4433 Y1.7414
G01 X11.4579 Y1.7611
G01 X11.4681 Y1.7779
G01 X11.4716 Y1.7843
G01 X11.4790 Y1.7998
G01 X11.4827 Y1.8089
G01 X11.4892 Y1.8274
G01 X11.4952 Y1.8512
G01 X11.4988 Y1.8755
G01 X11.5000 Y1.8999
G01 X18.5000 Y1.8999
G01 X18.5012 Y1.8755
G01 X18.5048 Y1.8512
G01 X18.5108 Y1.8274
G01 X18.5173 Y1.8089
G01 X18.5200 Y1.8021
G01 X18.5273 Y1.7865
G01 X18.5319 Y1.7779
G01 X18.5421 Y1.7611
G01 X18.5567 Y1.7414
G01 X18.5732 Y1.7232
G01 X18.5877 Y1.7100
G01 X18.5953 Y1.7037
G01 X18.6091 Y1.6935
G01 X18.6153 Y1.6895
G01 X18.6322 Y1.6795
G01 X18.6543 Y1.6690
G01 X18.6774 Y1.6608
G01 X18.6988 Y1.6553
G01 X18.7255 Y1.6512
G01 X18.7500 Y1.6500
G01 X19.6525 Y1.6500
G01 X19.6745 Y1.6512
G01 X19.6988 Y1.6548
G01 X19.7226 Y1.6608
G01 X19.7457 Y1.6690
G01 X19.7678 Y1.6795
G01 X19.7889 Y1.6921
G01 X19.8086 Y1.7067
G01 X19.8232 Y1.7198
G01 X19.8285 Y1.7250
G01 X19.8400 Y1.7377
G01 X19.8463 Y1.7453
G01 X19.8592 Y1.7632
G01 X19.8693 Y1.7800
G01 X19.8727 Y1.7865
G01 X19.8819 Y1.8066
G01 X19.8899 Y1.8298
G01 X19.8952 Y1.8512
G01 X19.8990 Y1.8779
G01 X19.9000 Y1.9000
G01 X19.9000 Y2.6025
G01 X19.8990 Y2.6221
G01 X19.8982 Y2.6294
G01 X19.8952 Y2.6488
G01 X19.8905 Y2.6678
G01 X19.8877 Y2.6772
G01 X19.8810 Y2.6957
G01 X19.8693 Y2.7200
G01 X19.8579 Y2.7389
G01 X19.8417 Y2.7605
G01 X19.8250 Y2.7785
G01 X19.8105 Y2.7917
G01 X19.8047 Y2.7963
G01 X19.7889 Y2.8079
G01 X19.7721 Y2.8181
G01 X19.7657 Y2.8216
G01 X19.7502 Y2.8290
G01 X19.7434 Y2.8319
G01 X19.7249 Y2.8385
G01 X19.7036 Y2.8441
G01 X19.6964 Y2.8456
G01 X19.6769 Y2.8485
G01 X19.6525 Y2.8500
G01 X19.3501 Y2.8500
G01 X19.3501 Y3.0196
G01 X19.3689 Y3.0267
G01 X19.3944 Y3.0387
G01 X19.4009 Y3.0423
G01 X19.4270 Y3.0583
G01 X19.4497 Y3.0751
G01 X19.4553 Y3.0798
G01 X19.4761 Y3.0989
G01 X19.4968 Y3.1215
G01 X19.5181 Y3.1500
G01 X19.5327 Y3.1741
G01 X19.5374 Y3.1828
G01 X19.5493 Y3.2083
G01 X19.5589 Y3.2349
G01 X19.5612 Y3.2419
G01 X19.5680 Y3.2693
G01 X19.5734 Y3.3044
G01 X19.5750 Y3.3375
G01 X19.5750 Y3.8375
G01 X19.5736 Y3.8681
G01 X19.5685 Y3.9033
G01 X19.5618 Y3.9307
G01 X19.5589 Y3.9401
G01 X19.5502 Y3.9644
G01 X19.5473 Y3.9711
G01 X19.5351 Y3.9966
G01 X19.5181 Y4.0250
G01 X19.4984 Y4.0516
G01 X19.4761 Y4.0761
G01 X19.4516 Y4.0984
G01 X19.4250 Y4.1181
G01 X19.3966 Y4.1351
G01 X19.3711 Y4.1473
G01 X19.3621 Y4.1511
G01 X19.3378 Y4.1597
G01 X19.3307 Y4.1618
G01 X19.3033 Y4.1685
G01 X19.2681 Y4.1736
G01 X19.2375 Y4.1750
G01 X18.7625 Y4.1750
G01 X18.7294 Y4.1734
G01 X18.6943 Y4.1680
G01 X18.6645 Y4.1605
G01 X18.6379 Y4.1511
G01 X18.6289 Y4.1473
G01 X18.6056 Y4.1363
G01 X18.5991 Y4.1327
G01 X18.5750 Y4.1181
G01 X18.5523 Y4.1014
G01 X18.5447 Y4.0952
G01 X18.5239 Y4.0761
G01 X18.5016 Y4.0516
G01 X18.4819 Y4.0250
G01 X18.4637 Y3.9944
G01 X18.4507 Y3.9667
G01 X18.4411 Y3.9401
G01 X18.4382 Y3.9307
G01 X18.4315 Y3.9033
G01 X18.4272 Y3.8755
G01 X18.4264 Y3.8681
G01 X18.4251 Y3.8424
G01 X18.4250 Y3.3375
G01 X18.4266 Y3.3044
G01 X18.4315 Y3.2717
G01 X18.4382 Y3.2443
G01 X18.4411 Y3.2349
G01 X18.4507 Y3.2083
G01 X18.4626 Y3.1828
G01 X18.4673 Y3.1741
G01 X18.4819 Y3.1500
G01 X18.5032 Y3.1215
G01 X18.5239 Y3.0989
G01 X18.5447 Y3.0798
G01 X18.5503 Y3.0751
G01 X18.5730 Y3.0583
G01 X18.5791 Y3.0543
G01 X18.6056 Y3.0387
G01 X18.6311 Y3.0267
G01 X18.6499 Y3.0196
G01 X18.6499 Y2.8290
G01 X18.6322 Y2.8205
G01 X18.6153 Y2.8105
G01 X18.6071 Y2.8050
G01 X18.5914 Y2.7933
G01 X18.5768 Y2.7802
G01 X18.5698 Y2.7732
G01 X18.5567 Y2.7586
G01 X18.5421 Y2.7389
G01 X18.5319 Y2.7221
G01 X18.5273 Y2.7135
G01 X18.5190 Y2.6957
G01 X18.5108 Y2.6726
G01 X18.5059 Y2.6536
G01 X18.5040 Y2.6439
G01 X18.5012 Y2.6245
G01 X18.5000 Y2.6001
G01 X11.5000 Y2.6001
G01 X11.4988 Y2.6245
G01 X11.4952 Y2.6488
G01 X11.4892 Y2.6726
G01 X11.4827 Y2.6911
G01 X11.4800 Y2.6979
G01 X11.4727 Y2.7135
G01 X11.4681 Y2.7221
G01 X11.4579 Y2.7389
G01 X11.4433 Y2.7586
G01 X11.4268 Y2.7768
G01 X11.4123 Y2.7900
G01 X11.4067 Y2.7948
G01 X11.3929 Y2.8050
G01 X11.3847 Y2.8105
G01 X11.3678 Y2.8205
G01 X11.3457 Y2.8310
G01 X11.3226 Y2.8392
G01 X11.3012 Y2.8447
G01 X11.2745 Y2.8488
G01 X11.2500 Y2.8500
G01 X10.3500 Y2.8500
G01 X10.3255 Y2.8488
G01 X10.3012 Y2.8452
G01 X10.2774 Y2.8392
G01 X10.2543 Y2.8310
G01 X10.2322 Y2.8205
G01 X10.2111 Y2.8079
G01 X10.1914 Y2.7933
G01 X10.1732 Y2.7768
G01 X10.1567 Y2.7586
G01 X10.1421 Y2.7389
G01 X10.1295 Y2.7178
G01 X10.1190 Y2.6957
G01 X10.1108 Y2.6726
G01 X10.1048 Y2.6488
G01 X10.1012 Y2.6245
G01 X10.1000 Y2.6000
G00 Z2.0000
G00 X18.1977 Y2.8001
G01 F50.00
G01 Z-0.0500
G01 F50.00
G01 X18.3471 Y2.8001
G01 X18.3531 Y2.8121
G01 X18.3604 Y2.8249
G01 X18.3718 Y2.8438
G01 X18.3800 Y2.8561
G01 X18.3931 Y2.8739
G01 X18.4021 Y2.8855
G01 X18.4118 Y2.8966
G01 X18.4294 Y2.9158
G01 X18.4215 Y2.9220
G01 X18.4104 Y2.9316
G01 X18.3824 Y2.9574
G01 X18.3723 Y2.9681
G01 X18.3517 Y2.9909
G01 X18.3424 Y3.0023
G01 X18.3341 Y3.0133
G01 X18.3305 Y3.0012
G01 X18.3255 Y2.9872
G01 X18.3199 Y2.9734
G01 X18.3136 Y2.9599
G01 X18.3029 Y2.9403
G01 X18.2633 Y2.8739
G01 X18.2550 Y2.8614
G01 X18.2462 Y2.8495
G01 X18.2318 Y2.8323
G01 X18.2162 Y2.8163
G01 X18.2052 Y2.8063
G01 X18.1977 Y2.8001
G00 Z2.0000
G00 X19.7326 Y3.1283
G01 F50.00
G01 Z-0.0500
G01 F50.00
G01 X19.7182 Y3.0973
G01 X19.7115 Y3.0841
G01 X19.7043 Y3.0713
G01 X19.6903 Y3.0482
G01 X19.7014 Y3.0470
G01 X19.7306 Y3.0427
G01 X19.7522 Y3.0381
G01 X19.7736 Y3.0327
G01 X19.7876 Y3.0284
G01 X19.8213 Y3.0161
G01 X19.8070 Y3.0279
G01 X19.7961 Y3.0380
G01 X19.7857 Y3.0487
G01 X19.7711 Y3.0656
G01 X19.7578 Y3.0836
G01 X19.7498 Y3.0961
G01 X19.7423 Y3.1090
G01 X19.7326 Y3.1283
G00 Z2.0000
G00 X20.0000 Y2.8828
G01 F50.00
G01 Z-0.0500
G01 F50.00
G01 X20.0118 Y2.8966
G01 X20.0304 Y2.9168
G01 X20.0115 Y2.9195
G01 X19.9897 Y2.9243
G01 X19.9682 Y2.9306
G01 X19.9542 Y2.9358
G01 X19.9452 Y2.9395
G01 X19.9629 Y2.9233
G01 X19.9733 Y2.9129
G01 X19.9882 Y2.8966
G01 X20.0000 Y2.8828
G00 Z2.0000
G00 X20.0000 Y2.6000
G01 F50.00
G01 Z-0.0500
G01 F50.00
G01 X20.0001 Y1.8951
G01 X20.0017 Y1.8657
G01 X20.0050 Y1.8414
G01 X20.0077 Y1.8269
G01 X20.0151 Y1.7984
G01 X20.0248 Y1.7706
G01 X20.0286 Y1.7615
G01 X20.0369 Y1.7438
G01 X20.0437 Y1.7307
G01 X20.0590 Y1.7056
G01 X20.0764 Y1.6818
G01 X20.0859 Y1.6705
G01 X20.0991 Y1.6560
G01 X20.1060 Y1.6491
G01 X20.1280 Y1.6294
G01 X20.1515 Y1.6118
G01 X20.1597 Y1.6063
G01 X20.1765 Y1.5962
G01 X20.1894 Y1.5891
G01 X20.2161 Y1.5766
G01 X20.2437 Y1.5666
G01 X20.2531 Y1.5637
G01 X20.2721 Y1.5589
G01 X20.2914 Y1.5550
G01 X20.3108 Y1.5522
G01 X20.3206 Y1.5513
G01 X20.3500 Y1.5500
G01 X21.2500 Y1.5500
G01 X21.2843 Y1.5517
G01 X21.3183 Y1.5567
G01 X21.3469 Y1.5637
G01 X21.3609 Y1.5682
G01 X21.3839 Y1.5766
G01 X21.4106 Y1.5891
G01 X21.4235 Y1.5962
G01 X21.4403 Y1.6063
G01 X21.4485 Y1.6118
G01 X21.4720 Y1.6294
G01 X21.4904 Y1.6457
G01 X21.5009 Y1.6560
G01 X21.5206 Y1.6780
G01 X21.5354 Y1.6975
G01 X21.5437 Y1.7097
G01 X21.5587 Y1.7350
G01 X21.5694 Y1.7571
G01 X21.5752 Y1.7706
G01 X21.5854 Y1.7999
G01 X28.4146 Y1.7999
G01 X28.4248 Y1.7706
G01 X28.4306 Y1.7571
G01 X28.4413 Y1.7350
G01 X28.4563 Y1.7097
G01 X28.4646 Y1.6975
G01 X28.4794 Y1.6780
G01 X28.4991 Y1.6560
G01 X28.5096 Y1.6457
G01 X28.5280 Y1.6294
G01 X28.5515 Y1.6118
G01 X28.5597 Y1.6063
G01 X28.5765 Y1.5962
G01 X28.5894 Y1.5891
G01 X28.6161 Y1.5766
G01 X28.6391 Y1.5682
G01 X28.6531 Y1.5637
G01 X28.6817 Y1.5567
G01 X28.7157 Y1.5517
G01 X28.7500 Y1.5500
G01 X29.6549 Y1.5501
G01 X29.6843 Y1.5517
G01 X29.7183 Y1.5567
G01 X29.7516 Y1.5651
G01 X29.7839 Y1.5766
G01 X29.8150 Y1.5913
G01 X29.8444 Y1.6090
G01 X29.8720 Y1.6294
G01 X29.8940 Y1.6491
G01 X29.9009 Y1.6560
G01 X29.9174 Y1.6742
G01 X29.9236 Y1.6818
G01 X29.9354 Y1.6975
G01 X29.9437 Y1.7097
G01 X29.9538 Y1.7265
G01 X29.9631 Y1.7438
G01 X29.9714 Y1.7615
G01 X29.9752 Y1.7706
G01 X29.9834 Y1.7937
G01 X29.9863 Y1.8031
G01 X29.9923 Y1.8269
G01 X29.9942 Y1.8365
G01 X29.9978 Y1.8608
G01 X29.9987 Y1.8706
G01 X30.0000 Y1.9000
G01 X29.9998 Y2.6098
G01 X29.9987 Y2.6294
G01 X29.9971 Y2.6440
G01 X29.9933 Y2.6683
G01 X29.9875 Y2.6921
G01 X29.9834 Y2.7063
G01 X29.9752 Y2.7294
G01 X29.9714 Y2.7385
G01 X29.9609 Y2.7606
G01 X29.9563 Y2.7693
G01 X29.9437 Y2.7903
G01 X29.9382 Y2.7985
G01 X29.9236 Y2.8182
G01 X29.9174 Y2.8258
G01 X29.9009 Y2.8440
G01 X29.8940 Y2.8509
G01 X29.8795 Y2.8641
G01 X29.8682 Y2.8736
G01 X29.8485 Y2.8882
G01 X29.8403 Y2.8937
G01 X29.8235 Y2.9038
G01 X29.8106 Y2.9109
G01 X29.7929 Y2.9194
G01 X29.7748 Y2.9269
G01 X29.7516 Y2.9349
G01 X29.7231 Y2.9423
G01 X29.7086 Y2.9450
G01 X29.6892 Y2.9478
G01 X29.6794 Y2.9487
G01 X29.6500 Y2.9500
G01 X29.4501 Y2.9500
G01 X29.4501 Y2.9552
G01 X29.4806 Y2.9737
G01 X29.5073 Y2.9933
G01 X29.5188 Y3.0025
G01 X29.5433 Y3.0247
G01 X29.5536 Y3.0353
G01 X29.5757 Y3.0600
G01 X29.5985 Y3.0904
G01 X29.6065 Y3.1027
G01 X29.6233 Y3.1313
G01 X29.6417 Y3.1701
G01 X29.6562 Y3.2105
G01 X29.6666 Y3.2521
G01 X29.6729 Y3.2946
G01 X29.6749 Y3.3326
G01 X29.6749 Y3.8424
G01 X29.6729 Y3.8804
G01 X29.6683 Y3.9132
G01 X29.6656 Y3.9277
G01 X29.6562 Y3.9645
G01 X29.6435 Y4.0004
G01 X29.6377 Y4.0139
G01 X29.6233 Y4.0437
G01 X29.6013 Y4.0806
G01 X29.5757 Y4.1150
G01 X29.5536 Y4.1397
G01 X29.5433 Y4.1503
G01 X29.5150 Y4.1757
G01 X29.4806 Y4.2013
G01 X29.4523 Y4.2185
G01 X29.4394 Y4.2256
G01 X29.4049 Y4.2417
G01 X29.3645 Y4.2562
G01 X29.3324 Y4.2644
G01 X29.3132 Y4.2683
G01 X29.2853 Y4.2724
G01 X29.2755 Y4.2733
G01 X29.2375 Y4.2750
G01 X28.7576 Y4.2749
G01 X28.7245 Y4.2733
G01 X28.7099 Y4.2717
G01 X28.6771 Y4.2666
G01 X28.6450 Y4.2588
G01 X28.6308 Y4.2547
G01 X28.5996 Y4.2435
G01 X28.5861 Y4.2377
G01 X28.5563 Y4.2233
G01 X28.5194 Y4.2013
G01 X28.4850 Y4.1757
G01 X28.4531 Y4.1469
G01 X28.4243 Y4.1150
G01 X28.3987 Y4.0806
G01 X28.3767 Y4.0437
G01 X28.3583 Y4.0049
G01 X28.3438 Y3.9645
G01 X28.3356 Y3.9324
G01 X28.3325 Y3.9180
G01 X28.3276 Y3.8853
G01 X28.3264 Y3.8706
G01 X28.3250 Y3.8375
G01 X28.3250 Y3.3375
G01 X28.3271 Y3.2946
G01 X28.3317 Y3.2618
G01 X28.3344 Y3.2473
G01 X28.3425 Y3.2152
G01 X28.3469 Y3.2012
G01 X28.3583 Y3.1701
G01 X28.3767 Y3.1313
G01 X28.3935 Y3.1027
G01 X28.4015 Y3.0904
G01 X28.4183 Y3.0677
G01 X28.4275 Y3.0562
G01 X28.4497 Y3.0317
G01 X28.4603 Y3.0214
G01 X28.4850 Y2.9993
G01 X28.5114 Y2.9794
G01 X28.5236 Y2.9711
G01 X28.5499 Y2.9552
G01 X28.5499 Y2.8871
G01 X28.5280 Y2.8706
G01 X28.5025 Y2.8475
G01 X28.4826 Y2.8258
G01 X28.4764 Y2.8182
G01 X28.4646 Y2.8025
G01 X28.4537 Y2.7862
G01 X28.4437 Y2.7693
G01 X28.4391 Y2.7606
G01 X28.4266 Y2.7339
G01 X28.4182 Y2.7109
G01 X28.4146 Y2.7001
G01 X21.5854 Y2.7001
G01 X21.5752 Y2.7294
G01 X21.5694 Y2.7429
G01 X21.5587 Y2.7650
G01 X21.5437 Y2.7903
G01 X21.5354 Y2.8025
G01 X21.5206 Y2.8220
G01 X21.5009 Y2.8440
G01 X21.4904 Y2.8543
G01 X21.4720 Y2.8706
G01 X21.4485 Y2.8882
G01 X21.4403 Y2.8937
G01 X21.4235 Y2.9038
G01 X21.4106 Y2.9109
G01 X21.3839 Y2.9234
G01 X21.3609 Y2.9318
G01 X21.3469 Y2.9363
G01 X21.3183 Y2.9433
G01 X21.2843 Y2.9483
G01 X21.2500 Y2.9500
G01 X20.3500 Y2.9500
G01 X20.3157 Y2.9483
G01 X20.2817 Y2.9433
G01 X20.2484 Y2.9349
G01 X20.2161 Y2.9234
G01 X20.1850 Y2.9087
G01 X20.1556 Y2.8910
G01 X20.1280 Y2.8706
G01 X20.1025 Y2.8475
G01 X20.0794 Y2.8220
G01 X20.0590 Y2.7944
G01 X20.0413 Y2.7650
G01 X20.0266 Y2.7339
G01 X20.0151 Y2.7016
G01 X20.0067 Y2.6683
G01 X20.0017 Y2.6343
G01 X20.0000 Y2.6000
G00 Z2.0000
G00 X20.1000 Y2.6000
G01 F50.00
G01 Z-0.0500
G01 F50.00
G01 X20.1000 Y1.9000
G01 X20.1012 Y1.8755
G01 X20.1040 Y1.8561
G01 X20.1059 Y1.8464
G01 X20.1108 Y1.8274
G01 X20.1190 Y1.8043
G01 X20.1295 Y1.7822
G01 X20.1395 Y1.7653
G01 X20.1450 Y1.7571
G01 X20.1583 Y1.7395
G01 X20.1732 Y1.7232
G01 X20.1895 Y1.7083
G01 X20.2071 Y1.6950
G01 X20.2153 Y1.6895
G01 X20.2322 Y1.6795
G01 X20.2543 Y1.6690
G01 X20.2774 Y1.6608
G01 X20.2964 Y1.6559
G01 X20.3061 Y1.6540
G01 X20.3279 Y1.6510
G01 X20.3500 Y1.6500
G01 X21.2500 Y1.6500
G01 X21.2745 Y1.6512
G01 X21.3012 Y1.6553
G01 X21.3226 Y1.6608
G01 X21.3457 Y1.6690
G01 X21.3678 Y1.6795
G01 X21.3847 Y1.6895
G01 X21.3929 Y1.6950
G01 X21.4067 Y1.7052
G01 X21.4123 Y1.7100
G01 X21.4268 Y1.7232
G01 X21.4433 Y1.7414
G01 X21.4579 Y1.7611
G01 X21.4681 Y1.7779
G01 X21.4727 Y1.7865
G01 X21.4800 Y1.8021
G01 X21.4827 Y1.8089
G01 X21.4892 Y1.8274
G01 X21.4952 Y1.8512
G01 X21.4988 Y1.8755
G01 X21.5000 Y1.8999
G01 X28.5000 Y1.8999
G01 X28.5012 Y1.8755
G01 X28.5048 Y1.8512
G01 X28.5108 Y1.8274
G01 X28.5173 Y1.8089
G01 X28.5200 Y1.8021
G01 X28.5273 Y1.7865
G01 X28.5319 Y1.7779
G01 X28.5421 Y1.7611
G01 X28.5567 Y1.7414
G01 X28.5732 Y1.7232
G01 X28.5877 Y1.7100
G01 X28.5953 Y1.7037
G01 X28.6091 Y1.6935
G01 X28.6153 Y1.6895
G01 X28.6322 Y1.6795
G01 X28.6543 Y1.6690
G01 X28.6774 Y1.6608
G01 X28.6988 Y1.6553
G01 X28.7255 Y1.6512
G01 X28.7500 Y1.6500
G01 X29.6525 Y1.6500
G01 X29.6745 Y1.6512
G01 X29.6988 Y1.6548
G01 X29.7226 Y1.6608
G01 X29.7457 Y1.6690
G01 X29.7678 Y1.6795
G01 X29.7889 Y1.6921
G01 X29.8086 Y1.7067
G01 X29.8232 Y1.7198
G01 X29.8285 Y1.7250
G01 X29.8400 Y1.7377
G01 X29.8463 Y1.7453
G01 X29.8592 Y1.7632
G01 X29.8693 Y1.7800
G01 X29.8727 Y1.7865
G01 X29.8819 Y1.8066
G01 X29.8899 Y1.8298
G01 X29.8952 Y1.8512
G01 X29.8990 Y1.8779
G01 X29.9000 Y1.9000
G01 X29.9000 Y2.6025
G01 X29.8990 Y2.6221
G01 X29.8982 Y2.6294
G01 X29.8952 Y2.6488
G01 X29.8905 Y2.6678
G01 X29.8877 Y2.6772
G01 X29.8810 Y2.6957
G01 X29.8693 Y2.7200
G01 X29.8579 Y2.7389
G01 X29.8417 Y2.7605
G01 X29.8250 Y2.7785
G01 X29.8105 Y2.7917
G01 X29.8047 Y2.7963
G01 X29.7889 Y2.8079
G01 X29.7721 Y2.8181
G01 X29.7657 Y2.8216
G01 X29.7502 Y2.8290
G01 X29.7434 Y2.8319
G01 X29.7249 Y2.8385
G01 X29.7036 Y2.8441
G01 X29.6964 Y2.8456
G01 X29.6769 Y2.8485
G01 X29.6525 Y2.8500
G01 X29.3501 Y2.8500
G01 X29.3501 Y3.0196
G01 X29.3689 Y3.0267
G01 X29.3944 Y3.0387
G01 X29.4009 Y3.0423
G01 X29.4270 Y3.0583
G01 X29.4497 Y3.0751
G01 X29.4553 Y3.0798
G01 X29.4761 Y3.0989
G01 X29.4968 Y3.1215
G01 X29.5181 Y3.1500
G01 X29.5327 Y3.1741
G01 X29.5374 Y3.1828
G01 X29.5493 Y3.2083
G01 X29.5589 Y3.2349
G01 X29.5612 Y3.2419
G01 X29.5680 Y3.2693
G01 X29.5734 Y3.3044
G01 X29.5750 Y3.3375
G01 X29.5750 Y3.8375
G01 X29.5736 Y3.8681
G01 X29.5685 Y3.9033
G01 X29.5618 Y3.9307
G01 X29.5589 Y3.9401
G01 X29.5502 Y3.9644
G01 X29.5473 Y3.9711
G01 X29.5351 Y3.9966
G01 X29.5181 Y4.0250
G01 X29.4984 Y4.0516
G01 X29.4761 Y4.0761
G01 X29.4516 Y4.0984
G01 X29.4250 Y4.1181
G01 X29.3966 Y4.1351
G01 X29.3711 Y4.1473
G01 X29.3621 Y4.1511
G01 X29.3378 Y4.1597
G01 X29.3307 Y4.1618
G01 X29.3033 Y4.1685
G01 X29.2681 Y4.1736
G01 X29.2375 Y4.1750
G01 X28.7625 Y4.1750
G01 X28.7294 Y4.1734
G01 X28.6943 Y4.1680
G01 X28.6645 Y4.1605
G01 X28.6379 Y4.1511
G01 X28.6289 Y4.1473
G01 X28.6056 Y4.1363
G01 X28.5991 Y4.1327
G01 X28.5750 Y4.1181
G01 X28.5523 Y4.1014
G01 X28.5447 Y4.0952
G01 X28.5239 Y4.0761
G01 X28.5016 Y4.0516
G01 X28.4819 Y4.0250
G01 X28.4637 Y3.9944
G01 X28.4507 Y3.9667
G01 X28.4411 Y3.9401
G01 X28.4382 Y3.9307
G01 X28.4315 Y3.9033
G01 X28.4272 Y3.8755
G01 X28.4264 Y3.8681
G01 X28.4251 Y3.8424
G01 X28.4250 Y3.3375
G01 X28.4266 Y3.3044
G01 X28.4315 Y3.2717
G01 X28.4382 Y3.2443
G01 X28.4411 Y3.2349
G01 X28.4507 Y3.2083
G01 X28.4626 Y3.1828
G01 X28.4673 Y3.1741
G01 X28.4819 Y3.1500
G01 X28.5032 Y3.1215
G01 X28.5239 Y3.0989
G01 X28.5447 Y3.0798
G01 X28.5503 Y3.0751
G01 X28.5730 Y3.0583
G01 X28.5791 Y3.0543
G01 X28.6056 Y3.0387
G01 X28.6311 Y3.0267
G01 X28.6499 Y3.0196
G01 X28.6499 Y2.8290
G01 X28.6322 Y2.8205
G01 X28.6153 Y2.8105
G01 X28.6071 Y2.8050
G01 X28.5914 Y2.7933
G01 X28.5768 Y2.7802
G01 X28.5698 Y2.7732
G01 X28.5567 Y2.7586
G01 X28.5421 Y2.7389
G01 X28.5319 Y2.7221
G01 X28.5273 Y2.7135
G01 X28.5190 Y2.6957
G01 X28.5108 Y2.6726
G01 X28.5059 Y2.6536
G01 X28.5040 Y2.6439
G01 X28.5012 Y2.6245
G01 X28.5000 Y2.6001
G01 X21.5000 Y2.6001
G01 X21.4988 Y2.6245
G01 X21.4952 Y2.6488
G01 X21.4892 Y2.6726
G01 X21.4827 Y2.6911
G01 X21.4790 Y2.7002
G01 X21.4716 Y2.7157
G01 X21.4681 Y2.7221
G01 X21.4579 Y2.7389
G01 X21.4433 Y2.7586
G01 X21.4268 Y2.7768
G01 X21.4123 Y2.7900
G01 X21.4047 Y2.7963
G01 X21.3909 Y2.8065
G01 X21.3847 Y2.8105
G01 X21.3678 Y2.8205
G01 X21.3457 Y2.8310
G01 X21.3226 Y2.8392
G01 X21.3012 Y2.8447
G01 X21.2745 Y2.8488
G01 X21.2500 Y2.8500
G01 X20.3500 Y2.8500
G01 X20.3255 Y2.8488
G01 X20.3012 Y2.8452
G01 X20.2774 Y2.8392
G01 X20.2543 Y2.8310
G01 X20.2322 Y2.8205
G01 X20.2111 Y2.8079
G01 X20.1914 Y2.7933
G01 X20.1732 Y2.7768
G01 X20.1567 Y2.7586
