(G-CODE GENERATED BY FLATCAM v8.994 - www.flatcam.org - Version Date: 2020/11/7)

(Name: PatientMonitorButtons-Edge_Cuts.gbr_cutout_cnc)
(Type: G-code from Geometry)
(Units: MM)

(Created on Wednesday, 01 May 2024 at 23:39)

(This preprocessor is the default preprocessor used by FlatCAM.)
(It is made to work with MACH3 compatible motion controllers.)

(TOOL DIAMETER: 1.0 mm)
(Feedrate_XY: 50.0 mm/min)
(Feedrate_Z: 50.0 mm/min)
(Feedrate rapids 1500.0 mm/min)

(Z_Cut: -2.0 mm)
(DepthPerCut: 0.5 mm <=>4 passes)
(Z_Move: 2.0 mm)
(Z Start: None mm)
(Z End: 15.0 mm)
(X,Y End: None mm)
(Steps per circle: 64)
(Preprocessor Geometry: default)

(X range:   -0.5500 ...   40.5500  mm)
(Y range:   -0.5500 ...   11.5500  mm)

(Spindle Speed: 1000.0 RPM)
G21
G90
G94

G01 F50.00

M5
G00 Z15.0000
G00 X0.0000 Y0.0000
T1
M6    
(MSG, Change to Tool Dia = 1.0000)
M0
G00 Z15.0000

M03 S1000.0
G01 F50.00
G00 X-0.5500 Y11.0000
G01 F50.00
G01 Z-0.5000
G01 F50.00
G01 X-0.5492 Y11.0294
G01 X-0.5444 Y11.0783
G01 X-0.5341 Y11.1312
G01 X-0.5186 Y11.1830
G01 X-0.4982 Y11.2329
G01 X-0.4730 Y11.2806
G01 X-0.4432 Y11.3256
G01 X-0.4091 Y11.3675
G01 X-0.3712 Y11.4058
G01 X-0.3296 Y11.4403
G01 X-0.2848 Y11.4705
G01 X-0.2374 Y11.4961
G01 X-0.1876 Y11.5170
G01 X-0.1360 Y11.5329
G01 X-0.0831 Y11.5437
G01 X-0.0294 Y11.5492
G01 X0.0000 Y11.5500
G01 X40.0000 Y11.5500
G01 X40.0294 Y11.5492
G01 X40.0783 Y11.5444
G01 X40.1360 Y11.5329
G01 X40.1876 Y11.5170
G01 X40.2374 Y11.4961
G01 X40.2848 Y11.4705
G01 X40.3256 Y11.4432
G01 X40.3712 Y11.4058
G01 X40.4091 Y11.3675
G01 X40.4403 Y11.3296
G01 X40.4730 Y11.2806
G01 X40.4982 Y11.2329
G01 X40.5186 Y11.1830
G01 X40.5341 Y11.1312
G01 X40.5437 Y11.0831
G01 X40.5494 Y11.0245
G01 X40.5500 Y11.0000
G01 X40.5500 Y0.0000
G01 X40.5492 Y-0.0294
G01 X40.5444 Y-0.0783
G01 X40.5329 Y-0.1360
G01 X40.5170 Y-0.1876
G01 X40.4961 Y-0.2374
G01 X40.4730 Y-0.2806
G01 X40.4432 Y-0.3256
G01 X40.4058 Y-0.3712
G01 X40.3712 Y-0.4058
G01 X40.3296 Y-0.4403
G01 X40.2806 Y-0.4730
G01 X40.2329 Y-0.4982
G01 X40.1830 Y-0.5186
G01 X40.1360 Y-0.5329
G01 X40.0831 Y-0.5437
G01 X40.0294 Y-0.5492
G01 X40.0000 Y-0.5500
G01 X0.0000 Y-0.5500
G01 X-0.0294 Y-0.5492
G01 X-0.0783 Y-0.5444
G01 X-0.1360 Y-0.5329
G01 X-0.1876 Y-0.5170
G01 X-0.2329 Y-0.4982
G01 X-0.2806 Y-0.4730
G01 X-0.3256 Y-0.4432
G01 X-0.3712 Y-0.4058
G01 X-0.4091 Y-0.3675
G01 X-0.4403 Y-0.3296
G01 X-0.4730 Y-0.2806
G01 X-0.4982 Y-0.2329
G01 X-0.5186 Y-0.1830
G01 X-0.5329 Y-0.1360
G01 X-0.5437 Y-0.0831
G01 X-0.5494 Y-0.0245
G01 X-0.5500 Y0.0000
G01 X-0.5500 Y11.0000
G00 X-0.5500 Y11.0000
G01 F50.00
G01 Z-1.0000
G01 F50.00
G01 X-0.5500 Y0.0000
G01 X-0.5494 Y-0.0245
G01 X-0.5437 Y-0.0831
G01 X-0.5329 Y-0.1360
G01 X-0.5186 Y-0.1830
G01 X-0.4982 Y-0.2329
G01 X-0.4730 Y-0.2806
G01 X-0.4403 Y-0.3296
G01 X-0.4091 Y-0.3675
G01 X-0.3712 Y-0.4058
G01 X-0.3256 Y-0.4432
G01 X-0.2806 Y-0.4730
G01 X-0.2329 Y-0.4982
G01 X-0.1876 Y-0.5170
G01 X-0.1360 Y-0.5329
G01 X-0.0783 Y-0.5444
G01 X-0.0294 Y-0.5492
G01 X0.0000 Y-0.5500
G01 X40.0000 Y-0.5500
G01 X40.0294 Y-0.5492
G01 X40.0831 Y-0.5437
G01 X40.1360 Y-0.5329
G01 X40.1830 Y-0.5186
G01 X40.2329 Y-0.4982
G01 X40.2806 Y-0.4730
G01 X40.3296 Y-0.4403
G01 X40.3712 Y-0.4058
G01 X40.4058 Y-0.3712
G01 X40.4432 Y-0.3256
G01 X40.4730 Y-0.2806
G01 X40.4961 Y-0.2374
G01 X40.5170 Y-0.1876
G01 X40.5329 Y-0.1360
G01 X40.5444 Y-0.0783
G01 X40.5492 Y-0.0294
G01 X40.5500 Y0.0000
G01 X40.5500 Y11.0000
G01 X40.5494 Y11.0245
G01 X40.5437 Y11.0831
G01 X40.5341 Y11.1312
G01 X40.5186 Y11.1830
G01 X40.4982 Y11.2329
G01 X40.4730 Y11.2806
G01 X40.4403 Y11.3296
G01 X40.4091 Y11.3675
G01 X40.3712 Y11.4058
G01 X40.3256 Y11.4432
G01 X40.2848 Y11.4705
G01 X40.2374 Y11.4961
G01 X40.1876 Y11.5170
G01 X40.1360 Y11.5329
G01 X40.0783 Y11.5444
G01 X40.0294 Y11.5492
G01 X40.0000 Y11.5500
G01 X0.0000 Y11.5500
G01 X-0.0294 Y11.5492
G01 X-0.0831 Y11.5437
G01 X-0.1360 Y11.5329
G01 X-0.1876 Y11.5170
G01 X-0.2374 Y11.4961
G01 X-0.2848 Y11.4705
G01 X-0.3296 Y11.4403
G01 X-0.3712 Y11.4058
G01 X-0.4091 Y11.3675
G01 X-0.4432 Y11.3256
G01 X-0.4730 Y11.2806
G01 X-0.4982 Y11.2329
G01 X-0.5186 Y11.1830
G01 X-0.5341 Y11.1312
G01 X-0.5444 Y11.0783
G01 X-0.5492 Y11.0294
G01 X-0.5500 Y11.0000
G00 X-0.5500 Y11.0000
G01 F50.00
G01 Z-1.5000
G01 F50.00
G01 X-0.5492 Y11.0294
G01 X-0.5444 Y11.0783
G01 X-0.5341 Y11.1312
G01 X-0.5186 Y11.1830
G01 X-0.4982 Y11.2329
G01 X-0.4730 Y11.2806
G01 X-0.4432 Y11.3256
G01 X-0.4091 Y11.3675
G01 X-0.3712 Y11.4058
G01 X-0.3296 Y11.4403
G01 X-0.2848 Y11.4705
G01 X-0.2374 Y11.4961
G01 X-0.1876 Y11.5170
G01 X-0.1360 Y11.5329
G01 X-0.0831 Y11.5437
G01 X-0.0294 Y11.5492
G01 X0.0000 Y11.5500
G01 X40.0000 Y11.5500
G01 X40.0294 Y11.5492
G01 X40.0783 Y11.5444
G01 X40.1360 Y11.5329
G01 X40.1876 Y11.5170
G01 X40.2374 Y11.4961
G01 X40.2848 Y11.4705
G01 X40.3256 Y11.4432
G01 X40.3712 Y11.4058
G01 X40.4091 Y11.3675
G01 X40.4403 Y11.3296
G01 X40.4730 Y11.2806
G01 X40.4982 Y11.2329
G01 X40.5186 Y11.1830
G01 X40.5341 Y11.1312
G01 X40.5437 Y11.0831
G01 X40.5494 Y11.0245
G01 X40.5500 Y11.0000
G01 X40.5500 Y0.0000
G01 X40.5492 Y-0.0294
G01 X40.5444 Y-0.0783
G01 X40.5329 Y-0.1360
G01 X40.5170 Y-0.1876
G01 X40.4961 Y-0.2374
G01 X40.4730 Y-0.2806
G01 X40.4432 Y-0.3256
G01 X40.4058 Y-0.3712
G01 X40.3712 Y-0.4058
G01 X40.3296 Y-0.4403
G01 X40.2806 Y-0.4730
G01 X40.2329 Y-0.4982
G01 X40.1830 Y-0.5186
G01 X40.1360 Y-0.5329
G01 X40.0831 Y-0.5437
G01 X40.0294 Y-0.5492
G01 X40.0000 Y-0.5500
G01 X0.0000 Y-0.5500
G01 X-0.0294 Y-0.5492
G01 X-0.0783 Y-0.5444
G01 X-0.1360 Y-0.5329
G01 X-0.1876 Y-0.5170
G01 X-0.2329 Y-0.4982
G01 X-0.2806 Y-0.4730
G01 X-0.3256 Y-0.4432
G01 X-0.3712 Y-0.4058
G01 X-0.4091 Y-0.3675
G01 X-0.4403 Y-0.3296
G01 X-0.4730 Y-0.2806
G01 X-0.4982 Y-0.2329
G01 X-0.5186 Y-0.1830
G01 X-0.5329 Y-0.1360
G01 X-0.5437 Y-0.0831
G01 X-0.5494 Y-0.0245
G01 X-0.5500 Y0.0000
G01 X-0.5500 Y11.0000
G00 X-0.5500 Y11.0000
G01 F50.00
G01 Z-2.0000
G01 F50.00
G01 X-0.5500 Y0.0000
G01 X-0.5494 Y-0.0245
G01 X-0.5437 Y-0.0831
G01 X-0.5329 Y-0.1360
G01 X-0.5186 Y-0.1830
G01 X-0.4982 Y-0.2329
G01 X-0.4730 Y-0.2806
G01 X-0.4403 Y-0.3296
G01 X-0.4091 Y-0.3675
G01 X-0.3712 Y-0.4058
G01 X-0.3256 Y-0.4432
G01 X-0.2806 Y-0.4730
G01 X-0.2329 Y-0.4982
G01 X-0.1876 Y-0.5170
G01 X-0.1360 Y-0.5329
G01 X-0.0783 Y-0.5444
G01 X-0.0294 Y-0.5492
G01 X0.0000 Y-0.5500
G01 X40.0000 Y-0.5500
G01 X40.0294 Y-0.5492
G01 X40.0831 Y-0.5437
G01 X40.1360 Y-0.5329
G01 X40.1830 Y-0.5186
G01 X40.2329 Y-0.4982
G01 X40.2806 Y-0.4730
G01 X40.3296 Y-0.4403
G01 X40.3712 Y-0.4058
G01 X40.4058 Y-0.3712
G01 X40.4432 Y-0.3256
G01 X40.4730 Y-0.2806
G01 X40.4961 Y-0.2374
G01 X40.5170 Y-0.1876
G01 X40.5329 Y-0.1360
G01 X40.5444 Y-0.0783
G01 X40.5492 Y-0.0294
G01 X40.5500 Y0.0000
G01 X40.5500 Y11.0000
G01 X40.5494 Y11.0245
G01 X40.5437 Y11.0831
G01 X40.5341 Y11.1312
G01 X40.5186 Y11.1830
G01 X40.4982 Y11.2329
G01 X40.4730 Y11.2806
G01 X40.4403 Y11.3296
G01 X40.4091 Y11.3675
G01 X40.3712 Y11.4058
G01 X40.3256 Y11.4432
G01 X40.2848 Y11.4705
G01 X40.2374 Y11.4961
G01 X40.1876 Y11.5170
G01 X40.1360 Y11.5329
G01 X40.0783 Y11.5444
G01 X40.0294 Y11.5492
G01 X40.0000 Y11.5500
G01 X0.0000 Y11.5500
G01 X-0.0294 Y11.5492
G01 X-0.0831 Y11.5437
G01 X-0.1360 Y11.5329
G01 X-0.1876 Y11.5170
G01 X-0.2374 Y11.4961
G01 X-0.2848 Y11.4705
G01 X-0.3296 Y11.4403
G01 X-0.3712 Y11.4058
G01 X-0.4091 Y11.3675
G01 X-0.4432 Y11.3256
G01 X-0.4730 Y11.2806
G01 X-0.4982 Y11.2329
G01 X-0.5186 Y11.1830
G01 X-0.5341 Y11.1312
G01 X-0.5444 Y11.0783
G01 X-0.5492 Y11.0294
G01 X-0.5500 Y11.0000
G00 Z2.0000
M05
G00 Z2.0000
G00 Z15.00


