(G-CODE GENERATED BY FLATCAM v8.994 - www.flatcam.org - Version Date: 2020/11/7)

(Name: PatientMonitorButtons-B_Cu.gbr_iso_combined_cnc)
(Type: G-code from Geometry)
(Units: MM)

(Created on Wednesday, 01 May 2024 at 23:06)

(This preprocessor is the default preprocessor used by FlatCAM.)
(It is made to work with MACH3 compatible motion controllers.)

(TOOL DIAMETER: 0.2 mm)
(Feedrate_XY: 50.0 mm/min)
(Feedrate_Z: 50.0 mm/min)
(Feedrate rapids 1500.0 mm/min)

(Z_Cut: -0.05 mm)
(Z_Move: 2.0 mm)
(Z Start: None mm)
(Z End: 15.0 mm)
(X,Y End: None mm)
(Steps per circle: 64)
(Preprocessor Geometry: default)

(X range:    0.2000 ...   39.8000  mm)
(Y range:    8.2000 ...   10.8800  mm)

(Spindle Speed: 1000.0 RPM)
G21
G90
G94

G01 F50.00

M5
G00 Z15.0000
G00 X0.0000 Y0.0000
T1
M6    
(MSG, Change to Tool Dia = 0.2000)
M0
G00 Z15.0000

M03 S1000.0
G01 F50.00
G00 X0.4001 Y9.5049
G01 F50.00
G01 Z-0.0500
G01 F50.00
G01 X0.4001 Y9.4951
G01 X0.4053 Y9.3922
G01 X0.4211 Y9.2854
G01 X0.4474 Y9.1807
G01 X0.4837 Y9.0790
G01 X0.5299 Y8.9815
G01 X0.5854 Y8.8889
G01 X0.6497 Y8.8022
G01 X0.7222 Y8.7222
G01 X0.8022 Y8.6497
G01 X0.8889 Y8.5854
G01 X0.9815 Y8.5299
G01 X1.0790 Y8.4837
G01 X1.1807 Y8.4474
G01 X1.2854 Y8.4211
G01 X1.3922 Y8.4053
G01 X1.5000 Y8.4000
G01 X1.6078 Y8.4053
G01 X1.7146 Y8.4211
G01 X1.8193 Y8.4474
G01 X1.9210 Y8.4837
G01 X2.0185 Y8.5299
G01 X2.1111 Y8.5854
G01 X2.1978 Y8.6497
G01 X2.2778 Y8.7222
G01 X2.3503 Y8.8022
G01 X2.4146 Y8.8889
G01 X2.4701 Y8.9815
G01 X2.5163 Y9.0790
G01 X2.5526 Y9.1807
G01 X2.5789 Y9.2854
G01 X2.5947 Y9.3922
G01 X2.6000 Y9.5000
G01 X2.5947 Y9.6078
G01 X2.5789 Y9.7146
G01 X2.5526 Y9.8193
G01 X2.5163 Y9.9210
G01 X2.4701 Y10.0185
G01 X2.4146 Y10.1111
G01 X2.3503 Y10.1978
G01 X2.2778 Y10.2778
G01 X2.1978 Y10.3503
G01 X2.1111 Y10.4146
G01 X2.0185 Y10.4701
G01 X1.9210 Y10.5163
G01 X1.8193 Y10.5526
G01 X1.7146 Y10.5789
G01 X1.6078 Y10.5947
G01 X1.5000 Y10.6000
G01 X1.3922 Y10.5947
G01 X1.2854 Y10.5789
G01 X1.1807 Y10.5526
G01 X1.0790 Y10.5163
G01 X0.9815 Y10.4701
G01 X0.8889 Y10.4146
G01 X0.8022 Y10.3503
G01 X0.7222 Y10.2778
G01 X0.6497 Y10.1978
G01 X0.5854 Y10.1111
G01 X0.5299 Y10.0185
G01 X0.4837 Y9.9210
G01 X0.4474 Y9.8193
G01 X0.4211 Y9.7146
G01 X0.4053 Y9.6078
G01 X0.4001 Y9.5049
G00 Z2.0000
G00 X0.3002 Y9.5098
G01 F50.00
G01 Z-0.0500
G01 F50.00
G01 X0.3002 Y9.4902
G01 X0.3058 Y9.3824
G01 X0.3231 Y9.2659
G01 X0.3517 Y9.1517
G01 X0.3913 Y9.0408
G01 X0.4417 Y8.9343
G01 X0.5022 Y8.8333
G01 X0.5724 Y8.7387
G01 X0.6515 Y8.6515
G01 X0.7387 Y8.5724
G01 X0.8333 Y8.5022
G01 X0.9343 Y8.4417
G01 X1.0408 Y8.3913
G01 X1.1517 Y8.3517
G01 X1.2659 Y8.3231
G01 X1.3824 Y8.3058
G01 X1.5000 Y8.3000
G01 X1.6176 Y8.3058
G01 X1.7341 Y8.3231
G01 X1.8483 Y8.3517
G01 X1.9592 Y8.3913
G01 X2.0657 Y8.4417
G01 X2.1667 Y8.5022
G01 X2.2613 Y8.5724
G01 X2.3485 Y8.6515
G01 X2.4276 Y8.7387
G01 X2.4978 Y8.8333
G01 X2.5583 Y8.9343
G01 X2.6087 Y9.0408
G01 X2.6483 Y9.1517
G01 X2.6769 Y9.2659
G01 X2.6942 Y9.3824
G01 X2.7000 Y9.5000
G01 X2.6942 Y9.6176
G01 X2.6769 Y9.7341
G01 X2.6483 Y9.8483
G01 X2.6087 Y9.9592
G01 X2.5583 Y10.0657
G01 X2.4978 Y10.1667
G01 X2.4276 Y10.2613
G01 X2.3485 Y10.3485
G01 X2.2613 Y10.4276
G01 X2.1667 Y10.4978
G01 X2.0657 Y10.5583
G01 X1.9592 Y10.6087
G01 X1.8483 Y10.6483
G01 X1.7341 Y10.6769
G01 X1.6176 Y10.6942
G01 X1.5000 Y10.7000
G01 X1.3824 Y10.6942
G01 X1.2659 Y10.6769
G01 X1.1517 Y10.6483
G01 X1.0408 Y10.6087
G01 X0.9343 Y10.5583
G01 X0.8333 Y10.4978
G01 X0.7387 Y10.4276
G01 X0.6515 Y10.3485
G01 X0.5724 Y10.2613
G01 X0.5022 Y10.1667
G01 X0.4417 Y10.0657
G01 X0.3913 Y9.9592
G01 X0.3517 Y9.8483
G01 X0.3231 Y9.7341
G01 X0.3058 Y9.6176
G01 X0.3002 Y9.5098
G00 Z2.0000
G00 X0.2004 Y9.5147
G01 F50.00
G01 Z-0.0500
G01 F50.00
G01 X0.2000 Y9.5000
G01 X0.2004 Y9.4853
G01 X0.2052 Y9.3873
G01 X0.2063 Y9.3726
G01 X0.2081 Y9.3580
G01 X0.2225 Y9.2609
G01 X0.2250 Y9.2464
G01 X0.2282 Y9.2320
G01 X0.2521 Y9.1368
G01 X0.2560 Y9.1226
G01 X0.2606 Y9.1086
G01 X0.2937 Y9.0162
G01 X0.2990 Y9.0025
G01 X0.3049 Y8.9891
G01 X0.3469 Y8.9003
G01 X0.3535 Y8.8872
G01 X0.3608 Y8.8744
G01 X0.4112 Y8.7902
G01 X0.4191 Y8.7778
G01 X0.4276 Y8.7657
G01 X0.4860 Y8.6869
G01 X0.4951 Y8.6753
G01 X0.5047 Y8.6641
G01 X0.5706 Y8.5914
G01 X0.5808 Y8.5808
G01 X0.5914 Y8.5706
G01 X0.6641 Y8.5047
G01 X0.6753 Y8.4951
G01 X0.6869 Y8.4860
G01 X0.7657 Y8.4276
G01 X0.7778 Y8.4191
G01 X0.7902 Y8.4112
G01 X0.8744 Y8.3608
G01 X0.8872 Y8.3535
G01 X0.9003 Y8.3469
G01 X0.9891 Y8.3049
G01 X1.0025 Y8.2990
G01 X1.0162 Y8.2937
G01 X1.1086 Y8.2606
G01 X1.1226 Y8.2560
G01 X1.1368 Y8.2521
G01 X1.2320 Y8.2282
G01 X1.2464 Y8.2250
G01 X1.2609 Y8.2225
G01 X1.3580 Y8.2081
G01 X1.3726 Y8.2063
G01 X1.3873 Y8.2052
G01 X1.4853 Y8.2004
G01 X1.5000 Y8.2000
G01 X1.5147 Y8.2004
G01 X1.6127 Y8.2052
G01 X1.6274 Y8.2063
G01 X1.6420 Y8.2081
G01 X1.7391 Y8.2225
G01 X1.7536 Y8.2250
G01 X1.7680 Y8.2282
G01 X1.8632 Y8.2521
G01 X1.8774 Y8.2560
G01 X1.8914 Y8.2606
G01 X1.9838 Y8.2937
G01 X1.9975 Y8.2990
G01 X2.0109 Y8.3049
G01 X2.0997 Y8.3469
G01 X2.1128 Y8.3535
G01 X2.1256 Y8.3608
G01 X2.2098 Y8.4112
G01 X2.2222 Y8.4191
G01 X2.2343 Y8.4276
G01 X2.3131 Y8.4860
G01 X2.3247 Y8.4951
G01 X2.3359 Y8.5047
G01 X2.4086 Y8.5706
G01 X2.4192 Y8.5808
G01 X2.4294 Y8.5914
G01 X2.4953 Y8.6641
G01 X2.5049 Y8.6753
G01 X2.5140 Y8.6869
G01 X2.5724 Y8.7657
G01 X2.5809 Y8.7778
G01 X2.5888 Y8.7902
G01 X2.6392 Y8.8744
G01 X2.6465 Y8.8872
G01 X2.6531 Y8.9003
G01 X2.6951 Y8.9891
G01 X2.7010 Y9.0025
G01 X2.7063 Y9.0162
G01 X2.7394 Y9.1086
G01 X2.7440 Y9.1226
G01 X2.7479 Y9.1368
G01 X2.7718 Y9.2320
G01 X2.7750 Y9.2464
G01 X2.7775 Y9.2609
G01 X2.7919 Y9.3580
G01 X2.7937 Y9.3726
G01 X2.7948 Y9.3873
G01 X2.7996 Y9.4853
G01 X2.8000 Y9.5000
G01 X2.7996 Y9.5147
G01 X2.7948 Y9.6127
G01 X2.7937 Y9.6274
G01 X2.7919 Y9.6420
G01 X2.7775 Y9.7391
G01 X2.7750 Y9.7536
G01 X2.7718 Y9.7680
G01 X2.7479 Y9.8632
G01 X2.7440 Y9.8774
G01 X2.7394 Y9.8914
G01 X2.7063 Y9.9838
G01 X2.7010 Y9.9975
G01 X2.6951 Y10.0109
G01 X2.6531 Y10.0997
G01 X2.6465 Y10.1128
G01 X2.6392 Y10.1256
G01 X2.5888 Y10.2098
G01 X2.5809 Y10.2222
G01 X2.5724 Y10.2343
G01 X2.5140 Y10.3131
G01 X2.5049 Y10.3247
G01 X2.4953 Y10.3359
G01 X2.4294 Y10.4086
G01 X2.4192 Y10.4192
G01 X2.4086 Y10.4294
G01 X2.3359 Y10.4953
G01 X2.3247 Y10.5049
G01 X2.3131 Y10.5140
G01 X2.2343 Y10.5724
G01 X2.2222 Y10.5809
G01 X2.2098 Y10.5888
G01 X2.1256 Y10.6392
G01 X2.1128 Y10.6465
G01 X2.0997 Y10.6531
G01 X2.0109 Y10.6951
G01 X1.9975 Y10.7010
G01 X1.9838 Y10.7063
G01 X1.8914 Y10.7394
G01 X1.8774 Y10.7440
G01 X1.8632 Y10.7479
G01 X1.7680 Y10.7718
G01 X1.7536 Y10.7750
G01 X1.7391 Y10.7775
G01 X1.6420 Y10.7919
G01 X1.6274 Y10.7937
G01 X1.6127 Y10.7948
G01 X1.5147 Y10.7996
G01 X1.5000 Y10.8000
G01 X1.4853 Y10.7996
G01 X1.3873 Y10.7948
G01 X1.3726 Y10.7937
G01 X1.3580 Y10.7919
G01 X1.2609 Y10.7775
G01 X1.2464 Y10.7750
G01 X1.2320 Y10.7718
G01 X1.1368 Y10.7479
G01 X1.1226 Y10.7440
G01 X1.1086 Y10.7394
G01 X1.0162 Y10.7063
G01 X1.0025 Y10.7010
G01 X0.9891 Y10.6951
G01 X0.9003 Y10.6531
G01 X0.8872 Y10.6465
G01 X0.8744 Y10.6392
G01 X0.7902 Y10.5888
G01 X0.7778 Y10.5809
G01 X0.7657 Y10.5724
G01 X0.6869 Y10.5140
G01 X0.6753 Y10.5049
G01 X0.6641 Y10.4953
G01 X0.5914 Y10.4294
G01 X0.5808 Y10.4192
G01 X0.5706 Y10.4086
G01 X0.5047 Y10.3359
G01 X0.4951 Y10.3247
G01 X0.4860 Y10.3131
G01 X0.4276 Y10.2343
G01 X0.4191 Y10.2222
G01 X0.4112 Y10.2098
G01 X0.3608 Y10.1256
G01 X0.3535 Y10.1128
G01 X0.3469 Y10.0997
G01 X0.3049 Y10.0109
G01 X0.2990 Y9.9975
G01 X0.2937 Y9.9838
G01 X0.2606 Y9.8914
G01 X0.2560 Y9.8774
G01 X0.2521 Y9.8632
G01 X0.2282 Y9.7680
G01 X0.2250 Y9.7536
G01 X0.2225 Y9.7391
G01 X0.2081 Y9.6420
G01 X0.2063 Y9.6274
G01 X0.2052 Y9.6127
G01 X0.2004 Y9.5147
G00 Z2.0000
G00 X8.5651 Y8.7801
G01 F50.00
G01 Z-0.0500
G01 F50.00
G01 X8.5749 Y8.7801
G01 X8.6631 Y8.7846
G01 X8.7553 Y8.7983
G01 X8.8458 Y8.8209
G01 X8.9335 Y8.8523
G01 X9.0178 Y8.8922
G01 X9.0978 Y8.9401
G01 X9.1727 Y8.9956
G01 X9.2418 Y9.0582
G01 X9.3044 Y9.1273
G01 X9.3599 Y9.2022
G01 X9.4078 Y9.2822
G01 X9.4477 Y9.3665
G01 X9.4791 Y9.4542
G01 X9.5017 Y9.5447
G01 X9.5154 Y9.6369
G01 X9.5200 Y9.7300
G01 X9.5154 Y9.8231
G01 X9.5017 Y9.9153
G01 X9.4791 Y10.0058
G01 X9.4477 Y10.0935
G01 X9.4078 Y10.1778
G01 X9.3599 Y10.2578
G01 X9.3044 Y10.3327
G01 X9.2418 Y10.4018
G01 X9.1727 Y10.4644
G01 X9.0978 Y10.5199
G01 X9.0178 Y10.5678
G01 X8.9335 Y10.6077
G01 X8.8458 Y10.6391
G01 X8.7553 Y10.6617
G01 X8.6631 Y10.6754
G01 X8.5700 Y10.6800
G01 X8.4769 Y10.6754
G01 X8.3847 Y10.6617
G01 X8.2942 Y10.6391
G01 X8.2065 Y10.6077
G01 X8.1222 Y10.5678
G01 X8.0422 Y10.5199
G01 X7.9673 Y10.4644
G01 X7.8982 Y10.4018
G01 X7.8356 Y10.3327
G01 X7.7801 Y10.2578
G01 X7.7322 Y10.1778
G01 X7.6923 Y10.0935
G01 X7.6609 Y10.0058
G01 X7.6383 Y9.9153
G01 X7.6246 Y9.8231
G01 X7.6200 Y9.7300
G01 X7.6246 Y9.6369
G01 X7.6383 Y9.5447
G01 X7.6609 Y9.4542
G01 X7.6923 Y9.3665
G01 X7.7322 Y9.2822
G01 X7.7801 Y9.2022
G01 X7.8356 Y9.1273
G01 X7.8982 Y9.0582
G01 X7.9673 Y8.9956
G01 X8.0422 Y8.9401
G01 X8.1222 Y8.8922
G01 X8.2065 Y8.8523
G01 X8.2942 Y8.8209
G01 X8.3847 Y8.7983
G01 X8.4769 Y8.7846
G01 X8.5651 Y8.7801
G00 Z2.0000
G00 X8.5602 Y8.6802
G01 F50.00
G01 Z-0.0500
G01 F50.00
G01 X8.5798 Y8.6802
G01 X8.6729 Y8.6851
G01 X8.7748 Y8.7002
G01 X8.8748 Y8.7252
G01 X8.9718 Y8.7599
G01 X9.0650 Y8.8040
G01 X9.1533 Y8.8570
G01 X9.2361 Y8.9183
G01 X9.3125 Y8.9875
G01 X9.3817 Y9.0639
G01 X9.4430 Y9.1467
G01 X9.4960 Y9.2350
G01 X9.5401 Y9.3282
G01 X9.5748 Y9.4252
G01 X9.5998 Y9.5252
G01 X9.6149 Y9.6271
G01 X9.6200 Y9.7300
G01 X9.6149 Y9.8329
G01 X9.5998 Y9.9348
G01 X9.5748 Y10.0348
G01 X9.5401 Y10.1318
G01 X9.4960 Y10.2250
G01 X9.4430 Y10.3133
G01 X9.3817 Y10.3961
G01 X9.3125 Y10.4725
G01 X9.2361 Y10.5417
G01 X9.1533 Y10.6030
G01 X9.0650 Y10.6560
G01 X8.9718 Y10.7001
G01 X8.8748 Y10.7348
G01 X8.7748 Y10.7598
G01 X8.6729 Y10.7749
G01 X8.5700 Y10.7800
G01 X8.4671 Y10.7749
G01 X8.3652 Y10.7598
G01 X8.2652 Y10.7348
G01 X8.1682 Y10.7001
G01 X8.0750 Y10.6560
G01 X7.9867 Y10.6030
G01 X7.9039 Y10.5417
G01 X7.8275 Y10.4725
G01 X7.7583 Y10.3961
G01 X7.6970 Y10.3133
G01 X7.6440 Y10.2250
G01 X7.5999 Y10.1318
G01 X7.5652 Y10.0348
G01 X7.5402 Y9.9348
G01 X7.5251 Y9.8329
G01 X7.5200 Y9.7300
G01 X7.5251 Y9.6271
G01 X7.5402 Y9.5252
G01 X7.5652 Y9.4252
G01 X7.5999 Y9.3282
G01 X7.6440 Y9.2350
G01 X7.6970 Y9.1467
G01 X7.7583 Y9.0639
G01 X7.8275 Y8.9875
G01 X7.9039 Y8.9183
G01 X7.9867 Y8.8570
G01 X8.0750 Y8.8040
G01 X8.1682 Y8.7599
G01 X8.2652 Y8.7252
G01 X8.3652 Y8.7002
G01 X8.4671 Y8.6851
G01 X8.5602 Y8.6802
G00 Z2.0000
G00 X8.5553 Y8.5804
G01 F50.00
G01 Z-0.0500
G01 F50.00
G01 X8.5700 Y8.5800
G01 X8.5847 Y8.5804
G01 X8.6680 Y8.5845
G01 X8.6827 Y8.5855
G01 X8.6973 Y8.5873
G01 X8.7798 Y8.5996
G01 X8.7944 Y8.6021
G01 X8.8087 Y8.6053
G01 X8.8896 Y8.6256
G01 X8.9038 Y8.6295
G01 X8.9178 Y8.6341
G01 X8.9963 Y8.6622
G01 X9.0101 Y8.6675
G01 X9.0235 Y8.6735
G01 X9.0990 Y8.7092
G01 X9.1121 Y8.7158
G01 X9.1249 Y8.7230
G01 X9.1965 Y8.7659
G01 X9.2089 Y8.7738
G01 X9.2209 Y8.7823
G01 X9.2879 Y8.8320
G01 X9.2996 Y8.8410
G01 X9.3107 Y8.8507
G01 X9.3725 Y8.9067
G01 X9.3832 Y8.9168
G01 X9.3933 Y8.9275
G01 X9.4493 Y8.9893
G01 X9.4590 Y9.0004
G01 X9.4680 Y9.0121
G01 X9.5177 Y9.0791
G01 X9.5262 Y9.0911
G01 X9.5341 Y9.1035
G01 X9.5770 Y9.1751
G01 X9.5842 Y9.1879
G01 X9.5908 Y9.2010
G01 X9.6265 Y9.2765
G01 X9.6325 Y9.2899
G01 X9.6378 Y9.3037
G01 X9.6659 Y9.3822
G01 X9.6705 Y9.3962
G01 X9.6744 Y9.4104
G01 X9.6947 Y9.4913
G01 X9.6979 Y9.5056
G01 X9.7004 Y9.5202
G01 X9.7127 Y9.6027
G01 X9.7145 Y9.6173
G01 X9.7155 Y9.6320
G01 X9.7196 Y9.7153
G01 X9.7200 Y9.7300
G01 X9.7196 Y9.7447
G01 X9.7155 Y9.8280
G01 X9.7145 Y9.8427
G01 X9.7127 Y9.8573
G01 X9.7004 Y9.9398
G01 X9.6979 Y9.9544
G01 X9.6947 Y9.9687
G01 X9.6744 Y10.0496
G01 X9.6705 Y10.0638
G01 X9.6659 Y10.0778
G01 X9.6378 Y10.1563
G01 X9.6325 Y10.1701
G01 X9.6265 Y10.1835
G01 X9.5908 Y10.2590
G01 X9.5842 Y10.2721
G01 X9.5770 Y10.2849
G01 X9.5341 Y10.3565
G01 X9.5262 Y10.3689
G01 X9.5177 Y10.3809
G01 X9.4680 Y10.4479
G01 X9.4590 Y10.4596
G01 X9.4493 Y10.4707
G01 X9.3933 Y10.5325
G01 X9.3832 Y10.5432
G01 X9.3725 Y10.5533
G01 X9.3107 Y10.6093
G01 X9.2996 Y10.6190
G01 X9.2879 Y10.6280
G01 X9.2209 Y10.6777
G01 X9.2089 Y10.6862
G01 X9.1965 Y10.6941
G01 X9.1249 Y10.7370
G01 X9.1121 Y10.7442
G01 X9.0990 Y10.7508
G01 X9.0235 Y10.7865
G01 X9.0101 Y10.7925
G01 X8.9963 Y10.7978
G01 X8.9178 Y10.8259
G01 X8.9038 Y10.8305
G01 X8.8896 Y10.8344
G01 X8.8087 Y10.8547
G01 X8.7944 Y10.8579
G01 X8.7798 Y10.8604
G01 X8.6973 Y10.8727
G01 X8.6827 Y10.8745
G01 X8.6680 Y10.8755
G01 X8.5847 Y10.8796
G01 X8.5700 Y10.8800
G01 X8.5553 Y10.8796
G01 X8.4720 Y10.8755
G01 X8.4573 Y10.8745
G01 X8.4427 Y10.8727
G01 X8.3602 Y10.8604
G01 X8.3456 Y10.8579
G01 X8.3313 Y10.8547
G01 X8.2504 Y10.8344
G01 X8.2362 Y10.8305
G01 X8.2222 Y10.8259
G01 X8.1437 Y10.7978
G01 X8.1299 Y10.7925
G01 X8.1165 Y10.7865
G01 X8.0410 Y10.7508
G01 X8.0279 Y10.7442
G01 X8.0151 Y10.7370
G01 X7.9435 Y10.6941
G01 X7.9311 Y10.6862
G01 X7.9191 Y10.6777
G01 X7.8521 Y10.6280
G01 X7.8404 Y10.6190
G01 X7.8293 Y10.6093
G01 X7.7675 Y10.5533
G01 X7.7568 Y10.5432
G01 X7.7467 Y10.5325
G01 X7.6907 Y10.4707
G01 X7.6810 Y10.4596
G01 X7.6720 Y10.4479
G01 X7.6223 Y10.3809
G01 X7.6138 Y10.3689
G01 X7.6059 Y10.3565
G01 X7.5630 Y10.2849
G01 X7.5558 Y10.2721
G01 X7.5492 Y10.2590
G01 X7.5135 Y10.1835
G01 X7.5075 Y10.1701
G01 X7.5022 Y10.1563
G01 X7.4741 Y10.0778
G01 X7.4695 Y10.0638
G01 X7.4656 Y10.0496
G01 X7.4453 Y9.9687
G01 X7.4421 Y9.9544
G01 X7.4396 Y9.9398
G01 X7.4273 Y9.8573
G01 X7.4255 Y9.8427
G01 X7.4245 Y9.8280
G01 X7.4204 Y9.7447
G01 X7.4200 Y9.7300
G01 X7.4204 Y9.7153
G01 X7.4245 Y9.6320
G01 X7.4255 Y9.6173
G01 X7.4273 Y9.6027
G01 X7.4396 Y9.5202
G01 X7.4421 Y9.5056
G01 X7.4453 Y9.4913
G01 X7.4656 Y9.4104
G01 X7.4695 Y9.3962
G01 X7.4741 Y9.3822
G01 X7.5022 Y9.3037
G01 X7.5075 Y9.2899
G01 X7.5135 Y9.2765
G01 X7.5492 Y9.2010
G01 X7.5558 Y9.1879
G01 X7.5630 Y9.1751
G01 X7.6059 Y9.1035
G01 X7.6138 Y9.0911
G01 X7.6223 Y9.0791
G01 X7.6720 Y9.0121
G01 X7.6810 Y9.0004
G01 X7.6907 Y8.9893
G01 X7.7467 Y8.9275
G01 X7.7568 Y8.9168
G01 X7.7675 Y8.9067
G01 X7.8293 Y8.8507
G01 X7.8404 Y8.8410
G01 X7.8521 Y8.8320
G01 X7.9191 Y8.7823
G01 X7.9311 Y8.7738
G01 X7.9435 Y8.7659
G01 X8.0151 Y8.7230
G01 X8.0279 Y8.7158
G01 X8.0410 Y8.7092
G01 X8.1165 Y8.6735
G01 X8.1299 Y8.6675
G01 X8.1437 Y8.6622
G01 X8.2222 Y8.6341
G01 X8.2362 Y8.6295
G01 X8.2504 Y8.6256
G01 X8.3313 Y8.6053
G01 X8.3456 Y8.6021
G01 X8.3602 Y8.5996
G01 X8.4427 Y8.5873
G01 X8.4573 Y8.5855
G01 X8.4720 Y8.5845
G01 X8.5553 Y8.5804
G00 Z2.0000
G00 X11.0953 Y8.5804
G01 F50.00
G01 Z-0.0500
G01 F50.00
G01 X11.1100 Y8.5800
G01 X11.1247 Y8.5804
G01 X11.2080 Y8.5845
G01 X11.2227 Y8.5855
G01 X11.2373 Y8.5873
G01 X11.3198 Y8.5996
G01 X11.3344 Y8.6021
G01 X11.3487 Y8.6053
G01 X11.4296 Y8.6256
G01 X11.4438 Y8.6295
G01 X11.4578 Y8.6341
G01 X11.5363 Y8.6622
G01 X11.5501 Y8.6675
G01 X11.5635 Y8.6735
G01 X11.6390 Y8.7092
G01 X11.6521 Y8.7158
G01 X11.6649 Y8.7230
G01 X11.7365 Y8.7659
G01 X11.7489 Y8.7738
G01 X11.7609 Y8.7823
G01 X11.8279 Y8.8320
G01 X11.8396 Y8.8410
G01 X11.8507 Y8.8507
G01 X11.9125 Y8.9067
G01 X11.9232 Y8.9168
G01 X11.9333 Y8.9275
G01 X11.9893 Y8.9893
G01 X11.9990 Y9.0004
G01 X12.0080 Y9.0121
G01 X12.0577 Y9.0791
G01 X12.0662 Y9.0911
G01 X12.0741 Y9.1035
G01 X12.1170 Y9.1751
G01 X12.1242 Y9.1879
G01 X12.1308 Y9.2010
G01 X12.1665 Y9.2765
G01 X12.1725 Y9.2899
G01 X12.1778 Y9.3037
G01 X12.2059 Y9.3822
G01 X12.2105 Y9.3962
G01 X12.2144 Y9.4104
G01 X12.2347 Y9.4913
G01 X12.2379 Y9.5056
G01 X12.2404 Y9.5202
G01 X12.2527 Y9.6027
G01 X12.2545 Y9.6173
G01 X12.2555 Y9.6320
G01 X12.2596 Y9.7153
G01 X12.2600 Y9.7300
G01 X12.2596 Y9.7447
G01 X12.2555 Y9.8280
G01 X12.2545 Y9.8427
G01 X12.2527 Y9.8573
G01 X12.2404 Y9.9398
G01 X12.2379 Y9.9544
G01 X12.2347 Y9.9687
G01 X12.2144 Y10.0496
G01 X12.2105 Y10.0638
G01 X12.2059 Y10.0778
G01 X12.1778 Y10.1563
G01 X12.1725 Y10.1701
G01 X12.1665 Y10.1835
G01 X12.1308 Y10.2590
G01 X12.1242 Y10.2721
G01 X12.1170 Y10.2849
G01 X12.0741 Y10.3565
G01 X12.0662 Y10.3689
G01 X12.0577 Y10.3809
G01 X12.0080 Y10.4479
G01 X11.9990 Y10.4596
G01 X11.9893 Y10.4707
G01 X11.9333 Y10.5325
G01 X11.9232 Y10.5432
G01 X11.9125 Y10.5533
G01 X11.8507 Y10.6093
G01 X11.8396 Y10.6190
G01 X11.8279 Y10.6280
G01 X11.7609 Y10.6777
G01 X11.7489 Y10.6862
G01 X11.7365 Y10.6941
G01 X11.6649 Y10.7370
G01 X11.6521 Y10.7442
G01 X11.6390 Y10.7508
G01 X11.5635 Y10.7865
G01 X11.5501 Y10.7925
G01 X11.5363 Y10.7978
G01 X11.4578 Y10.8259
G01 X11.4438 Y10.8305
G01 X11.4296 Y10.8344
G01 X11.3487 Y10.8547
G01 X11.3344 Y10.8579
G01 X11.3198 Y10.8604
G01 X11.2373 Y10.8727
G01 X11.2227 Y10.8745
G01 X11.2080 Y10.8755
G01 X11.1247 Y10.8796
G01 X11.1100 Y10.8800
G01 X11.0953 Y10.8796
G01 X11.0120 Y10.8755
G01 X10.9973 Y10.8745
G01 X10.9827 Y10.8727
G01 X10.9002 Y10.8604
G01 X10.8856 Y10.8579
G01 X10.8713 Y10.8547
G01 X10.7904 Y10.8344
G01 X10.7762 Y10.8305
G01 X10.7622 Y10.8259
G01 X10.6837 Y10.7978
G01 X10.6699 Y10.7925
G01 X10.6565 Y10.7865
G01 X10.5810 Y10.7508
G01 X10.5679 Y10.7442
G01 X10.5551 Y10.7370
G01 X10.4835 Y10.6941
G01 X10.4711 Y10.6862
G01 X10.4591 Y10.6777
G01 X10.3921 Y10.6280
G01 X10.3804 Y10.6190
G01 X10.3693 Y10.6093
G01 X10.3075 Y10.5533
G01 X10.2968 Y10.5432
G01 X10.2867 Y10.5325
G01 X10.2307 Y10.4707
G01 X10.2210 Y10.4596
G01 X10.2120 Y10.4479
G01 X10.1623 Y10.3809
G01 X10.1538 Y10.3689
G01 X10.1459 Y10.3565
G01 X10.1030 Y10.2849
G01 X10.0958 Y10.2721
G01 X10.0892 Y10.2590
G01 X10.0535 Y10.1835
G01 X10.0475 Y10.1701
G01 X10.0422 Y10.1563
G01 X10.0141 Y10.0778
G01 X10.0095 Y10.0638
G01 X10.0056 Y10.0496
G01 X9.9853 Y9.9687
G01 X9.9821 Y9.9544
G01 X9.9796 Y9.9398
G01 X9.9673 Y9.8573
G01 X9.9655 Y9.8427
G01 X9.9645 Y9.8280
G01 X9.9604 Y9.7447
G01 X9.9600 Y9.7300
G01 X9.9604 Y9.7153
G01 X9.9645 Y9.6320
G01 X9.9655 Y9.6173
G01 X9.9673 Y9.6027
G01 X9.9796 Y9.5202
G01 X9.9821 Y9.5056
G01 X9.9853 Y9.4913
G01 X10.0056 Y9.4104
G01 X10.0095 Y9.3962
G01 X10.0141 Y9.3822
G01 X10.0422 Y9.3037
G01 X10.0475 Y9.2899
G01 X10.0535 Y9.2765
G01 X10.0892 Y9.2010
G01 X10.0958 Y9.1879
G01 X10.1030 Y9.1751
G01 X10.1459 Y9.1035
G01 X10.1538 Y9.0911
G01 X10.1623 Y9.0791
G01 X10.2120 Y9.0121
G01 X10.2210 Y9.0004
G01 X10.2307 Y8.9893
G01 X10.2867 Y8.9275
G01 X10.2968 Y8.9168
G01 X10.3075 Y8.9067
G01 X10.3693 Y8.8507
G01 X10.3804 Y8.8410
G01 X10.3921 Y8.8320
G01 X10.4591 Y8.7823
G01 X10.4711 Y8.7738
G01 X10.4835 Y8.7659
G01 X10.5551 Y8.7230
G01 X10.5679 Y8.7158
G01 X10.5810 Y8.7092
G01 X10.6565 Y8.6735
G01 X10.6699 Y8.6675
G01 X10.6837 Y8.6622
G01 X10.7622 Y8.6341
G01 X10.7762 Y8.6295
G01 X10.7904 Y8.6256
G01 X10.8713 Y8.6053
G01 X10.8856 Y8.6021
G01 X10.9002 Y8.5996
G01 X10.9827 Y8.5873
G01 X10.9973 Y8.5855
G01 X11.0120 Y8.5845
G01 X11.0953 Y8.5804
G00 Z2.0000
G00 X11.1002 Y8.6802
G01 F50.00
G01 Z-0.0500
G01 F50.00
G01 X11.1198 Y8.6802
G01 X11.2129 Y8.6851
G01 X11.3148 Y8.7002
G01 X11.4148 Y8.7252
G01 X11.5118 Y8.7599
G01 X11.6050 Y8.8040
G01 X11.6933 Y8.8570
G01 X11.7761 Y8.9183
G01 X11.8525 Y8.9875
G01 X11.9217 Y9.0639
G01 X11.9830 Y9.1467
G01 X12.0360 Y9.2350
G01 X12.0801 Y9.3282
G01 X12.1148 Y9.4252
G01 X12.1398 Y9.5252
G01 X12.1549 Y9.6271
G01 X12.1600 Y9.7300
G01 X12.1549 Y9.8329
G01 X12.1398 Y9.9348
G01 X12.1148 Y10.0348
G01 X12.0801 Y10.1318
G01 X12.0360 Y10.2250
G01 X11.9830 Y10.3133
G01 X11.9217 Y10.3961
G01 X11.8525 Y10.4725
G01 X11.7761 Y10.5417
G01 X11.6933 Y10.6030
G01 X11.6050 Y10.6560
G01 X11.5118 Y10.7001
G01 X11.4148 Y10.7348
G01 X11.3148 Y10.7598
G01 X11.2129 Y10.7749
G01 X11.1100 Y10.7800
G01 X11.0071 Y10.7749
G01 X10.9052 Y10.7598
G01 X10.8052 Y10.7348
G01 X10.7082 Y10.7001
G01 X10.6150 Y10.6560
G01 X10.5267 Y10.6030
G01 X10.4439 Y10.5417
G01 X10.3675 Y10.4725
G01 X10.2983 Y10.3961
G01 X10.2370 Y10.3133
G01 X10.1840 Y10.2250
G01 X10.1399 Y10.1318
G01 X10.1052 Y10.0348
G01 X10.0802 Y9.9348
G01 X10.0651 Y9.8329
G01 X10.0600 Y9.7300
G01 X10.0651 Y9.6271
G01 X10.0802 Y9.5252
G01 X10.1052 Y9.4252
G01 X10.1399 Y9.3282
G01 X10.1840 Y9.2350
G01 X10.2370 Y9.1467
G01 X10.2983 Y9.0639
G01 X10.3675 Y8.9875
G01 X10.4439 Y8.9183
G01 X10.5267 Y8.8570
G01 X10.6150 Y8.8040
G01 X10.7082 Y8.7599
G01 X10.8052 Y8.7252
G01 X10.9052 Y8.7002
G01 X11.0071 Y8.6851
G01 X11.1002 Y8.6802
G00 Z2.0000
G00 X11.1051 Y8.7801
G01 F50.00
G01 Z-0.0500
G01 F50.00
G01 X11.1149 Y8.7801
G01 X11.2031 Y8.7846
G01 X11.2953 Y8.7983
G01 X11.3858 Y8.8209
G01 X11.4735 Y8.8523
G01 X11.5578 Y8.8922
G01 X11.6378 Y8.9401
G01 X11.7127 Y8.9956
G01 X11.7818 Y9.0582
G01 X11.8444 Y9.1273
G01 X11.8999 Y9.2022
G01 X11.9478 Y9.2822
G01 X11.9877 Y9.3665
G01 X12.0191 Y9.4542
G01 X12.0417 Y9.5447
G01 X12.0554 Y9.6369
G01 X12.0600 Y9.7300
G01 X12.0554 Y9.8231
G01 X12.0417 Y9.9153
G01 X12.0191 Y10.0058
G01 X11.9877 Y10.0935
G01 X11.9478 Y10.1778
G01 X11.8999 Y10.2578
G01 X11.8444 Y10.3327
G01 X11.7818 Y10.4018
G01 X11.7127 Y10.4644
G01 X11.6378 Y10.5199
G01 X11.5578 Y10.5678
G01 X11.4735 Y10.6077
G01 X11.3858 Y10.6391
G01 X11.2953 Y10.6617
G01 X11.2031 Y10.6754
G01 X11.1100 Y10.6800
G01 X11.0169 Y10.6754
G01 X10.9247 Y10.6617
G01 X10.8342 Y10.6391
G01 X10.7465 Y10.6077
G01 X10.6622 Y10.5678
G01 X10.5822 Y10.5199
G01 X10.5073 Y10.4644
G01 X10.4382 Y10.4018
G01 X10.3756 Y10.3327
G01 X10.3201 Y10.2578
G01 X10.2722 Y10.1778
G01 X10.2323 Y10.0935
G01 X10.2009 Y10.0058
G01 X10.1783 Y9.9153
G01 X10.1646 Y9.8231
G01 X10.1600 Y9.7300
G01 X10.1646 Y9.6369
G01 X10.1783 Y9.5447
G01 X10.2009 Y9.4542
G01 X10.2323 Y9.3665
G01 X10.2722 Y9.2822
G01 X10.3201 Y9.2022
G01 X10.3756 Y9.1273
G01 X10.4382 Y9.0582
G01 X10.5073 Y8.9956
G01 X10.5822 Y8.9401
G01 X10.6622 Y8.8922
G01 X10.7465 Y8.8523
G01 X10.8342 Y8.8209
G01 X10.9247 Y8.7983
G01 X11.0169 Y8.7846
G01 X11.1051 Y8.7801
G00 Z2.0000
G00 X14.5000 Y8.7800
G01 F50.00
G01 Z-0.0500
G01 F50.00
G01 X14.5098 Y8.7805
G01 X14.5195 Y8.7819
G01 X14.5290 Y8.7843
G01 X14.5383 Y8.7876
G01 X14.5450 Y8.7907
G01 X14.5535 Y8.7955
G01 X14.5615 Y8.8012
G01 X14.5690 Y8.8076
G01 X14.5757 Y8.8147
G01 X14.5818 Y8.8224
G01 X14.5870 Y8.8307
G01 X14.5914 Y8.8395
G01 X14.5950 Y8.8486
G01 X14.5976 Y8.8581
G01 X14.5992 Y8.8678
G01 X14.5999 Y8.8751
G01 X14.6000 Y10.5825
G01 X14.5992 Y10.5922
G01 X14.5976 Y10.6019
G01 X14.5950 Y10.6114
G01 X14.5924 Y10.6183
G01 X14.5882 Y10.6271
G01 X14.5845 Y10.6335
G01 X14.5788 Y10.6415
G01 X14.5724 Y10.6490
G01 X14.5653 Y10.6557
G01 X14.5576 Y10.6618
G01 X14.5493 Y10.6670
G01 X14.5405 Y10.6714
G01 X14.5314 Y10.6750
G01 X14.5219 Y10.6776
G01 X14.5098 Y10.6795
G01 X14.5000 Y10.6800
G01 X12.7975 Y10.6800
G01 X12.7878 Y10.6792
G01 X12.7781 Y10.6776
G01 X12.7686 Y10.6750
G01 X12.7617 Y10.6724
G01 X12.7529 Y10.6682
G01 X12.7444 Y10.6631
G01 X12.7385 Y10.6588
G01 X12.7310 Y10.6524
G01 X12.7243 Y10.6453
G01 X12.7182 Y10.6376
G01 X12.7130 Y10.6293
G01 X12.7086 Y10.6205
G01 X12.7050 Y10.6114
G01 X12.7019 Y10.5995
G01 X12.7005 Y10.5898
G01 X12.7000 Y10.5800
G01 X12.7000 Y8.8775
G01 X12.7008 Y8.8678
G01 X12.7024 Y8.8581
G01 X12.7050 Y8.8486
G01 X12.7076 Y8.8417
G01 X12.7118 Y8.8329
G01 X12.7169 Y8.8244
G01 X12.7227 Y8.8166
G01 X12.7276 Y8.8110
G01 X12.7347 Y8.8043
G01 X12.7424 Y8.7982
G01 X12.7507 Y8.7930
G01 X12.7595 Y8.7886
G01 X12.7686 Y8.7850
G01 X12.7781 Y8.7824
G01 X12.7878 Y8.7808
G01 X12.7975 Y8.7800
G01 X14.5000 Y8.7800
G00 Z2.0000
G00 X14.5000 Y8.6800
G01 F50.00
G01 Z-0.0500
G01 F50.00
G01 X14.5196 Y8.6810
G01 X14.5390 Y8.6838
G01 X14.5581 Y8.6886
G01 X14.5720 Y8.6934
G01 X14.5855 Y8.6992
G01 X14.6028 Y8.7085
G01 X14.6191 Y8.7194
G01 X14.6343 Y8.7318
G01 X14.6482 Y8.7457
G01 X14.6606 Y8.7609
G01 X14.6690 Y8.7730
G01 X14.6786 Y8.7901
G01 X14.6866 Y8.8080
G01 X14.6928 Y8.8267
G01 X14.6971 Y8.8458
G01 X14.6995 Y8.8653
G01 X14.7000 Y8.8800
G01 X14.6999 Y10.5849
G01 X14.6990 Y10.5996
G01 X14.6962 Y10.6190
G01 X14.6914 Y10.6381
G01 X14.6848 Y10.6565
G01 X14.6786 Y10.6699
G01 X14.6690 Y10.6870
G01 X14.6606 Y10.6991
G01 X14.6482 Y10.7143
G01 X14.6343 Y10.7282
G01 X14.6191 Y10.7406
G01 X14.6070 Y10.7490
G01 X14.5986 Y10.7540
G01 X14.5810 Y10.7628
G01 X14.5674 Y10.7683
G01 X14.5581 Y10.7714
G01 X14.5390 Y10.7762
G01 X14.5196 Y10.7790
G01 X14.5000 Y10.7800
G01 X12.7951 Y10.7799
G01 X12.7755 Y10.7785
G01 X12.7610 Y10.7762
G01 X12.7467 Y10.7728
G01 X12.7280 Y10.7666
G01 X12.7145 Y10.7608
G01 X12.6972 Y10.7515
G01 X12.6809 Y10.7406
G01 X12.6657 Y10.7282
G01 X12.6586 Y10.7214
G01 X12.6486 Y10.7106
G01 X12.6365 Y10.6952
G01 X12.6260 Y10.6786
G01 X12.6172 Y10.6610
G01 X12.6117 Y10.6474
G01 X12.6086 Y10.6381
G01 X12.6038 Y10.6190
G01 X12.6010 Y10.5996
G01 X12.6000 Y10.5800
G01 X12.6001 Y8.8751
G01 X12.6015 Y8.8555
G01 X12.6038 Y8.8410
G01 X12.6086 Y8.8219
G01 X12.6152 Y8.8035
G01 X12.6214 Y8.7901
G01 X12.6310 Y8.7730
G01 X12.6394 Y8.7609
G01 X12.6518 Y8.7457
G01 X12.6586 Y8.7386
G01 X12.6694 Y8.7286
G01 X12.6848 Y8.7165
G01 X12.7014 Y8.7060
G01 X12.7190 Y8.6972
G01 X12.7373 Y8.6901
G01 X12.7562 Y8.6849
G01 X12.7755 Y8.6815
G01 X12.7951 Y8.6801
G01 X14.5000 Y8.6800
G00 Z2.0000
G00 X14.5000 Y8.5800
G01 F50.00
G01 Z-0.0500
G01 F50.00
G01 X14.5147 Y8.5804
G01 X14.5294 Y8.5814
G01 X14.5440 Y8.5832
G01 X14.5585 Y8.5858
G01 X14.5729 Y8.5890
G01 X14.5871 Y8.5929
G01 X14.6080 Y8.6001
G01 X14.6216 Y8.6057
G01 X14.6349 Y8.6120
G01 X14.6479 Y8.6190
G01 X14.6605 Y8.6265
G01 X14.6727 Y8.6347
G01 X14.6846 Y8.6435
G01 X14.7015 Y8.6577
G01 X14.7173 Y8.6731
G01 X14.7272 Y8.6840
G01 X14.7365 Y8.6954
G01 X14.7453 Y8.7073
G01 X14.7535 Y8.7195
G01 X14.7610 Y8.7321
G01 X14.7680 Y8.7451
G01 X14.7772 Y8.7652
G01 X14.7825 Y8.7789
G01 X14.7871 Y8.7929
G01 X14.7910 Y8.8071
G01 X14.7942 Y8.8215
G01 X14.7968 Y8.8360
G01 X14.7986 Y8.8506
G01 X14.7996 Y8.8653
G01 X14.8000 Y8.8800
G01 X14.8000 Y10.5800
G01 X14.7996 Y10.5947
G01 X14.7977 Y10.6167
G01 X14.7956 Y10.6313
G01 X14.7927 Y10.6457
G01 X14.7871 Y10.6671
G01 X14.7799 Y10.6880
G01 X14.7743 Y10.7016
G01 X14.7680 Y10.7149
G01 X14.7573 Y10.7342
G01 X14.7453 Y10.7527
G01 X14.7365 Y10.7646
G01 X14.7272 Y10.7760
G01 X14.7173 Y10.7869
G01 X14.7069 Y10.7973
G01 X14.6903 Y10.8119
G01 X14.6787 Y10.8210
G01 X14.6667 Y10.8294
G01 X14.6542 Y10.8373
G01 X14.6414 Y10.8446
G01 X14.6283 Y10.8512
G01 X14.6148 Y10.8572
G01 X14.6011 Y10.8625
G01 X14.5871 Y10.8671
G01 X14.5729 Y10.8710
G01 X14.5513 Y10.8756
G01 X14.5367 Y10.8777
G01 X14.5221 Y10.8792
G01 X14.5074 Y10.8799
G01 X12.8000 Y10.8800
G01 X12.7853 Y10.8796
G01 X12.7706 Y10.8786
G01 X12.7560 Y10.8768
G01 X12.7343 Y10.8727
G01 X12.7200 Y10.8691
G01 X12.7059 Y10.8649
G01 X12.6852 Y10.8572
G01 X12.6651 Y10.8480
G01 X12.6458 Y10.8373
G01 X12.6273 Y10.8253
G01 X12.6154 Y10.8165
G01 X12.6040 Y10.8072
G01 X12.5931 Y10.7973
G01 X12.5777 Y10.7815
G01 X12.5681 Y10.7703
G01 X12.5590 Y10.7587
G01 X12.5506 Y10.7467
G01 X12.5427 Y10.7342
G01 X12.5354 Y10.7214
G01 X12.5288 Y10.7083
G01 X12.5228 Y10.6948
G01 X12.5175 Y10.6811
G01 X12.5129 Y10.6671
G01 X12.5073 Y10.6457
G01 X12.5044 Y10.6313
G01 X12.5023 Y10.6167
G01 X12.5008 Y10.6021
G01 X12.5001 Y10.5874
G01 X12.5000 Y8.8800
G01 X12.5004 Y8.8653
G01 X12.5014 Y8.8506
G01 X12.5032 Y8.8360
G01 X12.5073 Y8.8143
G01 X12.5129 Y8.7929
G01 X12.5201 Y8.7720
G01 X12.5288 Y8.7517
G01 X12.5354 Y8.7386
G01 X12.5427 Y8.7258
G01 X12.5547 Y8.7073
G01 X12.5635 Y8.6954
G01 X12.5728 Y8.6840
G01 X12.5827 Y8.6731
G01 X12.5931 Y8.6627
G01 X12.6040 Y8.6528
G01 X12.6154 Y8.6435
G01 X12.6273 Y8.6347
G01 X12.6395 Y8.6265
G01 X12.6586 Y8.6154
G01 X12.6717 Y8.6088
G01 X12.6852 Y8.6028
G01 X12.6989 Y8.5975
G01 X12.7129 Y8.5929
G01 X12.7271 Y8.5890
G01 X12.7415 Y8.5858
G01 X12.7560 Y8.5832
G01 X12.7706 Y8.5814
G01 X12.7853 Y8.5804
G01 X12.8000 Y8.5800
G01 X14.5000 Y8.5800
G00 Z2.0000
G00 X26.3353 Y8.5804
G01 F50.00
G01 Z-0.0500
G01 F50.00
G01 X26.3500 Y8.5800
G01 X26.3647 Y8.5804
G01 X26.4480 Y8.5845
G01 X26.4627 Y8.5855
G01 X26.4773 Y8.5873
G01 X26.5598 Y8.5996
G01 X26.5744 Y8.6021
G01 X26.5887 Y8.6053
G01 X26.6696 Y8.6256
G01 X26.6838 Y8.6295
G01 X26.6978 Y8.6341
G01 X26.7763 Y8.6622
G01 X26.7901 Y8.6675
G01 X26.8035 Y8.6735
G01 X26.8790 Y8.7092
G01 X26.8921 Y8.7158
G01 X26.9049 Y8.7230
G01 X26.9765 Y8.7659
G01 X26.9889 Y8.7738
G01 X27.0009 Y8.7823
G01 X27.0679 Y8.8320
G01 X27.0796 Y8.8410
G01 X27.0907 Y8.8507
G01 X27.1525 Y8.9067
G01 X27.1632 Y8.9168
G01 X27.1733 Y8.9275
G01 X27.2293 Y8.9893
G01 X27.2390 Y9.0004
G01 X27.2480 Y9.0121
G01 X27.2977 Y9.0791
G01 X27.3062 Y9.0911
G01 X27.3141 Y9.1035
G01 X27.3570 Y9.1751
G01 X27.3642 Y9.1879
G01 X27.3708 Y9.2010
G01 X27.4065 Y9.2765
G01 X27.4125 Y9.2899
G01 X27.4178 Y9.3037
G01 X27.4459 Y9.3822
G01 X27.4505 Y9.3962
G01 X27.4544 Y9.4104
G01 X27.4747 Y9.4913
G01 X27.4779 Y9.5056
G01 X27.4804 Y9.5202
G01 X27.4927 Y9.6027
G01 X27.4945 Y9.6173
G01 X27.4955 Y9.6320
G01 X27.4996 Y9.7153
G01 X27.5000 Y9.7300
G01 X27.4996 Y9.7447
G01 X27.4955 Y9.8280
G01 X27.4945 Y9.8427
G01 X27.4927 Y9.8573
G01 X27.4804 Y9.9398
G01 X27.4779 Y9.9544
G01 X27.4747 Y9.9687
G01 X27.4544 Y10.0496
G01 X27.4505 Y10.0638
G01 X27.4459 Y10.0778
G01 X27.4178 Y10.1563
G01 X27.4125 Y10.1701
G01 X27.4065 Y10.1835
G01 X27.3708 Y10.2590
G01 X27.3642 Y10.2721
G01 X27.3570 Y10.2849
G01 X27.3141 Y10.3565
G01 X27.3062 Y10.3689
G01 X27.2977 Y10.3809
G01 X27.2480 Y10.4479
G01 X27.2390 Y10.4596
G01 X27.2293 Y10.4707
G01 X27.1733 Y10.5325
G01 X27.1632 Y10.5432
G01 X27.1525 Y10.5533
G01 X27.0907 Y10.6093
G01 X27.0796 Y10.6190
G01 X27.0679 Y10.6280
G01 X27.0009 Y10.6777
G01 X26.9889 Y10.6862
G01 X26.9765 Y10.6941
G01 X26.9049 Y10.7370
G01 X26.8921 Y10.7442
G01 X26.8790 Y10.7508
G01 X26.8035 Y10.7865
G01 X26.7901 Y10.7925
G01 X26.7763 Y10.7978
G01 X26.6978 Y10.8259
G01 X26.6838 Y10.8305
G01 X26.6696 Y10.8344
G01 X26.5887 Y10.8547
G01 X26.5744 Y10.8579
G01 X26.5598 Y10.8604
G01 X26.4773 Y10.8727
G01 X26.4627 Y10.8745
G01 X26.4480 Y10.8755
G01 X26.3647 Y10.8796
G01 X26.3500 Y10.8800
G01 X26.3353 Y10.8796
G01 X26.2520 Y10.8755
G01 X26.2373 Y10.8745
G01 X26.2227 Y10.8727
G01 X26.1402 Y10.8604
G01 X26.1256 Y10.8579
G01 X26.1113 Y10.8547
G01 X26.0304 Y10.8344
G01 X26.0162 Y10.8305
G01 X26.0022 Y10.8259
G01 X25.9237 Y10.7978
G01 X25.9099 Y10.7925
G01 X25.8965 Y10.7865
G01 X25.8210 Y10.7508
G01 X25.8079 Y10.7442
G01 X25.7951 Y10.7370
G01 X25.7235 Y10.6941
G01 X25.7111 Y10.6862
G01 X25.6991 Y10.6777
G01 X25.6321 Y10.6280
G01 X25.6204 Y10.6190
G01 X25.6093 Y10.6093
G01 X25.5475 Y10.5533
G01 X25.5368 Y10.5432
G01 X25.5267 Y10.5325
G01 X25.4707 Y10.4707
G01 X25.4610 Y10.4596
G01 X25.4520 Y10.4479
G01 X25.4023 Y10.3809
G01 X25.3938 Y10.3689
G01 X25.3859 Y10.3565
G01 X25.3430 Y10.2849
G01 X25.3358 Y10.2721
G01 X25.3292 Y10.2590
G01 X25.2935 Y10.1835
G01 X25.2875 Y10.1701
G01 X25.2822 Y10.1563
G01 X25.2541 Y10.0778
G01 X25.2495 Y10.0638
G01 X25.2456 Y10.0496
G01 X25.2253 Y9.9687
G01 X25.2221 Y9.9544
G01 X25.2196 Y9.9398
G01 X25.2073 Y9.8573
G01 X25.2055 Y9.8427
G01 X25.2045 Y9.8280
G01 X25.2004 Y9.7447
G01 X25.2000 Y9.7300
G01 X25.2004 Y9.7153
G01 X25.2045 Y9.6320
G01 X25.2055 Y9.6173
G01 X25.2073 Y9.6027
G01 X25.2196 Y9.5202
G01 X25.2221 Y9.5056
G01 X25.2253 Y9.4913
G01 X25.2456 Y9.4104
G01 X25.2495 Y9.3962
G01 X25.2541 Y9.3822
G01 X25.2822 Y9.3037
G01 X25.2875 Y9.2899
G01 X25.2935 Y9.2765
G01 X25.3292 Y9.2010
G01 X25.3358 Y9.1879
G01 X25.3430 Y9.1751
G01 X25.3859 Y9.1035
G01 X25.3938 Y9.0911
G01 X25.4023 Y9.0791
G01 X25.4520 Y9.0121
G01 X25.4610 Y9.0004
G01 X25.4707 Y8.9893
G01 X25.5267 Y8.9275
G01 X25.5368 Y8.9168
G01 X25.5475 Y8.9067
G01 X25.6093 Y8.8507
G01 X25.6204 Y8.8410
G01 X25.6321 Y8.8320
G01 X25.6991 Y8.7823
G01 X25.7111 Y8.7738
G01 X25.7235 Y8.7659
G01 X25.7951 Y8.7230
G01 X25.8079 Y8.7158
G01 X25.8210 Y8.7092
G01 X25.8965 Y8.6735
G01 X25.9099 Y8.6675
G01 X25.9237 Y8.6622
G01 X26.0022 Y8.6341
G01 X26.0162 Y8.6295
G01 X26.0304 Y8.6256
G01 X26.1113 Y8.6053
G01 X26.1256 Y8.6021
G01 X26.1402 Y8.5996
G01 X26.2227 Y8.5873
G01 X26.2373 Y8.5855
G01 X26.2520 Y8.5845
G01 X26.3353 Y8.5804
G00 Z2.0000
G00 X26.3402 Y8.6802
G01 F50.00
G01 Z-0.0500
G01 F50.00
G01 X26.3598 Y8.6802
G01 X26.4529 Y8.6851
G01 X26.5548 Y8.7002
G01 X26.6548 Y8.7252
G01 X26.7518 Y8.7599
G01 X26.8450 Y8.8040
G01 X26.9333 Y8.8570
G01 X27.0161 Y8.9183
G01 X27.0925 Y8.9875
G01 X27.1617 Y9.0639
G01 X27.2230 Y9.1467
G01 X27.2760 Y9.2350
G01 X27.3201 Y9.3282
G01 X27.3548 Y9.4252
G01 X27.3798 Y9.5252
G01 X27.3949 Y9.6271
G01 X27.4000 Y9.7300
G01 X27.3949 Y9.8329
G01 X27.3798 Y9.9348
G01 X27.3548 Y10.0348
G01 X27.3201 Y10.1318
G01 X27.2760 Y10.2250
G01 X27.2230 Y10.3133
G01 X27.1617 Y10.3961
G01 X27.0925 Y10.4725
G01 X27.0161 Y10.5417
G01 X26.9333 Y10.6030
G01 X26.8450 Y10.6560
G01 X26.7518 Y10.7001
G01 X26.6548 Y10.7348
G01 X26.5548 Y10.7598
G01 X26.4529 Y10.7749
G01 X26.3500 Y10.7800
G01 X26.2471 Y10.7749
G01 X26.1452 Y10.7598
G01 X26.0452 Y10.7348
G01 X25.9482 Y10.7001
G01 X25.8550 Y10.6560
G01 X25.7667 Y10.6030
G01 X25.6839 Y10.5417
G01 X25.6075 Y10.4725
G01 X25.5383 Y10.3961
G01 X25.4770 Y10.3133
G01 X25.4240 Y10.2250
G01 X25.3799 Y10.1318
G01 X25.3452 Y10.0348
G01 X25.3202 Y9.9348
G01 X25.3051 Y9.8329
G01 X25.3000 Y9.7300
G01 X25.3051 Y9.6271
G01 X25.3202 Y9.5252
G01 X25.3452 Y9.4252
G01 X25.3799 Y9.3282
G01 X25.4240 Y9.2350
G01 X25.4770 Y9.1467
G01 X25.5383 Y9.0639
G01 X25.6075 Y8.9875
G01 X25.6839 Y8.9183
G01 X25.7667 Y8.8570
G01 X25.8550 Y8.8040
G01 X25.9482 Y8.7599
G01 X26.0452 Y8.7252
G01 X26.1452 Y8.7002
G01 X26.2471 Y8.6851
G01 X26.3402 Y8.6802
G00 Z2.0000
G00 X26.3451 Y8.7801
G01 F50.00
G01 Z-0.0500
G01 F50.00
G01 X26.3549 Y8.7801
G01 X26.4431 Y8.7846
G01 X26.5353 Y8.7983
G01 X26.6258 Y8.8209
G01 X26.7135 Y8.8523
G01 X26.7978 Y8.8922
G01 X26.8778 Y8.9401
G01 X26.9527 Y8.9956
G01 X27.0218 Y9.0582
G01 X27.0844 Y9.1273
G01 X27.1399 Y9.2022
G01 X27.1878 Y9.2822
G01 X27.2277 Y9.3665
G01 X27.2591 Y9.4542
G01 X27.2817 Y9.5447
G01 X27.2954 Y9.6369
G01 X27.3000 Y9.7300
G01 X27.2954 Y9.8231
G01 X27.2817 Y9.9153
G01 X27.2591 Y10.0058
G01 X27.2277 Y10.0935
G01 X27.1878 Y10.1778
G01 X27.1399 Y10.2578
G01 X27.0844 Y10.3327
G01 X27.0218 Y10.4018
G01 X26.9527 Y10.4644
G01 X26.8778 Y10.5199
G01 X26.7978 Y10.5678
G01 X26.7135 Y10.6077
G01 X26.6258 Y10.6391
G01 X26.5353 Y10.6617
G01 X26.4431 Y10.6754
G01 X26.3500 Y10.6800
G01 X26.2569 Y10.6754
G01 X26.1647 Y10.6617
G01 X26.0742 Y10.6391
G01 X25.9865 Y10.6077
G01 X25.9022 Y10.5678
G01 X25.8222 Y10.5199
G01 X25.7473 Y10.4644
G01 X25.6782 Y10.4018
G01 X25.6156 Y10.3327
G01 X25.5601 Y10.2578
G01 X25.5122 Y10.1778
G01 X25.4723 Y10.0935
G01 X25.4409 Y10.0058
G01 X25.4183 Y9.9153
G01 X25.4046 Y9.8231
G01 X25.4000 Y9.7300
G01 X25.4046 Y9.6369
G01 X25.4183 Y9.5447
G01 X25.4409 Y9.4542
G01 X25.4723 Y9.3665
G01 X25.5122 Y9.2822
G01 X25.5601 Y9.2022
G01 X25.6156 Y9.1273
G01 X25.6782 Y9.0582
G01 X25.7473 Y8.9956
G01 X25.8222 Y8.9401
G01 X25.9022 Y8.8922
G01 X25.9865 Y8.8523
G01 X26.0742 Y8.8209
G01 X26.1647 Y8.7983
G01 X26.2569 Y8.7846
G01 X26.3451 Y8.7801
G00 Z2.0000
G00 X28.8802 Y8.6802
G01 F50.00
G01 Z-0.0500
G01 F50.00
G01 X28.8998 Y8.6802
G01 X28.9929 Y8.6851
G01 X29.0948 Y8.7002
G01 X29.1948 Y8.7252
G01 X29.2918 Y8.7599
G01 X29.3850 Y8.8040
G01 X29.4733 Y8.8570
G01 X29.5561 Y8.9183
G01 X29.6325 Y8.9875
G01 X29.7017 Y9.0639
G01 X29.7630 Y9.1467
G01 X29.8160 Y9.2350
G01 X29.8601 Y9.3282
G01 X29.8948 Y9.4252
G01 X29.9198 Y9.5252
G01 X29.9349 Y9.6271
G01 X29.9400 Y9.7300
G01 X29.9349 Y9.8329
G01 X29.9198 Y9.9348
G01 X29.8948 Y10.0348
G01 X29.8601 Y10.1318
G01 X29.8160 Y10.2250
G01 X29.7630 Y10.3133
G01 X29.7017 Y10.3961
G01 X29.6325 Y10.4725
G01 X29.5561 Y10.5417
G01 X29.4733 Y10.6030
G01 X29.3850 Y10.6560
G01 X29.2918 Y10.7001
G01 X29.1948 Y10.7348
G01 X29.0948 Y10.7598
G01 X28.9929 Y10.7749
G01 X28.8900 Y10.7800
G01 X28.7871 Y10.7749
G01 X28.6852 Y10.7598
G01 X28.5852 Y10.7348
G01 X28.4882 Y10.7001
G01 X28.3950 Y10.6560
G01 X28.3067 Y10.6030
G01 X28.2239 Y10.5417
G01 X28.1475 Y10.4725
G01 X28.0783 Y10.3961
G01 X28.0170 Y10.3133
G01 X27.9640 Y10.2250
G01 X27.9199 Y10.1318
G01 X27.8852 Y10.0348
G01 X27.8602 Y9.9348
G01 X27.8451 Y9.8329
G01 X27.8400 Y9.7300
G01 X27.8451 Y9.6271
G01 X27.8602 Y9.5252
G01 X27.8852 Y9.4252
G01 X27.9199 Y9.3282
G01 X27.9640 Y9.2350
G01 X28.0170 Y9.1467
G01 X28.0783 Y9.0639
G01 X28.1475 Y8.9875
G01 X28.2239 Y8.9183
G01 X28.3067 Y8.8570
G01 X28.3950 Y8.8040
G01 X28.4882 Y8.7599
G01 X28.5852 Y8.7252
G01 X28.6852 Y8.7002
G01 X28.7871 Y8.6851
G01 X28.8802 Y8.6802
G00 Z2.0000
G00 X28.8851 Y8.7801
G01 F50.00
G01 Z-0.0500
G01 F50.00
G01 X28.8949 Y8.7801
G01 X28.9831 Y8.7846
G01 X29.0753 Y8.7983
G01 X29.1658 Y8.8209
G01 X29.2535 Y8.8523
G01 X29.3378 Y8.8922
G01 X29.4178 Y8.9401
G01 X29.4927 Y8.9956
G01 X29.5618 Y9.0582
G01 X29.6244 Y9.1273
G01 X29.6799 Y9.2022
G01 X29.7278 Y9.2822
G01 X29.7677 Y9.3665
G01 X29.7991 Y9.4542
G01 X29.8217 Y9.5447
G01 X29.8354 Y9.6369
G01 X29.8400 Y9.7300
G01 X29.8354 Y9.8231
G01 X29.8217 Y9.9153
G01 X29.7991 Y10.0058
G01 X29.7677 Y10.0935
G01 X29.7278 Y10.1778
G01 X29.6799 Y10.2578
G01 X29.6244 Y10.3327
G01 X29.5618 Y10.4018
G01 X29.4927 Y10.4644
G01 X29.4178 Y10.5199
G01 X29.3378 Y10.5678
G01 X29.2535 Y10.6077
G01 X29.1658 Y10.6391
G01 X29.0753 Y10.6617
G01 X28.9831 Y10.6754
G01 X28.8900 Y10.6800
G01 X28.7969 Y10.6754
G01 X28.7047 Y10.6617
G01 X28.6142 Y10.6391
G01 X28.5265 Y10.6077
G01 X28.4422 Y10.5678
G01 X28.3622 Y10.5199
G01 X28.2873 Y10.4644
G01 X28.2182 Y10.4018
G01 X28.1556 Y10.3327
G01 X28.1001 Y10.2578
G01 X28.0522 Y10.1778
G01 X28.0123 Y10.0935
G01 X27.9809 Y10.0058
G01 X27.9583 Y9.9153
G01 X27.9446 Y9.8231
G01 X27.9400 Y9.7300
G01 X27.9446 Y9.6369
G01 X27.9583 Y9.5447
G01 X27.9809 Y9.4542
G01 X28.0123 Y9.3665
G01 X28.0522 Y9.2822
G01 X28.1001 Y9.2022
G01 X28.1556 Y9.1273
G01 X28.2182 Y9.0582
G01 X28.2873 Y8.9956
G01 X28.3622 Y8.9401
G01 X28.4422 Y8.8922
G01 X28.5265 Y8.8523
G01 X28.6142 Y8.8209
G01 X28.7047 Y8.7983
G01 X28.7969 Y8.7846
G01 X28.8851 Y8.7801
G00 Z2.0000
G00 X28.8753 Y8.5804
G01 F50.00
G01 Z-0.0500
G01 F50.00
G01 X28.8900 Y8.5800
G01 X28.9047 Y8.5804
G01 X28.9880 Y8.5845
G01 X29.0027 Y8.5855
G01 X29.0173 Y8.5873
G01 X29.0998 Y8.5996
G01 X29.1144 Y8.6021
G01 X29.1287 Y8.6053
G01 X29.2096 Y8.6256
G01 X29.2238 Y8.6295
G01 X29.2378 Y8.6341
G01 X29.3163 Y8.6622
G01 X29.3301 Y8.6675
G01 X29.3435 Y8.6735
G01 X29.4190 Y8.7092
G01 X29.4321 Y8.7158
G01 X29.4449 Y8.7230
G01 X29.5165 Y8.7659
G01 X29.5289 Y8.7738
G01 X29.5409 Y8.7823
G01 X29.6079 Y8.8320
G01 X29.6196 Y8.8410
G01 X29.6307 Y8.8507
G01 X29.6925 Y8.9067
G01 X29.7032 Y8.9168
G01 X29.7133 Y8.9275
G01 X29.7693 Y8.9893
G01 X29.7790 Y9.0004
G01 X29.7880 Y9.0121
G01 X29.8377 Y9.0791
G01 X29.8462 Y9.0911
G01 X29.8541 Y9.1035
G01 X29.8970 Y9.1751
G01 X29.9042 Y9.1879
G01 X29.9108 Y9.2010
G01 X29.9465 Y9.2765
G01 X29.9525 Y9.2899
G01 X29.9578 Y9.3037
G01 X29.9859 Y9.3822
G01 X29.9905 Y9.3962
G01 X29.9944 Y9.4104
G01 X30.0147 Y9.4913
G01 X30.0179 Y9.5056
G01 X30.0204 Y9.5202
G01 X30.0327 Y9.6027
G01 X30.0345 Y9.6173
G01 X30.0355 Y9.6320
G01 X30.0396 Y9.7153
G01 X30.0400 Y9.7300
G01 X30.0396 Y9.7447
G01 X30.0355 Y9.8280
G01 X30.0345 Y9.8427
G01 X30.0327 Y9.8573
G01 X30.0204 Y9.9398
G01 X30.0179 Y9.9544
G01 X30.0147 Y9.9687
G01 X29.9944 Y10.0496
G01 X29.9905 Y10.0638
G01 X29.9859 Y10.0778
G01 X29.9578 Y10.1563
G01 X29.9525 Y10.1701
G01 X29.9465 Y10.1835
G01 X29.9108 Y10.2590
G01 X29.9042 Y10.2721
G01 X29.8970 Y10.2849
G01 X29.8541 Y10.3565
G01 X29.8462 Y10.3689
G01 X29.8377 Y10.3809
G01 X29.7880 Y10.4479
G01 X29.7790 Y10.4596
G01 X29.7693 Y10.4707
G01 X29.7133 Y10.5325
G01 X29.7032 Y10.5432
G01 X29.6925 Y10.5533
G01 X29.6307 Y10.6093
G01 X29.6196 Y10.6190
G01 X29.6079 Y10.6280
G01 X29.5409 Y10.6777
G01 X29.5289 Y10.6862
G01 X29.5165 Y10.6941
G01 X29.4449 Y10.7370
G01 X29.4321 Y10.7442
G01 X29.4190 Y10.7508
G01 X29.3435 Y10.7865
G01 X29.3301 Y10.7925
G01 X29.3163 Y10.7978
G01 X29.2378 Y10.8259
G01 X29.2238 Y10.8305
G01 X29.2096 Y10.8344
G01 X29.1287 Y10.8547
G01 X29.1144 Y10.8579
G01 X29.0998 Y10.8604
G01 X29.0173 Y10.8727
G01 X29.0027 Y10.8745
G01 X28.9880 Y10.8755
G01 X28.9047 Y10.8796
G01 X28.8900 Y10.8800
G01 X28.8753 Y10.8796
G01 X28.7920 Y10.8755
G01 X28.7773 Y10.8745
G01 X28.7627 Y10.8727
G01 X28.6802 Y10.8604
G01 X28.6656 Y10.8579
G01 X28.6513 Y10.8547
G01 X28.5704 Y10.8344
G01 X28.5562 Y10.8305
G01 X28.5422 Y10.8259
G01 X28.4637 Y10.7978
G01 X28.4499 Y10.7925
G01 X28.4365 Y10.7865
G01 X28.3610 Y10.7508
G01 X28.3479 Y10.7442
G01 X28.3351 Y10.7370
G01 X28.2635 Y10.6941
G01 X28.2511 Y10.6862
G01 X28.2391 Y10.6777
G01 X28.1721 Y10.6280
G01 X28.1604 Y10.6190
G01 X28.1493 Y10.6093
G01 X28.0875 Y10.5533
G01 X28.0768 Y10.5432
G01 X28.0667 Y10.5325
G01 X28.0107 Y10.4707
G01 X28.0010 Y10.4596
G01 X27.9920 Y10.4479
G01 X27.9423 Y10.3809
G01 X27.9338 Y10.3689
G01 X27.9259 Y10.3565
G01 X27.8830 Y10.2849
G01 X27.8758 Y10.2721
G01 X27.8692 Y10.2590
G01 X27.8335 Y10.1835
G01 X27.8275 Y10.1701
G01 X27.8222 Y10.1563
G01 X27.7941 Y10.0778
G01 X27.7895 Y10.0638
G01 X27.7856 Y10.0496
G01 X27.7653 Y9.9687
G01 X27.7621 Y9.9544
G01 X27.7596 Y9.9398
G01 X27.7473 Y9.8573
G01 X27.7455 Y9.8427
G01 X27.7445 Y9.8280
G01 X27.7404 Y9.7447
G01 X27.7400 Y9.7300
G01 X27.7404 Y9.7153
G01 X27.7445 Y9.6320
G01 X27.7455 Y9.6173
G01 X27.7473 Y9.6027
G01 X27.7596 Y9.5202
G01 X27.7621 Y9.5056
G01 X27.7653 Y9.4913
G01 X27.7856 Y9.4104
G01 X27.7895 Y9.3962
G01 X27.7941 Y9.3822
G01 X27.8222 Y9.3037
G01 X27.8275 Y9.2899
G01 X27.8335 Y9.2765
G01 X27.8692 Y9.2010
G01 X27.8758 Y9.1879
G01 X27.8830 Y9.1751
G01 X27.9259 Y9.1035
G01 X27.9338 Y9.0911
G01 X27.9423 Y9.0791
G01 X27.9920 Y9.0121
G01 X28.0010 Y9.0004
G01 X28.0107 Y8.9893
G01 X28.0667 Y8.9275
G01 X28.0768 Y8.9168
G01 X28.0875 Y8.9067
G01 X28.1493 Y8.8507
G01 X28.1604 Y8.8410
G01 X28.1721 Y8.8320
G01 X28.2391 Y8.7823
G01 X28.2511 Y8.7738
G01 X28.2635 Y8.7659
G01 X28.3351 Y8.7230
G01 X28.3479 Y8.7158
G01 X28.3610 Y8.7092
G01 X28.4365 Y8.6735
G01 X28.4499 Y8.6675
G01 X28.4637 Y8.6622
G01 X28.5422 Y8.6341
G01 X28.5562 Y8.6295
G01 X28.5704 Y8.6256
G01 X28.6513 Y8.6053
G01 X28.6656 Y8.6021
G01 X28.6802 Y8.5996
G01 X28.7627 Y8.5873
G01 X28.7773 Y8.5855
G01 X28.7920 Y8.5845
G01 X28.8753 Y8.5804
G00 Z2.0000
G00 X32.2800 Y8.5800
G01 F50.00
G01 Z-0.0500
G01 F50.00
G01 X32.2947 Y8.5804
G01 X32.3094 Y8.5814
G01 X32.3240 Y8.5832
G01 X32.3385 Y8.5858
G01 X32.3600 Y8.5909
G01 X32.3741 Y8.5951
G01 X32.3880 Y8.6001
G01 X32.4016 Y8.6057
G01 X32.4149 Y8.6120
G01 X32.4279 Y8.6190
G01 X32.4405 Y8.6265
G01 X32.4587 Y8.6390
G01 X32.4703 Y8.6481
G01 X32.4815 Y8.6577
G01 X32.4973 Y8.6731
G01 X32.5072 Y8.6840
G01 X32.5165 Y8.6954
G01 X32.5253 Y8.7073
G01 X32.5335 Y8.7195
G01 X32.5410 Y8.7321
G01 X32.5480 Y8.7451
G01 X32.5572 Y8.7652
G01 X32.5625 Y8.7789
G01 X32.5671 Y8.7929
G01 X32.5710 Y8.8071
G01 X32.5742 Y8.8215
G01 X32.5768 Y8.8360
G01 X32.5786 Y8.8506
G01 X32.5796 Y8.8653
G01 X32.5800 Y8.8800
G01 X32.5800 Y10.5800
G01 X32.5796 Y10.5947
G01 X32.5777 Y10.6167
G01 X32.5756 Y10.6313
G01 X32.5727 Y10.6457
G01 X32.5671 Y10.6671
G01 X32.5599 Y10.6880
G01 X32.5543 Y10.7016
G01 X32.5480 Y10.7149
G01 X32.5373 Y10.7342
G01 X32.5253 Y10.7527
G01 X32.5165 Y10.7646
G01 X32.5072 Y10.7760
G01 X32.4921 Y10.7921
G01 X32.4815 Y10.8023
G01 X32.4703 Y10.8119
G01 X32.4587 Y10.8210
G01 X32.4467 Y10.8294
G01 X32.4342 Y10.8373
G01 X32.4214 Y10.8446
G01 X32.4083 Y10.8512
G01 X32.3948 Y10.8572
G01 X32.3811 Y10.8625
G01 X32.3671 Y10.8671
G01 X32.3529 Y10.8710
G01 X32.3385 Y10.8742
G01 X32.3240 Y10.8768
G01 X32.3021 Y10.8792
G01 X32.2874 Y10.8799
G01 X30.5800 Y10.8800
G01 X30.5653 Y10.8796
G01 X30.5433 Y10.8777
G01 X30.5287 Y10.8756
G01 X30.5143 Y10.8727
G01 X30.4929 Y10.8671
G01 X30.4720 Y10.8599
G01 X30.4584 Y10.8543
G01 X30.4451 Y10.8480
G01 X30.4258 Y10.8373
G01 X30.4133 Y10.8294
G01 X30.4013 Y10.8210
G01 X30.3840 Y10.8072
G01 X30.3731 Y10.7973
G01 X30.3577 Y10.7815
G01 X30.3481 Y10.7703
G01 X30.3390 Y10.7587
G01 X30.3306 Y10.7467
G01 X30.3227 Y10.7342
G01 X30.3154 Y10.7214
G01 X30.3088 Y10.7083
G01 X30.3028 Y10.6948
G01 X30.2975 Y10.6811
G01 X30.2909 Y10.6600
G01 X30.2873 Y10.6457
G01 X30.2844 Y10.6313
G01 X30.2823 Y10.6167
G01 X30.2808 Y10.6021
G01 X30.2801 Y10.5874
G01 X30.2800 Y8.8800
G01 X30.2804 Y8.8653
G01 X30.2814 Y8.8506
G01 X30.2832 Y8.8360
G01 X30.2873 Y8.8143
G01 X30.2929 Y8.7929
G01 X30.2975 Y8.7789
G01 X30.3028 Y8.7652
G01 X30.3120 Y8.7451
G01 X30.3190 Y8.7321
G01 X30.3265 Y8.7195
G01 X30.3390 Y8.7013
G01 X30.3528 Y8.6840
G01 X30.3627 Y8.6731
G01 X30.3731 Y8.6627
G01 X30.3840 Y8.6528
G01 X30.3954 Y8.6435
G01 X30.4073 Y8.6347
G01 X30.4195 Y8.6265
G01 X30.4321 Y8.6190
G01 X30.4451 Y8.6120
G01 X30.4584 Y8.6057
G01 X30.4720 Y8.6001
G01 X30.4859 Y8.5951
G01 X30.5000 Y8.5909
G01 X30.5215 Y8.5858
G01 X30.5360 Y8.5832
G01 X30.5506 Y8.5814
G01 X30.5653 Y8.5804
G01 X30.5800 Y8.5800
G01 X32.2800 Y8.5800
G00 Z2.0000
G00 X32.2800 Y8.6800
G01 F50.00
G01 Z-0.0500
G01 F50.00
G01 X32.2996 Y8.6810
G01 X32.3190 Y8.6838
G01 X32.3381 Y8.6886
G01 X32.3520 Y8.6934
G01 X32.3699 Y8.7014
G01 X32.3870 Y8.7110
G01 X32.4030 Y8.7223
G01 X32.4179 Y8.7352
G01 X32.4314 Y8.7494
G01 X32.4406 Y8.7609
G01 X32.4515 Y8.7772
G01 X32.4608 Y8.7945
G01 X32.4683 Y8.8126
G01 X32.4740 Y8.8314
G01 X32.4778 Y8.8507
G01 X32.4795 Y8.8653
G01 X32.4800 Y8.8800
G01 X32.4799 Y10.5849
G01 X32.4790 Y10.5996
G01 X32.4762 Y10.6190
G01 X32.4714 Y10.6381
G01 X32.4666 Y10.6520
G01 X32.4586 Y10.6699
G01 X32.4490 Y10.6870
G01 X32.4406 Y10.6991
G01 X32.4282 Y10.7143
G01 X32.4214 Y10.7214
G01 X32.4106 Y10.7314
G01 X32.3952 Y10.7435
G01 X32.3786 Y10.7540
G01 X32.3610 Y10.7628
G01 X32.3427 Y10.7699
G01 X32.3238 Y10.7751
G01 X32.3045 Y10.7785
G01 X32.2947 Y10.7795
G01 X32.2800 Y10.7800
G01 X30.5751 Y10.7799
G01 X30.5555 Y10.7785
G01 X30.5410 Y10.7762
G01 X30.5267 Y10.7728
G01 X30.5080 Y10.7666
G01 X30.4901 Y10.7586
G01 X30.4772 Y10.7515
G01 X30.4609 Y10.7406
G01 X30.4457 Y10.7282
G01 X30.4318 Y10.7143
G01 X30.4194 Y10.6991
G01 X30.4137 Y10.6911
G01 X30.4060 Y10.6786
G01 X30.3972 Y10.6610
G01 X30.3901 Y10.6427
G01 X30.3849 Y10.6238
G01 X30.3815 Y10.6045
G01 X30.3805 Y10.5947
G01 X30.3800 Y10.5800
G01 X30.3801 Y8.8751
G01 X30.3815 Y8.8555
G01 X30.3838 Y8.8410
G01 X30.3872 Y8.8267
G01 X30.3934 Y8.8080
G01 X30.3992 Y8.7945
G01 X30.4085 Y8.7772
G01 X30.4194 Y8.7609
G01 X30.4318 Y8.7457
G01 X30.4421 Y8.7352
G01 X30.4494 Y8.7286
G01 X30.4648 Y8.7165
G01 X30.4814 Y8.7060
G01 X30.4990 Y8.6972
G01 X30.5173 Y8.6901
G01 X30.5362 Y8.6849
G01 X30.5555 Y8.6815
G01 X30.5751 Y8.6801
G01 X32.2800 Y8.6800
G00 Z2.0000
G00 X32.2800 Y8.7800
G01 F50.00
G01 Z-0.0500
G01 F50.00
G01 X32.2898 Y8.7805
G01 X32.2995 Y8.7819
G01 X32.3090 Y8.7843
G01 X32.3183 Y8.7876
G01 X32.3271 Y8.7918
G01 X32.3356 Y8.7969
G01 X32.3434 Y8.8027
G01 X32.3490 Y8.8076
G01 X32.3557 Y8.8147
G01 X32.3618 Y8.8224
G01 X32.3670 Y8.8307
G01 X32.3714 Y8.8395
G01 X32.3750 Y8.8486
G01 X32.3776 Y8.8581
G01 X32.3792 Y8.8678
G01 X32.3799 Y8.8751
G01 X32.3800 Y10.5825
G01 X32.3792 Y10.5922
G01 X32.3776 Y10.6019
G01 X32.3750 Y10.6114
G01 X32.3724 Y10.6183
G01 X32.3682 Y10.6271
G01 X32.3631 Y10.6356
G01 X32.3573 Y10.6434
G01 X32.3524 Y10.6490
G01 X32.3453 Y10.6557
G01 X32.3376 Y10.6618
G01 X32.3293 Y10.6670
G01 X32.3205 Y10.6714
G01 X32.3114 Y10.6750
G01 X32.3019 Y10.6776
G01 X32.2898 Y10.6795
G01 X32.2800 Y10.6800
G01 X30.5775 Y10.6800
G01 X30.5678 Y10.6792
G01 X30.5605 Y10.6781
G01 X30.5510 Y10.6757
G01 X30.5417 Y10.6724
G01 X30.5329 Y10.6682
G01 X30.5265 Y10.6645
G01 X30.5185 Y10.6588
G01 X30.5110 Y10.6524
G01 X30.5043 Y10.6453
G01 X30.4982 Y10.6376
G01 X30.4918 Y10.6271
G01 X30.4876 Y10.6183
G01 X30.4843 Y10.6090
G01 X30.4819 Y10.5995
G01 X30.4805 Y10.5898
G01 X30.4800 Y10.5800
G01 X30.4800 Y8.8775
G01 X30.4805 Y8.8702
G01 X30.4819 Y8.8605
G01 X30.4843 Y8.8510
G01 X30.4876 Y8.8417
G01 X30.4918 Y8.8329
G01 X30.4969 Y8.8244
G01 X30.5027 Y8.8166
G01 X30.5076 Y8.8110
G01 X30.5147 Y8.8043
G01 X30.5224 Y8.7982
G01 X30.5307 Y8.7930
G01 X30.5395 Y8.7886
G01 X30.5486 Y8.7850
G01 X30.5581 Y8.7824
G01 X30.5678 Y8.7808
G01 X30.5775 Y8.7800
G01 X32.2800 Y8.7800
G00 Z2.0000
G00 X37.2004 Y9.5147
G01 F50.00
G01 Z-0.0500
G01 F50.00
G01 X37.2000 Y9.5000
G01 X37.2004 Y9.4853
G01 X37.2052 Y9.3873
G01 X37.2063 Y9.3726
G01 X37.2081 Y9.3580
G01 X37.2225 Y9.2609
G01 X37.2250 Y9.2464
G01 X37.2282 Y9.2320
G01 X37.2521 Y9.1368
G01 X37.2560 Y9.1226
G01 X37.2606 Y9.1086
G01 X37.2937 Y9.0162
G01 X37.2990 Y9.0025
G01 X37.3049 Y8.9891
G01 X37.3469 Y8.9003
G01 X37.3535 Y8.8872
G01 X37.3608 Y8.8744
G01 X37.4112 Y8.7902
G01 X37.4191 Y8.7778
G01 X37.4276 Y8.7657
G01 X37.4860 Y8.6869
G01 X37.4951 Y8.6753
G01 X37.5047 Y8.6641
G01 X37.5706 Y8.5914
G01 X37.5808 Y8.5808
G01 X37.5914 Y8.5706
G01 X37.6641 Y8.5047
G01 X37.6753 Y8.4951
G01 X37.6869 Y8.4860
G01 X37.7657 Y8.4276
G01 X37.7778 Y8.4191
G01 X37.7902 Y8.4112
G01 X37.8744 Y8.3608
G01 X37.8872 Y8.3535
G01 X37.9003 Y8.3469
G01 X37.9891 Y8.3049
G01 X38.0025 Y8.2990
G01 X38.0162 Y8.2937
G01 X38.1086 Y8.2606
G01 X38.1226 Y8.2560
G01 X38.1368 Y8.2521
G01 X38.2320 Y8.2282
G01 X38.2464 Y8.2250
G01 X38.2609 Y8.2225
G01 X38.3580 Y8.2081
G01 X38.3726 Y8.2063
G01 X38.3873 Y8.2052
G01 X38.4853 Y8.2004
G01 X38.5000 Y8.2000
G01 X38.5147 Y8.2004
G01 X38.6127 Y8.2052
G01 X38.6274 Y8.2063
G01 X38.6420 Y8.2081
G01 X38.7391 Y8.2225
G01 X38.7536 Y8.2250
G01 X38.7680 Y8.2282
G01 X38.8632 Y8.2521
G01 X38.8774 Y8.2560
G01 X38.8914 Y8.2606
G01 X38.9838 Y8.2937
G01 X38.9975 Y8.2990
G01 X39.0109 Y8.3049
G01 X39.0997 Y8.3469
G01 X39.1128 Y8.3535
G01 X39.1256 Y8.3608
G01 X39.2098 Y8.4112
G01 X39.2222 Y8.4191
G01 X39.2343 Y8.4276
G01 X39.3131 Y8.4860
G01 X39.3247 Y8.4951
G01 X39.3359 Y8.5047
G01 X39.4086 Y8.5706
G01 X39.4192 Y8.5808
G01 X39.4294 Y8.5914
G01 X39.4953 Y8.6641
G01 X39.5049 Y8.6753
G01 X39.5140 Y8.6869
G01 X39.5724 Y8.7657
G01 X39.5809 Y8.7778
G01 X39.5888 Y8.7902
G01 X39.6392 Y8.8744
G01 X39.6465 Y8.8872
G01 X39.6531 Y8.9003
G01 X39.6951 Y8.9891
G01 X39.7010 Y9.0025
G01 X39.7063 Y9.0162
G01 X39.7394 Y9.1086
G01 X39.7440 Y9.1226
G01 X39.7479 Y9.1368
G01 X39.7718 Y9.2320
G01 X39.7750 Y9.2464
G01 X39.7775 Y9.2609
G01 X39.7919 Y9.3580
G01 X39.7937 Y9.3726
G01 X39.7948 Y9.3873
G01 X39.7996 Y9.4853
G01 X39.8000 Y9.5000
G01 X39.7996 Y9.5147
G01 X39.7948 Y9.6127
G01 X39.7937 Y9.6274
G01 X39.7919 Y9.6420
G01 X39.7775 Y9.7391
G01 X39.7750 Y9.7536
G01 X39.7718 Y9.7680
G01 X39.7479 Y9.8632
G01 X39.7440 Y9.8774
G01 X39.7394 Y9.8914
G01 X39.7063 Y9.9838
G01 X39.7010 Y9.9975
G01 X39.6951 Y10.0109
G01 X39.6531 Y10.0997
G01 X39.6465 Y10.1128
G01 X39.6392 Y10.1256
G01 X39.5888 Y10.2098
G01 X39.5809 Y10.2222
G01 X39.5724 Y10.2343
G01 X39.5140 Y10.3131
G01 X39.5049 Y10.3247
G01 X39.4953 Y10.3359
G01 X39.4294 Y10.4086
G01 X39.4192 Y10.4192
G01 X39.4086 Y10.4294
G01 X39.3359 Y10.4953
G01 X39.3247 Y10.5049
G01 X39.3131 Y10.5140
G01 X39.2343 Y10.5724
G01 X39.2222 Y10.5809
G01 X39.2098 Y10.5888
G01 X39.1256 Y10.6392
G01 X39.1128 Y10.6465
G01 X39.0997 Y10.6531
G01 X39.0109 Y10.6951
G01 X38.9975 Y10.7010
G01 X38.9838 Y10.7063
G01 X38.8914 Y10.7394
G01 X38.8774 Y10.7440
G01 X38.8632 Y10.7479
G01 X38.7680 Y10.7718
G01 X38.7536 Y10.7750
G01 X38.7391 Y10.7775
G01 X38.6420 Y10.7919
G01 X38.6274 Y10.7937
G01 X38.6127 Y10.7948
G01 X38.5147 Y10.7996
G01 X38.5000 Y10.8000
G01 X38.4853 Y10.7996
G01 X38.3873 Y10.7948
G01 X38.3726 Y10.7937
G01 X38.3580 Y10.7919
G01 X38.2609 Y10.7775
G01 X38.2464 Y10.7750
G01 X38.2320 Y10.7718
G01 X38.1368 Y10.7479
G01 X38.1226 Y10.7440
G01 X38.1086 Y10.7394
G01 X38.0162 Y10.7063
G01 X38.0025 Y10.7010
G01 X37.9891 Y10.6951
G01 X37.9003 Y10.6531
G01 X37.8872 Y10.6465
G01 X37.8744 Y10.6392
G01 X37.7902 Y10.5888
G01 X37.7778 Y10.5809
G01 X37.7657 Y10.5724
G01 X37.6869 Y10.5140
G01 X37.6753 Y10.5049
G01 X37.6641 Y10.4953
G01 X37.5914 Y10.4294
G01 X37.5808 Y10.4192
G01 X37.5706 Y10.4086
G01 X37.5047 Y10.3359
G01 X37.4951 Y10.3247
G01 X37.4860 Y10.3131
G01 X37.4276 Y10.2343
G01 X37.4191 Y10.2222
G01 X37.4112 Y10.2098
G01 X37.3608 Y10.1256
G01 X37.3535 Y10.1128
G01 X37.3469 Y10.0997
G01 X37.3049 Y10.0109
G01 X37.2990 Y9.9975
G01 X37.2937 Y9.9838
G01 X37.2606 Y9.8914
G01 X37.2560 Y9.8774
G01 X37.2521 Y9.8632
G01 X37.2282 Y9.7680
G01 X37.2250 Y9.7536
G01 X37.2225 Y9.7391
G01 X37.2081 Y9.6420
G01 X37.2063 Y9.6274
G01 X37.2052 Y9.6127
G01 X37.2004 Y9.5147
G00 Z2.0000
G00 X37.3002 Y9.5098
G01 F50.00
G01 Z-0.0500
G01 F50.00
G01 X37.3002 Y9.4902
G01 X37.3058 Y9.3824
G01 X37.3231 Y9.2659
G01 X37.3517 Y9.1517
G01 X37.3913 Y9.0408
G01 X37.4417 Y8.9343
G01 X37.5022 Y8.8333
G01 X37.5724 Y8.7387
G01 X37.6515 Y8.6515
G01 X37.7387 Y8.5724
G01 X37.8333 Y8.5022
G01 X37.9343 Y8.4417
G01 X38.0408 Y8.3913
G01 X38.1517 Y8.3517
G01 X38.2659 Y8.3231
G01 X38.3824 Y8.3058
G01 X38.5000 Y8.3000
G01 X38.6176 Y8.3058
G01 X38.7341 Y8.3231
G01 X38.8483 Y8.3517
G01 X38.9592 Y8.3913
G01 X39.0657 Y8.4417
G01 X39.1667 Y8.5022
G01 X39.2613 Y8.5724
G01 X39.3485 Y8.6515
G01 X39.4276 Y8.7387
G01 X39.4978 Y8.8333
G01 X39.5583 Y8.9343
G01 X39.6087 Y9.0408
G01 X39.6483 Y9.1517
G01 X39.6769 Y9.2659
G01 X39.6942 Y9.3824
G01 X39.7000 Y9.5000
G01 X39.6942 Y9.6176
G01 X39.6769 Y9.7341
G01 X39.6483 Y9.8483
G01 X39.6087 Y9.9592
G01 X39.5583 Y10.0657
G01 X39.4978 Y10.1667
G01 X39.4276 Y10.2613
G01 X39.3485 Y10.3485
G01 X39.2613 Y10.4276
G01 X39.1667 Y10.4978
G01 X39.0657 Y10.5583
G01 X38.9592 Y10.6087
G01 X38.8483 Y10.6483
G01 X38.7341 Y10.6769
G01 X38.6176 Y10.6942
G01 X38.5000 Y10.7000
G01 X38.3824 Y10.6942
G01 X38.2659 Y10.6769
G01 X38.1517 Y10.6483
G01 X38.0408 Y10.6087
G01 X37.9343 Y10.5583
G01 X37.8333 Y10.4978
G01 X37.7387 Y10.4276
G01 X37.6515 Y10.3485
G01 X37.5724 Y10.2613
G01 X37.5022 Y10.1667
G01 X37.4417 Y10.0657
G01 X37.3913 Y9.9592
G01 X37.3517 Y9.8483
G01 X37.3231 Y9.7341
G01 X37.3058 Y9.6176
G01 X37.3002 Y9.5098
G00 Z2.0000
G00 X37.4001 Y9.5049
G01 F50.00
G01 Z-0.0500
G01 F50.00
G01 X37.4001 Y9.4951
G01 X37.4053 Y9.3922
G01 X37.4211 Y9.2854
G01 X37.4474 Y9.1807
G01 X37.4837 Y9.0790
G01 X37.5299 Y8.9815
G01 X37.5854 Y8.8889
G01 X37.6497 Y8.8022
G01 X37.7222 Y8.7222
G01 X37.8022 Y8.6497
G01 X37.8889 Y8.5854
G01 X37.9815 Y8.5299
G01 X38.0790 Y8.4837
G01 X38.1807 Y8.4474
G01 X38.2854 Y8.4211
G01 X38.3922 Y8.4053
G01 X38.5000 Y8.4000
G01 X38.6078 Y8.4053
G01 X38.7146 Y8.4211
G01 X38.8193 Y8.4474
G01 X38.9210 Y8.4837
G01 X39.0185 Y8.5299
G01 X39.1111 Y8.5854
G01 X39.1978 Y8.6497
G01 X39.2778 Y8.7222
G01 X39.3503 Y8.8022
G01 X39.4146 Y8.8889
G01 X39.4701 Y8.9815
G01 X39.5163 Y9.0790
G01 X39.5526 Y9.1807
G01 X39.5789 Y9.2854
G01 X39.5947 Y9.3922
G01 X39.6000 Y9.5000
G01 X39.5947 Y9.6078
G01 X39.5789 Y9.7146
G01 X39.5526 Y9.8193
G01 X39.5163 Y9.9210
G01 X39.4701 Y10.0185
G01 X39.4146 Y10.1111
G01 X39.3503 Y10.1978
G01 X39.2778 Y10.2778
G01 X39.1978 Y10.3503
G01 X39.1111 Y10.4146
G01 X39.0185 Y10.4701
G01 X38.9210 Y10.5163
G01 X38.8193 Y10.5526
G01 X38.7146 Y10.5789
G01 X38.6078 Y10.5947
G01 X38.5000 Y10.6000
G01 X38.3922 Y10.5947
G01 X38.2854 Y10.5789
G01 X38.1807 Y10.5526
G01 X38.0790 Y10.5163
G01 X37.9815 Y10.4701
G01 X37.8889 Y10.4146
G01 X37.8022 Y10.3503
G01 X37.7222 Y10.2778
G01 X37.6497 Y10.1978
G01 X37.5854 Y10.1111
G01 X37.5299 Y10.0185
G01 X37.4837 Y9.9210
G01 X37.4474 Y9.8193
G01 X37.4211 Y9.7146
G01 X37.4053 Y9.6078
G01 X37.4001 Y9.5049
G00 Z2.0000
M05
G00 Z2.0000
G00 Z15.00


