(G-CODE GENERATED BY FLATCAM v8.994 - www.flatcam.org - Version Date: 2020/11/7)

(Name: PatientMonitorButtons-PTH.drl_cnc)
(Type: G-code from Geometry)
(Units: MM)

(Created on Wednesday, 01 May 2024 at 23:34)

(This preprocessor is the default preprocessor used by FlatCAM.)
(It is made to work with MACH3 compatible motion controllers.)


(TOOLS DIAMETER: )
(Tool: 1 -> Dia: 1.0)
(Tool: 2 -> Dia: 1.0)
(Tool: 3 -> Dia: 1.0)
(Tool: 4 -> Dia: 1.0)

(FEEDRATE Z: )
(Tool: 1 -> Feedrate: 50.0)
(Tool: 2 -> Feedrate: 50.0)
(Tool: 3 -> Feedrate: 50.0)
(Tool: 4 -> Feedrate: 50.0)

(FEEDRATE RAPIDS: )
(Tool: 1 -> Feedrate Rapids: 1500)
(Tool: 2 -> Feedrate Rapids: 1500)
(Tool: 3 -> Feedrate Rapids: 1500)
(Tool: 4 -> Feedrate Rapids: 1500)

(Z_CUT: )
(Tool: 1 -> Z_Cut: -5.0)
(Tool: 2 -> Z_Cut: -5.0)
(Tool: 3 -> Z_Cut: -5.0)
(Tool: 4 -> Z_Cut: -5.0)

(Tools Offset: )
(Tool: 4 -> Offset Z: 0.0)

(Z_MOVE: )
(Tool: 1 -> Z_Move: 2.0)
(Tool: 2 -> Z_Move: 2.0)
(Tool: 3 -> Z_Move: 2.0)
(Tool: 4 -> Z_Move: 2.0)

(Z Toolchange: 15 mm)
(X,Y Toolchange: 0.0000, 0.0000 mm)
(Z Start: None mm)
(Z End: 15.0 mm)
(X,Y End: None mm)
(Steps per circle: 64)
(Preprocessor Excellon: default)

(X range:    1.0000 ...   39.0000  mm)
(Y range:    9.0000 ...   10.2300  mm)

(Spindle Speed: 1000 RPM)
G21
G90
G94

G01 F50.00

M5
G00 Z15.0000
T1
G00 X0.0000 Y0.0000                
M6
(MSG, Change to Tool Dia = 1.0000 ||| Total drills for tool T1 = 6)
M0
G00 Z15.0000

G01 F50.00
M03 S1000
G00 X1.5000 Y9.5000
G01 Z-5.0000
G01 Z0
G00 Z2.0000
G00 X1.5000 Y9.5000
G01 Z-5.0000
G01 Z0
G00 Z2.0000
G00 X8.5700 Y9.7300
G01 Z-5.0000
G01 Z0
G00 Z2.0000
G00 X38.5000 Y9.5000
G01 Z-5.0000
G01 Z0
G00 Z2.0000
G00 X38.5000 Y9.5000
G01 Z-5.0000
G01 Z0
G00 Z2.0000
G00 X31.4300 Y9.7300
G01 Z-5.0000
G01 Z0
G00 Z2.0000
G00 X31.4300 Y9.7300
G01 Z-5.0000
G01 Z0
G00 Z2.0000
G00 X28.8900 Y9.7300
G01 Z-5.0000
G01 Z0
G00 Z2.0000
G00 X28.8900 Y9.7300
G01 Z-5.0000
G01 Z0
G00 Z2.0000
G00 X26.3500 Y9.7300
G01 Z-5.0000
G01 Z0
G00 Z2.0000
G00 X26.3500 Y9.7300
G01 Z-5.0000
G01 Z0
G00 Z2.0000
G00 X13.6500 Y9.7300
G01 Z-5.0000
G01 Z0
G00 Z2.0000
G00 X13.6500 Y9.7300
G01 Z-5.0000
G01 Z0
G00 Z2.0000
G00 X11.1100 Y9.7300
G01 Z-5.0000
G01 Z0
G00 Z2.0000
G00 X11.1100 Y9.7300
G01 Z-5.0000
G01 Z0
G00 Z2.0000
G00 X8.5700 Y9.7300
G01 Z-5.0000
G01 Z0
G00 Z2.0000
M05
G00 Z15.00


