; generated by PrusaSlicer 2.7.4 on 2024-05-01 at 15:48:42 UTC

; 

; external perimeters extrusion width = 0.42mm
; perimeters extrusion width = 0.44mm
; infill extrusion width = 0.44mm
; solid infill extrusion width = 0.44mm
; top infill extrusion width = 0.40mm
; support material extrusion width = 0.36mm
; first layer extrusion width = 0.42mm

M201 X500 Y500 Z100 E5000 ; sets maximum accelerations, mm/sec^2
M203 X500 Y500 Z10 E60 ; sets maximum feedrates, mm / sec
M204 S500 T1000 ; sets acceleration (S) and retract acceleration (R), mm/sec^2
M205 X8.00 Y8.00 Z0.40 E5.00 ; sets the jerk limits, mm/sec
M205 S0 T0 ; sets the minimum extruding and travel feed rate, mm/sec

; printing object Right-Right_PartBody id:0 copy 0
; stop printing object Right-Right_PartBody id:0 copy 0

;TYPE:Custom
G90 ; use absolute coordinates
M83 ; extruder relative mode
M104 S150 ; set temporary nozzle temp to prevent oozing during homing
M140 S90 ; set final bed temp
G4 S30 ; allow partial nozzle warmup
G28 ; home all axis
G1 Z50 F240
G1 X2.0 Y10 F3000
M104 S245 ; set final nozzle temp
M190 S90 ; wait for bed temp to stabilize
M109 S245 ; wait for nozzle temp to stabilize
G1 Z0.28 F240
G92 E0
G1 X2.0 Y140 E10 F1500 ; prime the nozzle
G1 X2.3 Y140 F5000
G92 E0
G1 X2.3 Y10 E10 F1200 ; prime the nozzle
G92 E0
G21 ; set units to millimeters
G90 ; use absolute coordinates
M83 ; use relative distances for extrusion
; Filament gcode
M107
;LAYER_CHANGE
;Z:0.2
;HEIGHT:0.2
G1 E-5 F3600
G1 Z.2 F9000
G1 X103.9 Y78.14
G1 Z.2
G1 E5 F2400
M204 S500
;TYPE:Skirt/Brim
;WIDTH:0.42
G1 F1200
G1 X105.592 Y77.137 E.06167
G1 X107.187 Y76.869 E.05071
G1 X123.813 Y76.869 E.5213
G1 X125.74 Y77.265 E.06168
G1 X127.354 Y78.388 E.06165
G1 X128.183 Y79.57 E.04527
G1 X129.522 Y82.247 E.09385
G1 X130.037 Y84.432 E.07039
G1 X130.037 Y149.246 E2.0322
G1 X129.641 Y151.172 E.06165
G1 X128.518 Y152.786 E.06165
G1 X126.849 Y153.827 E.06168
G1 X125.152 Y154.131 E.05406
G1 X105.848 Y154.131 E.60526
G1 X103.922 Y153.735 E.06165
G1 X102.307 Y152.612 E.06168
G1 X101.267 Y150.942 E.06169
G1 X100.963 Y149.246 E.05402
G1 X100.964 Y141.88 E.23096
G1 X102.302 Y81.646 E1.88906
G1 X102.741 Y79.729 E.06166
G1 X103.865 Y78.188 E.0598
G1 X103.865 Y78.188 F9000
G1 X104.181 Y78.431
G1 F1200
G1 X104.267 Y78.319 E.00443
G1 X105.93 Y77.425 E.0592
G1 X107.187 Y77.246 E.03981
G1 X123.813 Y77.246 E.5213
G1 X125.66 Y77.642 E.05923
G1 X127.183 Y78.759 E.05922
G1 X127.846 Y79.738 E.03707
G1 X129.184 Y82.415 E.09384
G1 X129.66 Y84.432 E.06498
G1 X129.66 Y149.246 E2.0322
G1 X129.265 Y151.092 E.05919
G1 X128.147 Y152.615 E.05924
G1 X126.504 Y153.546 E.05921
G1 X125.152 Y153.754 E.04289
G1 X105.848 Y153.754 E.60526
G1 X104.001 Y153.358 E.05923
G1 X102.479 Y152.241 E.05919
G1 X101.547 Y150.598 E.05923
G1 X101.34 Y149.246 E.04288
G1 X101.341 Y141.889 E.23067
G1 X102.679 Y81.654 E1.88909
G1 X103.116 Y79.817 E.05921
G1 X104.144 Y78.479 E.0529
G1 X104.144 Y78.479 F9000
G1 X104.452 Y78.729
G1 F1200
G1 X104.632 Y78.508 E.00894
G1 X106.262 Y77.728 E.05666
G1 X107.187 Y77.623 E.02919
G1 X123.813 Y77.623 E.5213
G1 X125.577 Y78.018 E.05668
G1 X127.002 Y79.128 E.05664
G1 X127.508 Y79.907 E.02913
G1 X128.847 Y82.584 E.09385
G1 X129.283 Y84.432 E.05953
G1 X129.283 Y149.246 E2.0322
G1 X128.888 Y151.009 E.05665
G1 X127.778 Y152.435 E.05666
G1 X126.166 Y153.251 E.05665
G1 X125.152 Y153.377 E.03204
G1 X105.848 Y153.377 E.60526
G1 X104.085 Y152.982 E.05665
G1 X102.659 Y151.872 E.05666
G1 X101.843 Y150.26 E.05665
G1 X101.717 Y149.246 E.03204
G1 X101.718 Y141.897 E.23042
G1 X103.056 Y81.663 E1.88906
G1 X103.491 Y79.909 E.05666
G1 X104.414 Y78.776 E.04582
G1 X104.414 Y78.776 F9000
G1 X104.71 Y79.034
G1 F1200
G1 X104.995 Y78.706 E.01362
G1 X107.187 Y78 E.07221
G1 X123.813 Y78 E.5213
G1 X125.489 Y78.395 E.05399
G1 X127.171 Y80.076 E.07456
G1 X128.51 Y82.753 E.09385
G1 X128.906 Y84.432 E.05409
G1 X128.906 Y149.246 E2.0322
G1 X128.511 Y150.921 E.05396
G1 X127.41 Y152.244 E.05397
G1 X125.152 Y153 E.07466
G1 X105.848 Y153 E.60526
G1 X104.173 Y152.605 E.05396
G1 X102.849 Y151.504 E.05399
G1 X102.094 Y149.246 E.07465
G1 X102.095 Y141.905 E.23017
G1 X103.433 Y81.671 E1.88906
G1 X103.865 Y80.005 E.05396
G1 X104.671 Y79.079 E.03849
G1 X104.954 Y79.345 F9000
G1 F1200
G1 X105.357 Y78.916 E.01846
G1 X107.187 Y78.377 E.05982
G1 X123.813 Y78.377 E.5213
G1 X125.396 Y78.771 E.05115
G1 X126.834 Y80.244 E.06454
G1 X128.172 Y82.921 E.09384
G1 X128.529 Y84.432 E.04868
G1 X128.529 Y149.246 E2.0322
G1 X128.135 Y150.829 E.05115
G1 X127.045 Y152.042 E.05113
G1 X125.152 Y152.623 E.06209
G1 X105.848 Y152.623 E.60526
G1 X104.265 Y152.229 E.05115
G1 X103.051 Y151.138 E.05118
G1 X102.471 Y149.246 E.06205
G1 X102.472 Y141.914 E.22989
G1 X103.81 Y81.679 E1.88909
G1 X104.24 Y80.105 E.05116
G1 X104.913 Y79.389 E.03081
G1 E-3.5 F3600
;WIPE_START
G1 F7200
G1 X104.954 Y79.345 E-.02857
G1 X105.357 Y78.916 E-.27959
G1 X107.187 Y78.377 E-.90617
G1 X107.788 Y78.377 E-.28567
;WIPE_END
; printing object Right-Right_PartBody id:0 copy 0
G1 X123.813 Y84.432 F9000
G1 E5 F2400
;TYPE:Support material
G1 F1200
G1 X125.152 Y84.432 E.04198
G1 X125.152 Y149.246 E2.0322
G1 X105.848 Y149.246 E.60526
G1 X105.848 Y141.989 E.22754
G1 X109.038 Y141.989 E.10002
G1 X109.038 Y145.666 E.11529
G1 X109.309 Y145.937 E.01202
G1 X116.665 Y145.923 E.23064
G1 X117.196 Y145.639 E.01888
G1 X117.397 Y145.322 E.01177
G1 X117.462 Y144.986 E.01073
G1 X117.462 Y137.784 E.22581
G1 X117.191 Y137.513 E.01202
G1 X116.062 Y137.513 E.0354
G1 X116.062 Y133.957 E.1115
G1 X116.556 Y133.957 E.01549
G1 X116.556 Y101.058 E1.03153
G1 X116.062 Y101.058 E.01549
G1 X116.062 Y97.437 E.11353
G1 X117.191 Y97.437 E.0354
G1 X117.462 Y97.166 E.01202
G1 X117.448 Y89.81 E.23064
G1 X117.164 Y89.279 E.01888
G1 X116.889 Y89.095 E.01037
G1 X116.534 Y89.014 E.01142
G1 X109.309 Y89.013 E.22653
G1 X109.038 Y89.284 E.01202
G1 X109.038 Y91.638 E.07381
G1 X107.187 Y91.638 E.05804
G1 X107.187 Y81.754 E.30991
G1 X123.813 Y81.754 E.5213
G1 X123.813 Y84.375 E.08218
G1 X123.813 Y84.375 F9000
G1 X124.717 Y149.076
G1 F1200
G1 X124.717 Y84.771 E2.01624
G1 X124.299 Y84.771 E.01311
G1 X124.299 Y148.906 E2.01091
G1 X123.88 Y148.906 E.01314
G1 X123.88 Y84.771 E2.01091
G1 X123.474 Y84.771 E.01273
G1 X123.474 Y82.094 E.08394
G1 X123.461 Y148.906 E2.09484
G1 X123.042 Y148.906 E.01314
G1 X123.042 Y82.094 E2.09484
G1 X122.623 Y82.094 E.01314
G1 X122.623 Y148.906 E2.09484
G1 X122.204 Y148.906 E.01314
G1 X122.204 Y82.094 E2.09484
G1 X121.785 Y82.094 E.01314
G1 X121.785 Y148.906 E2.09484
G1 X121.366 Y148.906 E.01314
G1 X121.366 Y82.094 E2.09484
G1 X120.947 Y82.094 E.01314
G1 X120.947 Y148.906 E2.09484
G1 X120.528 Y148.906 E.01314
G1 X120.528 Y82.094 E2.09484
G1 X120.109 Y82.094 E.01314
G1 X120.109 Y148.906 E2.09484
G1 X119.69 Y148.906 E.01314
G1 X119.69 Y82.094 E2.09484
G1 X119.271 Y82.094 E.01314
G1 X119.271 Y148.906 E2.09484
G1 X118.852 Y148.906 E.01314
G1 X118.852 Y82.094 E2.09484
G1 X118.433 Y82.094 E.01314
G1 X118.433 Y148.906 E2.09484
G1 X118.014 Y148.906 E.01314
G1 X118.014 Y82.094 E2.09484
G1 X117.595 Y82.094 E.01314
G1 X117.595 Y89.271 E.22503
G1 X117.176 Y88.863 E.01834
G1 X117.176 Y82.094 E.21224
G1 X116.757 Y82.094 E.01314
G1 X116.757 Y88.699 E.2071
G1 X116.338 Y88.674 E.01316
G1 X116.338 Y82.094 E.20631
G1 X115.919 Y82.094 E.01314
G1 X115.919 Y88.674 E.20631
G1 X115.5 Y88.674 E.01314
G1 X115.5 Y82.094 E.20631
G1 X115.081 Y82.094 E.01314
G1 X115.081 Y88.674 E.20631
G1 X114.662 Y88.674 E.01314
G1 X114.662 Y82.094 E.20631
G1 X114.243 Y82.094 E.01314
G1 X114.243 Y88.674 E.20631
G1 X113.824 Y88.674 E.01314
G1 X113.824 Y82.094 E.20631
G1 X113.405 Y82.094 E.01314
G1 X113.405 Y88.674 E.20631
G1 X112.986 Y88.674 E.01314
G1 X112.986 Y82.094 E.20631
G1 X112.567 Y82.094 E.01314
G1 X112.567 Y88.674 E.20631
G1 X112.148 Y88.674 E.01314
G1 X112.148 Y82.094 E.20631
G1 X111.729 Y82.094 E.01314
G1 X111.729 Y88.674 E.20631
G1 X111.31 Y88.674 E.01314
G1 X111.31 Y82.094 E.20631
G1 X110.891 Y82.094 E.01314
G1 X110.891 Y88.674 E.20631
G1 X110.472 Y88.674 E.01314
G1 X110.472 Y82.094 E.20631
G1 X110.053 Y82.094 E.01314
G1 X110.053 Y88.674 E.20631
G1 X109.634 Y88.674 E.01314
G1 X109.634 Y82.094 E.20631
G1 X109.215 Y82.094 E.01314
G1 X109.215 Y88.674 E.20631
G1 X108.796 Y89.045 E.01755
G1 X108.796 Y82.094 E.21794
G1 X108.377 Y82.094 E.01314
G1 X108.377 Y91.299 E.28862
G1 X107.958 Y91.299 E.01314
G1 X107.958 Y82.094 E.28862
G1 X107.539 Y82.094 E.01314
G1 X107.539 Y91.468 E.29392
G1 E-3.5 F3600
;WIPE_START
G1 F7200
G1 X107.539 Y88.31 E-1.5
;WIPE_END
G1 X117.595 Y149.076 F9000
G1 E5 F2400
G1 F1200
G1 X117.595 Y145.679 E.10651
G1 X117.176 Y146.087 E.01834
G1 X117.176 Y148.906 E.08839
G1 X116.757 Y148.906 E.01314
G1 X116.757 Y146.251 E.08325
G1 X116.338 Y146.276 E.01316
G1 X116.338 Y148.906 E.08246
G1 X115.919 Y148.906 E.01314
G1 X115.919 Y146.276 E.08246
G1 X115.5 Y146.276 E.01314
G1 X115.5 Y148.906 E.08246
G1 X115.081 Y148.906 E.01314
G1 X115.081 Y146.276 E.08246
G1 X114.662 Y146.276 E.01314
G1 X114.662 Y148.906 E.08246
G1 X114.243 Y148.906 E.01314
G1 X114.243 Y146.276 E.08246
G1 X113.824 Y146.276 E.01314
G1 X113.824 Y148.906 E.08246
G1 X113.405 Y148.906 E.01314
G1 X113.405 Y146.276 E.08246
G1 X112.986 Y146.276 E.01314
G1 X112.986 Y148.906 E.08246
G1 X112.567 Y148.906 E.01314
G1 X112.567 Y146.276 E.08246
G1 X112.148 Y146.276 E.01314
G1 X112.148 Y148.906 E.08246
G1 X111.729 Y148.906 E.01314
G1 X111.729 Y146.276 E.08246
G1 X111.31 Y146.276 E.01314
G1 X111.31 Y148.906 E.08246
G1 X110.891 Y148.906 E.01314
G1 X110.891 Y146.276 E.08246
G1 X110.472 Y146.276 E.01314
G1 X110.472 Y148.906 E.08246
G1 X110.053 Y148.906 E.01314
G1 X110.053 Y146.276 E.08246
G1 X109.634 Y146.276 E.01314
G1 X109.634 Y148.906 E.08246
G1 X109.215 Y148.906 E.01314
G1 X109.215 Y146.276 E.08246
G1 X108.796 Y145.905 E.01755
G1 X108.796 Y148.906 E.09409
G1 X108.377 Y148.906 E.01314
G1 X108.377 Y142.328 E.20625
G1 X107.958 Y142.328 E.01314
G1 X107.958 Y148.906 E.20625
G1 X107.539 Y148.906 E.01314
G1 X107.539 Y142.328 E.20625
G1 X107.12 Y142.328 E.01314
G1 X107.12 Y148.906 E.20625
G1 X106.701 Y148.906 E.01314
G1 X106.701 Y142.328 E.20625
G1 X106.283 Y142.328 E.01311
G1 X106.283 Y149.076 E.21158
G1 E-3.5 F3600
;WIPE_START
G1 F7200
G1 X106.283 Y145.918 E-1.5
;WIPE_END
G1 X117.595 Y137.677 F9000
G1 E5 F2400
G1 F1200
G1 X117.595 Y97.513 E1.25931
G1 X117.332 Y97.776 E.01166
G1 X117.176 Y97.776 E.00489
G1 X117.176 Y137.174 E1.2353
G1 X116.757 Y137.174 E.01314
G1 X116.757 Y97.607 E1.2406
G1 E-3.5 F3600
;WIPE_START
G1 F7200
G1 X116.757 Y100.765 E-1.5
;WIPE_END
G1 X115.793 Y90.359 F9000
G1 E5 F2400
;TYPE:Perimeter
;WIDTH:0.469907
G1 F1200
G1 X115.661 Y90.15 E.00878
G1 X116.284 Y90.18 E.02214
G1 X116.298 Y91.156 E.03466
G1 X115.825 Y90.41 E.03136
G1 E-3.5 F3600
;WIPE_START
G1 F7200
G1 X115.793 Y90.359 E-.0286
G1 X115.661 Y90.15 E-.11742
G1 X116.284 Y90.18 E-.29627
G1 X116.298 Y91.156 E-.46365
G1 X115.825 Y90.41 E-.41957
;WIPE_END
G1 E-.17449 F3600
G1 X111.413 Y90.116 F9000
G1 E5 F2400
;WIDTH:0.419999
G1 F1200
G1 X110.986 Y90.716 E.02309
G1 X110.187 Y92.091 E.04986
G1 X110.187 Y90.157 E.06064
G1 X110.746 Y90.152 E.01753
G1 X111.353 Y90.119 E.01906
G1 X111.353 Y90.119 F9000
G1 X110.626 Y90.516
;WIDTH:0.488446
G1 F1200
G1 X110.571 Y90.516 E.00204
G1 X110.543 Y90.564 E.00206
G1 X110.571 Y90.613 E.00209
G1 X110.626 Y90.613 E.00204
G1 X110.654 Y90.564 E.00209
G1 E-3.5 F3600
;WIPE_START
G1 F7200
G1 X110.626 Y90.613 E-.02681
G1 X110.571 Y90.613 E-.02613
G1 X110.543 Y90.564 E-.02681
G1 X110.571 Y90.516 E-.0264
G1 X110.626 Y90.516 E-.02613
;WIPE_END
G1 E-1.36772 F3600
G1 X110.564 Y94.768 F9000
G1 E5 F2400
;WIDTH:0.419999
G1 F1200
G1 X111.17 Y95.818 E.03801
G1 X111.584 Y96.199 E.01764
G1 X111.987 Y96.289 E.01295
G1 X114.834 Y96.289 E.08927
G1 X114.536 Y96.854 E.02003
G1 X114.536 Y103.411 E.20559
G1 X112.879 Y103.411 E.05195
G1 X112.52 Y103.482 E.01147
G1 X112.25 Y103.651 E.00999
G1 X112.025 Y103.952 E.01178
G1 X111.936 Y104.354 E.01291
G1 X111.936 Y130.596 E.8228
G1 X112.025 Y130.998 E.01291
G1 X112.25 Y131.299 E.01178
G1 X112.52 Y131.468 E.00999
G1 X112.879 Y131.539 E.01147
G1 X114.536 Y131.539 E.05195
G1 X114.536 Y138.096 E.20559
G1 X114.834 Y138.661 E.02003
G1 X111.987 Y138.661 E.08927
G1 X111.584 Y138.751 E.01295
G1 X111.17 Y139.132 E.01764
G1 X110.564 Y140.182 E.03801
G1 X110.564 Y94.828 E1.42204
G1 X110.564 Y94.828 F9000
G1 X111.9 Y95.893
G1 F1200
G1 X111.987 Y95.912 E.00279
G1 X113.971 Y95.912 E.06221
;WIDTH:0.441126
G1 X115.014 Y95.923 E.03454
;WIDTH:0.457445
G1 X115.234 Y95.888 E.00768
G1 X115.502 Y95.632 E.01277
;WIDTH:0.419999
G1 X116.323 Y94.185 E.05216
G1 X116.314 Y96.288 E.06594
G1 X115.878 Y96.288 E.01367
;WIDTH:0.457445
G1 X115.356 Y96.282 E.01799
G1 X115.154 Y96.378 E.00771
;WIDTH:0.441126
G1 X114.913 Y96.854 E.01767
;WIDTH:0.419999
G1 X114.913 Y103.788 E.21741
G1 X112.879 Y103.788 E.06377
G1 X112.663 Y103.83 E.0069
G1 X112.501 Y103.932 E.006
G1 X112.367 Y104.113 E.00706
G1 X112.313 Y104.354 E.00774
G1 X112.313 Y130.596 E.8228
G1 X112.367 Y130.837 E.00774
G1 X112.501 Y131.018 E.00706
G1 X112.663 Y131.12 E.006
G1 X112.879 Y131.162 E.0069
G1 X114.913 Y131.162 E.06377
G1 X114.913 Y138.096 E.21741
;WIDTH:0.441127
G1 X115.154 Y138.572 E.01767
;WIDTH:0.457452
G1 X115.258 Y138.638 E.00425
G1 X115.479 Y138.673 E.00771
;WIDTH:0.441126
G1 X116.314 Y138.662 E.02765
;WIDTH:0.419999
G1 X116.323 Y140.778 E.06635
G1 X115.502 Y139.318 E.05252
;WIDTH:0.457451
G1 X115.234 Y139.062 E.01277
G1 X115.014 Y139.027 E.00768
;WIDTH:0.441127
G1 X113.971 Y139.038 E.03454
;WIDTH:0.419999
G1 X111.987 Y139.038 E.06221
G1 X111.745 Y139.092 E.00777
G1 X111.497 Y139.321 E.01058
G1 X110.187 Y141.589 E.08212
G1 X110.187 Y93.361 E1.51215
G1 X111.497 Y95.629 E.08212
G1 X111.745 Y95.858 E.01058
G1 X111.841 Y95.88 E.00309
G1 E-3.5 F3600
;WIPE_START
G1 F7200
G1 X111.9 Y95.893 E-.0287
G1 X111.987 Y95.912 E-.0423
G1 X113.971 Y95.912 E-.9424
G1 X114.995 Y95.922 E-.4866
;WIPE_END
G1 X115.909 Y139.044 F9000
G1 E5 F2400
;WIDTH:0.537662
G1 F1200
G1 X115.847 Y139.044 E.00255
G1 X115.816 Y139.098 E.00256
G1 X115.847 Y139.152 E.00256
G1 X115.909 Y139.152 E.00255
G1 X115.94 Y139.098 E.00256
G1 E-3.5 F3600
;WIPE_START
G1 F7200
G1 X115.909 Y139.152 E-.02958
G1 X115.847 Y139.152 E-.02945
G1 X115.816 Y139.098 E-.02958
G1 X115.847 Y139.044 E-.02958
G1 X115.909 Y139.044 E-.02945
;WIPE_END
G1 E-1.35236 F3600
G1 X116.298 Y143.794 F9000
G1 E5 F2400
;WIDTH:0.469743
G1 F1200
G1 X116.284 Y144.768 E.03457
G1 X115.644 Y144.796 E.02274
G1 X116.035 Y144.247 E.02392
G1 X116.268 Y143.846 E.01646
G1 E-3.5 F3600
;WIPE_START
G1 F7200
G1 X116.298 Y143.794 E-.02852
G1 X116.284 Y144.768 E-.4627
G1 X115.644 Y144.796 E-.30429
G1 X116.035 Y144.247 E-.32015
G1 X116.268 Y143.846 E-.22029
;WIPE_END
G1 E-.16405 F3600
G1 X111.419 Y144.843 F9000
G1 E5 F2400
;WIDTH:0.419999
G1 F1200
G1 X110.903 Y144.793 E.01625
G1 X110.187 Y144.79 E.02245
G1 X110.187 Y142.859 E.06055
G1 X111.016 Y144.28 E.05158
G1 X111.384 Y144.794 E.01982
G1 X111.384 Y144.794 F9000
G1 X110.625 Y144.334
;WIDTH:0.486412
G1 F1200
G1 X110.57 Y144.334 E.00203
G1 X110.542 Y144.382 E.00205
G1 X110.57 Y144.43 E.00205
G1 X110.625 Y144.43 E.00203
G1 X110.653 Y144.382 E.00205
G1 E-3.5 F3600
;WIPE_START
G1 F7200
G1 X110.625 Y144.43 E-.0264
G1 X110.57 Y144.43 E-.02612
G1 X110.542 Y144.382 E-.0264
G1 X110.57 Y144.334 E-.0264
G1 X110.625 Y144.334 E-.02612
;WIPE_END
G1 E-1.36856 F3600
G1 X110.296 Y142.328 F9000
G1 E5 F2400
;TYPE:External perimeter
;WIDTH:0.451437
G1 F1200
G1 X111.278 Y143.986 E.06546
;WIDTH:0.419999
G1 X111.894 Y144.856 E.03342
;WIDTH:0.418353
G1 X112.046 Y144.923 E.00519
;WIDTH:0.39646
G1 X114.954 Y144.923 E.08549
;WIDTH:0.415049
G1 X115.105 Y144.855 E.00512
;WIDTH:0.419999
G1 X115.687 Y144.045 E.03127
G1 X116.097 Y143.289 E.02697
;WIDTH:0.468792
G1 X116.246 Y143.035 E.01043
;WIDTH:0.517584
G1 X116.395 Y142.782 E.01159
;WIDTH:0.566376
G1 X116.544 Y142.528 E.01282
;WIDTH:0.615168
G1 X116.692 Y142.275 E.01395
G1 X116.715 Y142.371 E.0047
;WIDTH:0.568885
G1 X116.738 Y142.468 E.00436
;WIDTH:0.522601
G1 X116.728 Y142.802 E.01333
;WIDTH:0.488401
G1 X116.717 Y143.137 E.01242
;WIDTH:0.4542
